P3
480 224
255
0 0 12
14 29 40
62 77 90
96 123 138
91 117 133
84 109 126
85 116 133
89 120 137
86 121 140
82 117 137
80 115 137
82 116 140
80 117 140
80 117 140
78 117 140
78 117 140
78 117 140
78 117 140
78 117 140
78 117 140
78 117 140
80 117 140
80 115 140
78 115 139
78 115 139
77 114 138
77 114 138
76 113 137
76 113 137
76 113 137
76 113 137
77 113 139
76 114 136
71 110 131
71 110 131
71 110 131
71 110 131
71 110 131
71 110 131
71 110 131
71 110 131
71 110 131
71 110 131
71 110 131
71 110 131
71 110 131
71 110 131
71 110 131
71 110 131
71 110 131
71 110 131
71 110 131
71 110 131
71 110 131
71 110 131
71 110 131
71 110 131
71 110 131
70 105 125
70 105 125
70 105 125
70 105 125
70 105 125
70 105 125
70 105 125
70 105 125
70 105 125
70 105 125
70 105 125
70 105 125
70 105 125
70 105 125
70 105 125
70 105 125
70 105 125
70 105 125
70 105 125
70 105 125
70 105 125
70 105 125
70 105 125
70 105 125
70 105 125
70 105 125
70 105 125
70 105 125
70 105 125
71 97 112
71 97 112
70 92 106
70 92 106
68 87 100
68 87 100
70 92 106
81 101 115
88 109 125
81 101 115
47 64 75
12 20 29
0 2 9
0 0 4
1 2 3
0 1 0
0 1 0
0 1 0
0 1 0
0 1 0
0 1 0
0 1 0
0 1 0
0 1 0
0 1 0
0 1 0
0 1 0
0 0 0
0 0 0
1 0 0
2 0 0
2 0 0
2 0 0
2 0 0
2 0 0
2 0 0
2 0 0
2 0 0
2 0 0
2 0 0
2 0 0
2 0 0
2 0 0
2 0 0
2 0 0
2 0 0
2 0 2
2 0 2
2 0 2
2 0 2
2 0 2
2 0 2
2 0 2
2 0 2
2 0 2
2 0 2
2 0 2
2 0 2
2 0 1
3 0 0
4 0 0
4 0 0
4 0 0
7 1 0
7 1 0
7 1 0
7 1 0
4 0 0
4 0 0
3 4 2
4 2 0
1 0 0
0 2 3
1 6 12
2 6 12
1 4 5
0 0 0
3 0 2
2 1 7
0 4 16
14 29 40
31 51 61
47 64 75
24 35 46
0 1 4
0 0 0
1 4 1
3 4 2
4 2 0
4 2 0
4 2 0
2 3 2
0 4 1
0 3 2
0 4 5
0 3 5
0 1 6
0 1 6
0 1 6
0 1 6
0 1 6
0 1 6
0 1 6
0 1 6
0 1 6
0 1 6
0 1 6
0 1 6
0 1 6
0 1 6
2 1 7
2 1 7
2 1 3
2 0 2
2 0 1
2 0 0
2 0 0
2 0 0
2 0 0
2 0 0
2 0 0
2 0 0
2 0 0
2 0 0
2 0 0
2 0 0
2 0 0
2 0 0
2 0 0
1 0 0
0 0 0
0 1 0
0 1 0
0 1 0
0 1 0
0 1 0
0 1 0
0 1 0
0 1 0
0 1 0
0 1 0
0 1 0
0 1 0
0 1 0
0 1 0
0 1 0
0 0 0
0 0 0
0 0 0
0 0 0
0 0 0
0 0 0
0 0 0
0 0 0
0 0 0
0 0 0
0 0 0
0 0 0
0 0 0
0 0 0
0 0 0
0 0 0
0 0 0
0 0 0
0 0 0
0 0 0
0 0 0
0 0 0
0 0 0
0 0 0
0 0 0
0 0 0
0 0 0
0 0 0
0 0 0
0 0 0
0 0 0
0 0 0
0 0 0
0 0 0
0 0 0
0 0 0
0 0 0
0 0 0
0 0 0
0 0 0
0 0 0
0 0 0
0 0 0
0 0 0
0 0 0
0 0 0
0 0 0
0 0 0
0 0 0
0 0 0
0 0 0
0 0 0
0 0 0
0 0 0
0 0 0
0 0 0
0 0 0
0 0 0
0 0 0
0 0 0
0 0 0
0 0 0
0 0 0
0 0 0
0 0 0
0 0 0
0 0 0
0 0 0
0 0 0
0 0 0
0 0 0
0 0 0
0 0 0
0 0 0
0 0 0
0 0 0
0 0 0
0 0 0
0 0 0
0 0 0
0 0 0
0 0 0
0 0 0
0 0 0
0 0 0
0 0 0
0 0 0
0 0 0
0 0 0
0 0 0
0 0 0
0 0 0
0 0 0
0 0 0
0 0 0
0 0 0
0 0 0
1 0 0
2 0 0
3 0 0
3 0 0
3 0 0
2 0 0
2 1 2
0 2 4
0 0 2
0 0 7
12 20 29
31 51 61
62 77 90
88 109 125
97 121 136
89 118 136
83 113 135
77 111 130
77 111 130
76 114 136
77 116 137
76 116 136
76 116 136
77 115 136
77 115 136
77 115 136
77 115 136
77 115 136
77 115 136
77 115 136
77 115 136
77 115 136
79 114 136
79 113 135
79 114 134
82 118 141
87 124 142
87 124 142
86 121 140
82 117 137
79 113 135
77 111 130
71 110 131
70 105 125
55 79 91
55 79 91
53 72 83
47 64 75
31 51 61
31 51 61
31 51 61
23 41 52
4 17 26
0 4 16
0 1 13
0 4 16
0 4 16
0 4 16
0 1 13
0 1 13
0 4 16
0 8 14
0 12 19
0 12 19
2 10 15
2 10 15
2 10 15
0 12 19
0 12 19
2 10 15
1 6 12
0 4 5
0 1 3
0 0 0
0 0 0
0 2 3
0 4 5
0 6 5
0 6 5
3 4 6
3 4 6
6 1 4
6 1 4
7 1 0
7 1 0
7 1 0
7 1 0
7 1 0
7 1 0
7 1 0
7 1 0
7 1 0
7 1 0
4 2 0
3 4 2
1 4 1
0 5 1
0 5 1
0 5 1
0 5 1
0 5 1
0 5 1
0 5 1
0 4 1
0 3 0
1 2 0
2 1 0
2 0 0
3 0 0
3 0 0
3 0 0
3 0 0
3 0 0
3 0 0
3 0 0
2 0 0
2 0 0
2 0 0
1 0 0
0 0 0
0 0 0
0 0 0
0 0 0
0 1 0
0 1 0
0 1 0
0 1 0
0 1 0
0 1 0
0 1 0
0 1 0
0 1 0
0 1 0
0 0 0
0 0 0
1 0 1
2 0 2
2 0 2
2 0 2
2 0 2
2 0 2
2 0 2
2 0 2
2 0 2
2 0 2
2 0 2
2 0 2
2 0 2
2 0 2
2 0 2
0 0 12
14 29 40
62 77 90
96 123 138
91 117 133
84 109 126
85 116 133
89 120 137
86 121 140
82 117 137
80 115 137
82 116 140
80 117 140
80 117 140
78 117 140
78 117 140
78 117 140
78 117 140
78 117 140
78 117 140
78 117 140
80 117 140
80 115 140
78 115 139
78 115 139
77 114 138
77 114 138
76 113 137
76 113 137
76 113 137
76 113 137
77 113 139
76 114 136
72 113 134
71 110 131
71 110 131
71 110 131
71 110 131
71 110 131
71 110 131
71 110 131
71 110 131
71 110 131
71 110 131
71 110 131
71 110 131
71 110 131
71 110 131
71 110 131
71 110 131
71 110 131
71 110 131
71 110 131
71 110 131
71 110 131
71 110 131
72 113 134
71 110 131
71 110 131
70 105 125
70 105 125
70 105 125
70 105 125
70 105 125
70 105 125
70 105 125
70 105 125
70 105 125
70 105 125
70 105 125
70 105 125
70 105 125
70 105 125
70 105 125
70 105 125
70 105 125
70 105 125
70 105 125
70 105 125
70 105 125
70 105 125
70 105 125
70 105 125
70 105 125
70 105 125
70 105 125
70 105 125
70 105 125
70 105 125
70 105 125
71 97 112
70 92 106
70 92 106
81 101 115
88 109 125
81 101 115
68 87 100
39 51 61
4 17 26
0 2 9
0 0 4
1 2 3
0 1 0
0 1 0
0 1 0
0 1 0
0 1 0
0 1 0
0 1 0
0 1 0
0 1 0
0 1 0
0 1 0
0 1 0
0 0 0
0 0 0
1 0 0
2 0 0
2 0 0
2 0 0
2 0 0
2 0 0
2 0 0
2 0 0
2 0 0
2 0 0
2 0 0
2 0 0
2 0 0
2 0 0
2 0 0
2 0 0
2 0 0
2 0 2
2 0 2
2 0 2
2 0 2
2 0 2
2 0 2
2 0 2
2 0 2
2 0 2
2 0 2
2 0 2
2 0 2
2 0 1
3 0 0
4 0 0
4 0 0
7 1 0
7 1 0
7 1 0
7 1 0
7 1 0
7 1 0
7 1 0
3 4 2
4 2 0
1 0 0
0 2 3
1 6 12
2 6 12
3 4 6
0 1 1
0 0 2
0 1 10
4 17 26
23 41 52
47 64 75
53 72 83
24 35 46
0 3 5
0 0 0
1 4 1
3 4 2
4 2 0
4 2 0
4 2 0
2 3 2
0 4 1
0 3 2
0 4 5
0 3 5
0 1 6
0 1 6
0 1 6
0 1 6
0 1 6
0 1 6
0 1 6
0 1 6
0 1 6
0 1 6
0 1 6
0 1 6
0 1 6
0 1 6
2 1 7
2 1 7
2 1 3
2 0 2
2 0 1
2 0 0
2 0 0
2 0 0
2 0 0
2 0 0
2 0 0
2 0 0
2 0 0
2 0 0
2 0 0
2 0 0
2 0 0
2 0 0
2 0 0
1 0 0
0 0 0
0 1 0
0 1 0
0 1 0
0 1 0
0 1 0
0 1 0
0 1 0
0 1 0
0 1 0
0 1 0
0 1 0
0 1 0
0 1 0
0 1 0
0 1 0
0 0 0
0 0 0
0 0 0
0 0 0
0 0 0
0 0 0
0 0 0
0 0 0
0 0 0
0 0 0
0 0 0
0 0 0
0 0 0
0 0 0
0 0 0
0 0 0
0 0 0
0 0 0
0 0 0
0 0 0
0 0 0
0 0 0
0 0 0
0 0 0
0 0 0
0 0 0
0 0 0
0 0 0
0 0 0
0 0 0
0 0 0
0 0 0
0 0 0
0 0 0
0 0 0
0 0 0
0 0 0
0 0 0
0 0 0
0 0 0
0 0 0
0 0 0
0 0 0
0 0 0
0 0 0
0 0 0
0 0 0
0 0 0
0 0 0
0 0 0
0 0 0
0 0 0
0 0 0
0 0 0
0 0 0
0 0 0
0 0 0
0 0 0
0 0 0
0 0 0
0 0 0
0 0 0
0 0 0
0 0 0
0 0 0
0 0 0
0 0 0
0 0 0
0 0 0
0 0 0
0 0 0
0 0 0
0 0 0
0 0 0
0 0 0
0 0 0
0 0 0
0 0 0
0 0 0
0 0 0
0 0 0
0 0 0
0 0 0
0 0 0
0 0 0
0 0 0
0 0 0
0 0 0
0 0 0
0 0 0
0 0 0
0 0 0
0 0 0
0 0 0
0 0 0
0 0 0
0 0 0
1 0 0
2 0 0
3 0 0
3 0 0
3 0 0
2 0 0
2 1 2
0 2 4
0 0 2
0 0 7
12 20 29
31 51 61
62 77 90
88 109 125
97 121 136
89 118 136
83 113 135
77 111 130
77 111 130
76 114 136
77 116 137
76 116 136
76 116 136
77 115 136
77 115 136
77 115 136
77 115 136
77 115 136
77 115 136
77 115 136
77 115 136
77 115 136
79 114 136
79 113 135
79 114 134
82 116 140
87 124 142
87 124 142
82 118 141
82 117 137
79 113 135
77 111 130
77 111 130
70 105 125
71 97 112
68 87 100
55 79 91
55 79 91
55 79 91
53 72 83
47 64 75
47 64 75
31 51 61
23 41 52
24 35 46
24 35 46
14 29 40
14 29 40
14 29 40
12 20 29
4 17 26
4 17 26
0 12 19
0 12 19
0 12 19
0 6 13
0 4 12
0 4 12
0 6 13
0 8 14
1 6 12
0 4 9
0 3 5
0 3 5
0 3 5
0 4 5
0 6 5
0 6 5
0 4 9
3 4 6
3 4 6
6 1 4
6 1 4
7 1 0
7 1 0
7 1 0
7 1 0
7 1 0
7 1 0
7 1 0
7 1 0
7 1 0
7 1 0
4 2 0
3 4 2
1 4 1
0 5 1
0 5 1
0 5 1
0 5 1
0 5 1
0 5 1
0 5 1
0 4 1
0 3 0
1 2 0
2 1 0
2 0 0
3 0 0
3 0 0
3 0 0
3 0 0
3 0 0
3 0 0
3 0 0
2 0 0
2 0 0
2 0 0
1 0 0
0 0 0
0 0 0
0 0 0
0 0 0
0 1 0
0 1 0
0 1 0
0 1 0
0 1 0
0 1 0
0 1 0
0 1 0
0 1 0
0 1 0
0 0 0
0 0 0
1 0 1
2 0 2
2 0 2
2 0 2
2 0 2
2 0 2
2 0 2
2 0 2
2 0 2
2 0 2
2 0 2
2 0 2
2 0 2
2 0 2
2 0 2
0 0 12
14 29 40
62 77 90
96 123 138
91 117 133
84 109 126
85 116 133
89 120 137
86 121 140
82 117 137
80 115 137
82 116 140
80 117 140
80 117 140
78 117 140
78 117 140
78 117 140
78 117 140
78 117 140
78 117 140
78 117 140
80 117 140
80 115 140
78 115 139
78 115 139
77 114 138
77 114 138
76 113 137
76 113 137
76 113 137
76 113 137
76 113 137
76 113 137
75 113 134
75 113 134
75 113 134
75 113 134
75 113 134
75 113 134
75 113 134
75 113 134
75 113 134
75 113 134
75 113 134
75 113 134
75 113 134
75 113 134
75 113 134
75 113 134
73 115 135
75 113 134
75 113 134
75 113 134
75 113 134
75 113 134
75 113 134
76 113 137
72 113 134
71 110 131
71 110 131
71 110 131
71 110 131
71 110 131
71 110 131
71 110 131
71 110 131
71 110 131
71 110 131
71 110 131
71 110 131
71 110 131
71 110 131
71 110 131
71 110 131
71 110 131
70 105 125
70 105 125
70 105 125
71 110 131
71 110 131
71 110 131
70 105 125
70 105 125
70 105 125
70 105 125
70 105 125
71 110 131
77 111 130
77 111 130
81 110 128
84 109 126
81 106 120
81 106 120
90 113 128
90 113 128
68 87 100
31 51 61
12 20 29
2 10 15
1 4 10
0 1 4
0 1 3
0 1 0
0 1 0
0 1 0
0 1 0
0 1 0
0 1 0
0 1 0
0 1 0
0 1 0
0 1 0
0 1 0
0 1 0
0 0 0
0 0 0
1 0 0
2 0 0
2 0 0
2 0 0
2 0 0
2 0 0
2 0 0
2 0 0
2 0 0
2 0 0
2 0 0
2 0 0
2 0 0
2 0 0
2 0 0
2 0 0
2 0 0
2 0 2
2 0 2
2 0 2
2 0 2
2 0 2
2 0 2
2 0 2
2 0 2
2 0 2
2 0 2
2 0 2
2 0 2
3 0 1
3 0 0
3 0 0
4 0 0
7 1 0
7 1 0
7 1 0
3 0 0
7 1 0
5 4 5
5 4 5
4 2 0
1 0 0
0 0 0
0 2 4
0 4 9
0 8 14
2 10 15
1 6 12
0 4 9
0 12 19
14 29 40
47 64 75
68 87 100
62 77 90
31 43 53
0 4 9
0 0 0
0 3 0
3 2 1
3 2 0
4 2 0
3 2 0
2 1 0
0 3 2
0 3 2
0 3 2
0 2 4
0 1 5
0 1 5
0 1 5
0 1 5
0 1 5
0 1 5
0 1 5
0 1 5
0 1 5
0 1 5
0 1 5
0 1 5
0 1 5
0 1 5
1 1 5
1 1 5
2 1 3
2 0 2
2 0 1
2 0 0
2 0 0
2 0 0
2 0 0
2 0 0
2 0 0
2 0 0
2 0 0
2 0 0
2 0 0
2 0 0
2 0 0
2 0 0
2 0 0
1 0 0
0 0 0
0 1 0
0 1 0
0 1 0
0 1 0
0 1 0
0 1 0
0 1 0
0 1 0
0 1 0
0 1 0
0 1 0
0 1 0
0 1 0
0 1 0
0 1 0
0 0 0
0 0 0
0 0 0
0 0 0
0 0 0
0 0 0
0 0 0
0 0 0
0 0 0
0 0 0
0 0 0
0 0 0
0 0 0
0 0 0
0 0 0
0 0 0
0 0 0
0 0 0
0 0 0
0 0 0
0 0 0
0 0 0
0 0 0
0 0 0
0 0 0
0 0 0
0 0 0
0 0 0
0 0 0
0 0 0
0 0 0
0 0 0
0 0 0
0 0 0
0 0 0
0 0 0
0 0 0
0 0 0
0 0 0
0 0 0
0 0 0
0 0 0
0 0 0
0 0 0
0 0 0
0 0 0
0 0 0
0 0 0
0 0 0
0 0 0
0 0 0
0 0 0
0 0 0
0 0 0
0 0 0
0 0 0
0 0 0
0 0 0
0 0 0
0 0 0
0 0 0
0 0 0
0 0 0
0 0 0
0 0 0
0 0 0
0 0 0
0 0 0
0 0 0
0 0 0
0 0 0
0 0 0
0 0 0
0 0 0
0 0 0
0 0 0
0 0 0
0 0 0
0 0 0
0 0 0
0 0 0
0 0 0
0 0 0
0 0 0
0 0 0
0 0 0
0 0 0
0 0 0
0 0 0
0 0 0
0 0 0
0 0 0
0 0 0
0 0 0
0 0 0
0 0 0
0 0 0
1 0 0
2 0 0
3 0 0
3 0 0
3 0 0
2 0 0
2 1 2
0 2 4
0 0 2
0 0 7
12 20 29
31 51 61
62 77 90
88 109 125
97 121 136
89 118 136
83 113 135
77 111 130
77 111 130
76 114 136
77 116 137
76 116 136
76 116 136
77 115 136
77 115 136
77 115 136
77 115 136
77 115 136
77 115 136
77 115 136
77 115 136
77 115 136
79 114 136
79 114 136
79 114 136
80 115 137
82 116 140
82 116 140
82 117 137
80 115 137
79 113 135
79 113 135
79 113 135
79 113 135
77 111 130
71 110 131
70 105 125
70 105 125
70 105 125
70 105 125
71 97 112
70 92 106
70 92 106
70 92 106
68 87 100
68 87 100
62 77 90
53 72 83
47 64 75
47 64 75
31 43 53
14 29 40
12 20 29
12 20 29
4 17 26
0 8 14
0 2 9
0 0 4
0 0 6
0 6 13
2 10 15
2 10 15
2 10 15
2 10 15
0 8 14
1 6 12
1 6 12
1 6 12
1 6 12
0 4 9
3 4 6
5 4 5
6 1 4
6 1 4
7 1 0
7 1 0
7 1 0
7 1 0
7 1 0
7 1 0
7 1 0
7 1 0
7 1 0
4 2 0
3 4 2
1 4 1
0 5 1
0 5 1
0 5 1
0 5 1
0 5 1
0 5 1
0 4 1
0 3 0
1 2 0
1 2 0
2 1 0
2 0 0
3 0 0
3 0 0
3 0 0
3 0 0
3 0 0
3 0 0
3 0 0
2 0 0
2 0 0
2 0 0
1 0 0
0 0 0
0 0 0
0 0 0
0 0 0
0 1 0
0 1 0
0 1 0
0 1 0
0 1 0
0 1 0
0 1 0
0 1 0
0 1 0
0 1 0
0 0 0
0 0 0
1 0 1
2 0 2
2 0 2
2 0 2
2 0 2
2 0 2
2 0 2
2 0 2
2 0 2
2 0 2
2 0 2
2 0 2
2 0 2
2 0 2
2 0 2
0 0 12
14 29 40
62 77 90
96 123 138
91 117 133
84 109 126
85 116 133
89 120 137
86 121 140
82 117 137
80 115 137
82 116 140
80 117 140
80 117 140
78 117 140
78 117 140
78 117 140
78 117 140
78 117 140
78 117 140
78 117 140
80 117 140
80 115 140
78 115 139
78 115 139
77 114 138
77 114 138
76 113 137
76 113 137
76 113 137
76 113 137
76 113 137
76 113 137
77 116 137
77 117 137
77 117 137
77 117 137
77 117 137
77 117 137
77 117 137
77 117 137
77 117 137
77 117 137
77 117 137
77 117 137
77 117 137
77 117 137
77 117 137
77 117 137
77 117 139
77 116 139
77 116 139
77 116 139
77 116 139
77 116 139
77 116 139
77 116 140
75 116 138
73 115 135
75 113 134
73 115 135
75 113 134
75 113 134
75 113 134
75 113 134
75 113 134
75 113 134
76 113 132
76 113 132
76 113 132
76 113 132
76 113 132
76 113 132
76 113 132
76 113 132
76 113 132
76 113 132
76 113 132
76 113 132
76 113 132
76 113 132
77 111 130
77 111 130
71 110 131
71 110 131
76 113 132
82 113 136
82 116 140
89 120 137
96 123 138
97 124 139
97 121 136
95 118 134
90 113 128
70 92 106
39 51 61
4 17 26
0 1 13
0 2 9
0 4 9
0 1 4
0 1 3
0 1 0
0 1 0
0 1 0
0 1 0
0 1 0
0 1 0
0 1 0
0 1 0
0 1 0
0 1 0
0 1 0
0 1 0
0 0 0
0 0 0
1 0 0
2 0 0
2 0 0
2 0 0
2 0 0
2 0 0
2 0 0
2 0 0
2 0 0
2 0 0
2 0 0
2 0 0
2 0 0
2 0 0
2 0 0
2 0 0
2 0 0
2 0 2
2 0 2
2 0 2
2 0 2
2 0 2
2 0 2
2 0 2
2 0 2
2 0 2
2 0 2
2 0 2
2 0 2
3 0 1
3 0 0
2 0 0
3 0 0
7 1 0
7 1 0
7 1 0
2 2 2
5 4 5
5 6 9
5 4 5
3 2 1
0 1 1
0 2 2
0 4 5
0 4 9
0 4 12
0 4 12
0 6 13
0 12 19
14 29 40
47 64 75
70 92 106
88 109 125
79 97 109
39 51 61
0 8 14
0 0 0
0 2 0
3 2 1
3 2 0
4 2 0
3 2 0
2 1 0
0 3 2
0 3 2
0 2 3
0 2 4
0 1 5
0 1 5
0 1 5
0 1 5
0 1 5
0 1 5
0 1 5
0 1 5
0 1 5
0 1 5
0 1 5
0 1 5
0 1 5
0 1 5
0 0 5
1 1 5
2 1 3
2 0 2
2 0 1
2 0 0
2 0 0
2 0 0
2 0 0
2 0 0
2 0 0
2 0 0
2 0 0
2 0 0
2 0 0
2 0 0
2 0 0
2 0 0
2 0 0
1 0 0
0 0 0
0 1 0
0 1 0
0 1 0
0 1 0
0 1 0
0 1 0
0 1 0
0 1 0
0 1 0
0 1 0
0 1 0
0 1 0
0 1 0
0 1 0
0 1 0
0 0 0
0 0 0
0 0 0
0 0 0
0 0 0
0 0 0
0 0 0
0 0 0
0 0 0
0 0 0
0 0 0
0 0 0
0 0 0
0 0 0
0 0 0
0 0 0
0 0 0
0 0 0
0 0 0
0 0 0
0 0 0
0 0 0
0 0 0
0 0 0
0 0 0
0 0 0
0 0 0
0 0 0
0 0 0
0 0 0
0 0 0
0 0 0
0 0 0
0 0 0
0 0 0
0 0 0
0 0 0
0 0 0
0 0 0
0 0 0
0 0 0
0 0 0
0 0 0
0 0 0
0 0 0
0 0 0
0 0 0
0 0 0
0 0 0
0 0 0
0 0 0
0 0 0
0 0 0
0 0 0
0 0 0
0 0 0
0 0 0
0 0 0
0 0 0
0 0 0
0 0 0
0 0 0
0 0 0
0 0 0
0 0 0
0 0 0
0 0 0
0 0 0
0 0 0
0 0 0
0 0 0
0 0 0
0 0 0
0 0 0
0 0 0
0 0 0
0 0 0
0 0 0
0 0 0
0 0 0
0 0 0
0 0 0
0 0 0
0 0 0
0 0 0
0 0 0
0 0 0
0 0 0
0 0 0
0 0 0
0 0 0
0 0 0
0 0 0
0 0 0
0 0 0
0 0 0
0 0 0
1 0 0
2 0 0
3 0 0
3 0 0
3 0 0
2 0 0
2 1 2
0 2 4
0 0 2
0 0 7
12 20 29
31 51 61
62 77 90
88 109 125
97 121 136
89 118 136
83 113 135
77 111 130
77 111 130
76 114 136
77 116 137
76 116 136
76 116 136
77 115 136
77 115 136
77 115 136
77 115 136
77 115 136
77 115 136
77 115 136
77 115 136
77 115 136
79 114 136
79 114 136
79 114 136
79 113 135
76 114 136
75 113 134
79 113 135
79 114 136
79 115 135
80 115 137
82 115 136
82 116 140
86 121 140
86 121 140
87 124 142
87 124 142
87 124 142
87 124 142
89 120 137
93 121 136
99 127 141
99 127 141
99 127 141
97 121 136
90 113 128
88 109 125
81 101 115
79 97 109
62 77 90
47 64 75
39 51 61
31 51 61
23 41 52
14 29 40
12 20 29
12 20 29
4 17 26
4 17 26
0 12 19
0 8 14
0 6 13
0 6 13
0 8 14
2 10 15
2 10 15
0 8 14
0 6 13
1 4 10
1 4 10
3 4 6
3 1 6
6 1 4
6 1 4
6 1 4
7 1 0
7 1 0
7 1 0
7 1 0
7 1 0
7 1 0
4 2 0
4 2 0
3 4 2
1 4 1
0 5 1
0 5 1
0 5 1
0 5 1
0 5 1
0 5 1
0 4 1
0 3 0
1 2 0
1 2 0
2 1 0
2 0 0
3 0 0
3 0 0
3 0 0
3 0 0
3 0 0
3 0 0
3 0 0
2 0 0
2 0 0
2 0 0
1 0 0
0 0 0
0 0 0
0 0 0
0 0 0
0 1 0
0 1 0
0 1 0
0 1 0
0 1 0
0 1 0
0 1 0
0 1 0
0 1 0
0 1 0
0 0 0
0 0 0
1 0 1
2 0 2
2 0 2
2 0 2
2 0 2
2 0 2
2 0 2
2 0 2
2 0 2
2 0 2
2 0 2
2 0 2
2 0 2
2 0 2
2 0 2
0 0 12
14 29 40
62 77 90
96 123 138
91 117 133
84 109 126
85 116 133
89 120 137
86 121 140
82 117 137
80 115 137
82 116 140
80 117 140
80 117 140
78 117 140
78 117 140
78 117 140
78 117 140
78 117 140
78 117 140
78 117 140
80 117 140
80 115 140
78 115 139
77 115 139
77 114 138
77 114 138
77 114 138
77 114 138
77 114 138
77 114 138
77 114 138
77 114 138
78 117 140
78 118 139
78 118 139
78 118 139
78 118 139
78 118 139
78 118 139
78 118 139
78 118 139
78 118 139
78 118 139
78 118 139
78 118 139
78 118 139
78 118 139
78 118 139
78 118 139
78 117 140
78 117 140
78 117 140
78 117 140
78 117 140
78 117 140
78 117 140
78 117 140
76 117 138
75 116 137
75 116 137
75 116 137
75 116 137
75 116 137
75 116 137
75 116 137
77 116 137
78 116 135
78 116 135
78 116 135
78 116 135
78 116 135
78 116 135
78 116 135
77 116 134
78 115 132
78 115 132
78 115 132
77 116 134
79 115 135
79 115 135
79 113 132
79 113 132
77 111 130
76 113 132
79 113 135
82 117 137
86 121 140
96 123 138
96 123 138
99 127 141
99 127 141
97 121 136
68 87 100
23 41 52
12 20 29
0 4 16
0 1 13
0 0 7
0 1 5
0 1 1
0 1 1
0 1 0
0 1 0
0 1 0
0 1 0
0 1 0
0 1 0
0 1 0
0 1 0
0 1 0
0 1 0
0 1 0
0 1 0
0 0 0
0 0 0
1 0 0
2 0 0
2 0 0
2 0 0
2 0 0
2 0 0
2 0 0
2 0 0
2 0 0
2 0 0
2 0 0
2 0 0
2 0 0
2 0 0
2 0 0
2 0 0
2 0 0
2 0 2
2 0 2
2 0 2
2 0 2
2 0 2
2 0 2
2 0 2
2 0 2
2 0 2
2 0 2
2 0 2
2 0 2
3 0 1
3 0 0
2 0 0
3 0 0
4 2 0
4 2 0
5 4 5
5 6 9
5 6 9
5 4 5
3 4 2
5 4 5
3 4 6
0 4 5
0 4 9
2 6 12
0 2 9
0 0 5
0 6 13
24 35 46
47 64 75
70 92 106
88 109 125
97 121 136
81 101 115
39 51 61
0 8 14
0 0 0
0 2 0
3 4 2
3 2 0
4 2 0
3 2 0
2 1 0
0 3 2
0 3 2
0 2 3
0 2 4
0 1 5
0 1 5
0 1 5
0 1 5
0 1 5
0 1 5
0 1 5
0 1 5
0 1 5
0 1 5
0 1 5
0 1 5
0 1 5
0 1 5
0 0 5
1 1 5
2 1 3
2 0 2
2 0 1
2 0 0
2 0 0
2 0 0
2 0 0
2 0 0
2 0 0
2 0 0
2 0 0
2 0 0
2 0 0
2 0 0
2 0 0
2 0 0
2 0 0
1 0 0
0 0 0
0 1 0
0 1 0
0 1 0
0 1 0
0 1 0
0 1 0
0 1 0
0 1 0
0 1 0
0 1 0
0 1 0
0 1 0
0 1 0
0 1 0
0 1 0
0 0 0
0 0 0
0 0 0
0 0 0
0 0 0
0 0 0
0 0 0
0 0 0
0 0 0
0 0 0
0 0 0
0 0 0
0 0 0
0 0 0
0 0 0
0 0 0
0 0 0
0 0 0
0 0 0
0 0 0
0 0 0
0 0 0
0 0 0
0 0 0
0 0 0
0 0 0
0 0 0
0 0 0
0 0 0
0 0 0
0 0 0
0 0 0
0 0 0
0 0 0
0 0 0
0 0 0
0 0 0
0 0 0
0 0 0
0 0 0
0 0 0
0 0 0
0 0 0
0 0 0
0 0 0
0 0 0
0 0 0
0 0 0
0 0 0
0 0 0
0 0 0
0 0 0
0 0 0
0 0 0
0 0 0
0 0 0
0 0 0
0 0 0
0 0 0
0 0 0
0 0 0
0 0 0
0 0 0
0 0 0
0 0 0
0 0 0
0 0 0
0 0 0
0 0 0
0 0 0
0 0 0
0 0 0
0 0 0
0 0 0
0 0 0
0 0 0
0 0 0
0 0 0
0 0 0
0 0 0
0 0 0
0 0 0
0 0 0
0 0 0
0 0 0
0 0 0
0 0 0
0 0 0
0 0 0
0 0 0
0 0 0
0 0 0
0 0 0
0 0 0
0 0 0
0 0 0
0 0 0
1 0 0
2 0 0
3 0 0
3 0 0
3 0 0
2 0 0
2 1 2
0 2 4
0 0 2
0 0 7
12 20 29
31 51 61
62 77 90
88 109 125
97 121 136
89 118 136
83 113 135
83 113 135
79 113 135
76 114 136
77 116 137
76 116 136
76 116 136
76 116 136
76 116 136
76 116 136
76 116 136
77 115 136
77 115 136
77 115 136
77 115 136
77 115 136
77 115 136
77 115 136
77 115 136
76 114 136
75 113 134
75 113 134
76 114 136
76 114 136
77 115 136
78 116 137
82 117 137
82 117 137
82 115 136
82 117 137
82 116 140
82 118 141
86 121 140
86 121 140
89 120 137
89 120 137
97 124 139
99 127 141
97 121 136
95 118 134
93 116 131
90 113 128
88 109 125
88 109 125
81 101 115
79 97 109
68 87 100
68 87 100
62 77 90
53 72 83
53 72 83
53 72 83
39 51 61
24 35 46
4 17 26
0 12 19
0 4 12
0 2 9
0 4 12
0 12 19
4 17 26
0 12 19
0 8 14
2 6 12
2 6 12
2 6 12
2 4 11
2 1 7
4 1 5
6 1 4
6 1 4
6 1 4
7 1 0
7 1 0
6 1 4
4 2 0
4 2 0
3 4 2
3 4 2
1 4 1
0 5 1
0 5 1
0 4 1
0 4 1
0 5 1
0 5 1
0 3 0
1 2 0
2 1 0
2 1 0
3 0 0
3 0 0
4 0 0
4 0 0
3 0 0
3 0 0
3 0 0
3 0 0
3 0 0
2 0 0
2 0 0
2 0 0
1 0 0
0 0 0
0 0 0
0 0 0
0 0 0
0 1 0
0 1 0
0 1 0
0 1 0
0 1 0
0 1 0
0 1 0
0 1 0
0 1 0
0 1 0
0 0 0
0 0 0
1 0 1
2 0 2
2 0 2
2 0 2
2 0 2
2 0 2
2 0 2
2 0 2
2 0 2
2 0 2
2 0 2
2 0 2
2 0 2
2 0 2
2 0 2
0 0 12
14 29 40
62 77 90
96 123 138
91 117 133
84 109 126
85 116 133
89 120 137
86 121 140
82 117 137
80 115 137
82 116 140
80 117 140
80 117 140
78 117 140
78 117 140
78 117 140
78 117 140
78 117 140
78 117 140
78 117 140
80 117 140
80 115 140
78 115 139
77 115 139
77 114 138
77 114 138
77 114 138
77 114 138
77 114 138
77 114 138
77 114 138
77 114 138
78 117 140
78 118 139
78 118 139
78 118 139
78 118 139
78 118 139
78 118 139
78 118 139
78 118 139
78 118 139
78 118 139
78 118 139
78 118 139
78 118 139
78 118 139
78 118 139
78 118 139
78 117 140
78 117 140
78 117 140
78 117 140
78 117 140
78 117 140
78 117 140
78 117 140
77 117 139
77 117 137
77 117 137
77 117 137
77 117 137
77 117 137
77 117 137
77 117 137
78 116 135
78 116 135
78 116 135
78 116 135
78 116 135
78 116 135
78 116 135
78 116 135
77 116 134
77 117 133
77 117 133
77 117 133
78 117 135
79 115 135
79 115 135
79 114 134
79 115 135
79 114 134
82 113 136
83 113 135
83 113 135
85 116 133
89 118 136
97 124 139
97 124 139
97 121 136
79 97 109
39 51 61
4 17 26
0 1 13
0 4 16
2 10 15
1 4 10
1 1 5
0 1 1
0 1 1
0 1 0
0 1 0
0 1 0
0 1 0
0 1 0
0 1 0
0 1 0
0 1 0
0 1 0
0 1 0
0 1 0
0 1 0
0 0 0
0 0 0
1 0 0
2 0 0
2 0 0
2 0 0
2 0 0
2 0 0
2 0 0
2 0 0
2 0 0
2 0 0
2 0 0
2 0 0
2 0 0
2 0 0
2 0 0
2 0 0
2 0 0
2 0 2
2 0 2
2 0 2
2 0 2
2 0 2
2 0 2
2 0 2
2 0 2
2 0 2
2 0 2
2 0 2
2 0 2
3 0 1
3 0 0
3 0 0
3 0 0
2 0 0
1 0 0
5 4 5
6 8 13
5 6 9
0 1 1
0 1 1
3 4 6
5 6 9
0 4 9
0 4 5
0 3 5
0 1 6
6 8 13
14 29 40
47 64 75
70 92 106
81 106 120
93 116 131
99 127 141
81 106 120
39 51 61
1 6 12
0 0 0
0 2 0
3 4 2
3 2 0
4 2 0
3 2 0
2 1 0
0 3 2
0 3 2
0 2 3
0 2 4
0 1 5
0 1 5
0 1 5
0 1 5
0 1 5
0 1 5
0 1 5
0 1 5
0 1 5
0 1 5
0 1 5
0 1 5
0 1 5
0 1 5
0 0 5
1 1 5
2 1 3
2 0 2
2 0 1
2 0 0
2 0 0
2 0 0
2 0 0
2 0 0
2 0 0
2 0 0
2 0 0
2 0 0
2 0 0
2 0 0
2 0 0
2 0 0
2 0 0
1 0 0
0 0 0
0 1 0
0 1 0
0 1 0
0 1 0
0 1 0
0 1 0
0 1 0
0 1 0
0 1 0
0 1 0
0 1 0
0 1 0
0 1 0
0 1 0
0 1 0
0 0 0
0 0 0
0 0 0
0 0 0
0 0 0
0 0 0
0 0 0
0 0 0
0 0 0
0 0 0
0 0 0
0 0 0
0 0 0
0 0 0
0 0 0
0 0 0
0 0 0
0 0 0
0 0 0
0 0 0
0 0 0
0 0 0
0 0 0
0 0 0
0 0 0
0 0 0
0 0 0
0 0 0
0 0 0
0 0 0
0 0 0
0 0 0
0 0 0
0 0 0
0 0 0
0 0 0
0 0 0
0 0 0
0 0 0
0 0 0
0 0 0
0 0 0
0 0 0
0 0 0
0 0 0
0 0 0
0 0 0
0 0 0
0 0 0
0 0 0
0 0 0
0 0 0
0 0 0
0 0 0
0 0 0
0 0 0
0 0 0
0 0 0
0 0 0
0 0 0
0 0 0
0 0 0
0 0 0
0 0 0
0 0 0
0 0 0
0 0 0
0 0 0
0 0 0
0 0 0
0 0 0
0 0 0
0 0 0
0 0 0
0 0 0
0 0 0
0 0 0
0 0 0
0 0 0
0 0 0
0 0 0
0 0 0
0 0 0
0 0 0
0 0 0
0 0 0
0 0 0
0 0 0
0 0 0
0 0 0
0 0 0
0 0 0
0 0 0
0 0 0
0 0 0
0 0 0
0 0 0
1 0 0
2 0 0
3 0 0
3 0 0
3 0 0
2 0 0
2 1 2
0 2 4
0 0 2
0 0 7
12 20 29
31 51 61
62 77 90
88 109 125
97 121 136
89 118 136
83 113 135
83 113 135
79 113 135
76 114 136
77 116 137
76 116 136
76 116 136
76 116 136
76 116 136
76 116 136
76 116 136
77 115 136
77 115 136
77 115 136
77 115 136
77 115 136
77 115 136
77 115 136
77 115 136
78 116 137
78 116 138
78 116 138
78 116 137
77 115 136
77 115 136
76 114 136
76 113 132
75 113 134
76 113 132
75 113 134
76 112 136
75 113 134
76 113 132
78 115 132
79 113 132
82 113 130
81 110 128
84 109 126
84 109 126
88 109 125
88 109 125
88 109 125
88 109 125
88 109 125
90 113 128
93 116 131
93 116 131
90 113 128
88 109 125
81 106 120
81 106 120
81 106 120
70 92 106
47 64 75
23 41 52
14 29 40
14 29 40
12 20 29
4 17 26
4 17 26
4 17 26
0 12 19
0 1 13
0 1 13
0 4 12
0 4 12
2 4 11
2 4 11
2 4 11
3 1 6
4 1 5
6 1 4
6 1 4
6 1 4
5 4 5
3 4 2
3 4 2
3 4 2
3 4 2
1 4 1
0 5 1
0 5 1
0 3 2
0 4 1
0 4 1
0 4 1
0 3 0
1 2 0
2 1 0
3 1 0
4 0 0
4 0 0
4 0 0
4 0 0
3 0 0
3 0 0
3 0 0
3 0 0
3 0 0
2 0 0
2 0 0
2 0 0
1 0 0
0 0 0
0 0 0
0 0 0
0 0 0
0 1 0
0 1 0
0 1 0
0 1 0
0 1 0
0 1 0
0 1 0
0 1 0
0 1 0
0 1 0
0 0 0
0 0 0
1 0 1
2 0 2
2 0 2
2 0 2
2 0 2
2 0 2
2 0 2
2 0 2
2 0 2
2 0 2
2 0 2
2 0 2
2 0 2
2 0 2
2 0 2
0 0 12
14 29 40
62 77 90
96 123 138
91 117 133
84 109 126
85 116 133
89 120 137
86 121 140
82 117 137
80 115 137
82 116 140
80 117 140
80 117 140
78 117 140
78 117 140
78 117 140
78 117 140
78 117 140
78 117 140
78 117 140
80 117 140
80 115 140
78 115 139
77 115 139
77 114 138
77 114 138
77 114 138
77 114 138
77 114 138
77 114 138
77 114 138
77 114 138
77 116 138
77 117 137
77 117 137
77 117 137
77 117 137
77 117 137
77 117 137
77 117 137
77 117 137
77 117 137
77 117 137
77 117 137
77 117 137
77 117 137
77 117 137
77 117 137
77 117 139
77 116 139
77 116 139
77 116 139
77 116 139
77 116 139
77 116 139
77 116 139
77 116 139
77 116 137
77 117 137
77 117 137
77 117 137
77 117 137
77 117 137
77 117 137
77 117 137
78 116 135
78 116 135
78 116 135
78 116 135
78 116 135
78 116 135
78 116 135
78 116 135
77 116 134
77 117 133
77 117 133
77 117 133
78 117 135
79 115 135
82 115 136
82 115 136
82 117 137
83 118 136
89 118 136
85 116 133
85 113 132
81 110 128
85 113 132
97 124 139
95 118 134
68 87 100
31 51 61
14 29 40
4 17 26
6 12 17
0 4 16
0 6 13
6 8 13
5 6 9
1 1 3
0 0 0
0 0 0
0 1 0
0 1 0
0 1 0
0 1 0
0 1 0
0 1 0
0 1 0
0 1 0
0 1 0
0 1 0
0 1 0
0 0 0
0 0 0
1 0 0
2 0 0
2 0 0
2 0 0
2 0 0
2 0 0
2 0 0
2 0 0
2 0 0
2 0 0
2 0 0
2 0 0
2 0 0
2 0 0
2 0 0
2 0 0
2 0 0
2 0 2
2 0 2
2 0 2
2 0 2
2 0 2
2 0 2
2 0 2
2 0 2
2 0 2
2 0 2
2 0 2
2 0 2
2 0 1
3 0 0
3 0 0
3 0 1
2 0 1
0 0 0
3 2 1
5 4 5
5 4 5
2 3 2
1 4 5
3 4 6
5 6 9
5 6 9
1 1 3
0 0 0
2 6 12
31 43 53
53 72 83
70 92 106
81 106 120
90 113 128
95 118 134
99 127 141
81 106 120
39 51 61
0 4 5
0 0 0
0 1 0
3 4 2
2 1 0
3 1 0
2 1 0
1 1 0
0 2 0
0 2 1
0 1 1
0 1 3
0 0 4
0 0 4
0 0 4
0 0 4
0 0 4
0 0 4
0 0 4
0 0 4
0 0 4
0 0 4
0 0 4
0 0 4
0 0 4
0 0 4
0 0 4
0 0 4
1 0 3
2 0 2
2 0 1
2 0 0
2 0 0
2 0 0
2 0 0
2 0 0
2 0 0
2 0 0
2 0 0
2 0 0
2 0 0
2 0 0
2 0 0
2 0 0
2 0 0
1 0 0
0 0 0
0 1 0
0 1 0
0 1 0
0 1 0
0 1 0
0 1 0
0 1 0
0 1 0
0 1 0
0 1 0
0 1 0
0 1 0
0 1 0
0 1 0
0 1 0
0 0 0
0 0 0
0 0 0
0 0 0
0 0 0
0 0 0
0 0 0
0 0 0
0 0 0
0 0 0
0 0 0
0 0 0
0 0 0
0 0 0
0 0 0
0 0 0
0 0 0
0 0 0
0 0 0
0 0 0
0 0 0
0 0 0
0 0 0
0 0 0
0 0 0
0 0 0
0 0 0
0 0 0
0 0 0
0 0 0
0 0 0
0 0 0
0 0 0
0 0 0
0 0 0
0 0 0
0 0 0
0 0 0
0 0 0
0 0 0
0 0 0
0 0 0
0 0 0
0 0 0
0 0 0
0 0 0
0 0 0
0 0 0
0 0 0
0 0 0
0 0 0
0 0 0
0 0 0
0 0 0
0 0 0
0 0 0
0 0 0
0 0 0
0 0 0
0 0 0
0 0 0
0 0 0
0 0 0
0 0 0
0 0 0
0 0 0
0 0 0
0 0 0
0 0 0
0 0 0
0 0 0
0 0 0
0 0 0
0 0 0
0 0 0
0 0 0
0 0 0
0 0 0
0 0 0
0 0 0
0 0 0
0 0 0
0 0 0
0 0 0
0 0 0
0 0 0
0 0 0
0 0 0
0 0 0
0 0 0
0 0 0
0 0 0
0 0 0
0 0 0
0 0 0
0 0 0
0 0 0
1 0 0
2 0 0
3 0 0
3 0 0
3 0 0
2 0 0
2 1 2
0 2 4
0 0 2
0 0 7
4 17 26
31 51 61
62 77 90
88 109 125
97 121 136
89 118 136
83 113 135
83 113 135
79 113 135
76 114 136
77 116 137
76 116 136
76 116 136
76 116 136
76 116 136
76 116 136
76 116 136
76 116 136
76 116 136
77 115 136
77 115 136
77 115 136
77 115 136
76 114 136
76 114 136
80 117 140
86 121 140
86 121 140
82 118 141
78 116 137
76 114 136
71 110 131
71 110 131
71 110 131
76 114 136
80 117 140
82 116 140
79 114 136
77 115 134
76 113 132
79 113 132
77 111 130
81 110 128
81 110 128
84 109 126
84 109 126
90 113 128
90 113 128
90 113 128
93 116 131
97 121 136
99 127 141
99 127 141
97 121 136
95 118 134
90 113 128
90 113 128
88 109 125
81 106 120
70 92 106
68 87 100
55 79 91
55 79 91
47 64 75
31 51 61
24 35 46
4 17 26
0 4 16
0 1 10
0 0 12
0 1 13
0 4 16
0 4 16
0 4 16
0 4 16
2 4 11
2 4 11
3 1 6
5 4 5
3 4 6
3 4 6
3 4 6
1 4 5
1 4 5
1 4 5
0 4 5
0 4 5
0 5 1
0 4 1
0 4 1
0 3 2
0 3 2
0 2 0
1 1 0
2 1 0
3 1 0
4 0 0
4 0 0
4 0 0
4 0 0
3 0 0
3 0 0
3 0 0
3 0 0
3 0 0
2 0 0
2 0 0
2 0 0
1 0 0
0 0 0
0 0 0
0 0 0
0 0 0
0 1 0
0 1 0
0 1 0
0 1 0
0 1 0
0 1 0
0 1 0
0 1 0
0 1 0
0 1 0
0 0 0
0 0 0
1 0 1
2 0 2
2 0 2
2 0 2
2 0 2
2 0 2
2 0 2
2 0 2
2 0 2
2 0 2
2 0 2
2 0 2
2 0 2
2 0 2
2 0 2
0 0 12
14 29 40
62 77 90
96 123 138
91 117 133
84 109 126
85 116 133
89 120 137
86 121 140
82 117 137
80 115 137
82 116 140
80 117 140
80 117 140
78 117 140
78 117 140
78 117 140
78 117 140
78 117 140
78 117 140
78 117 140
80 117 140
80 115 140
78 115 139
77 115 139
77 114 138
77 114 138
77 114 138
77 114 138
77 114 138
77 114 138
77 114 138
77 114 138
77 115 137
76 116 136
76 116 136
76 116 136
76 116 136
76 116 136
76 116 136
76 116 136
76 116 136
76 116 136
76 116 136
76 116 136
76 116 136
76 116 136
76 116 136
76 116 136
75 116 137
76 115 138
76 115 138
76 115 138
76 115 138
76 115 138
76 115 138
76 115 138
76 115 138
77 116 137
77 117 137
77 117 137
77 117 137
77 117 137
77 117 137
77 117 137
77 117 137
78 116 135
78 116 135
78 116 135
78 116 135
78 116 135
78 116 135
78 116 135
78 116 135
77 116 134
77 117 133
77 117 133
77 117 133
78 115 132
79 115 135
82 115 136
82 115 136
82 117 137
83 118 136
85 116 133
85 116 133
85 113 132
84 109 126
88 109 125
88 109 125
70 92 106
31 51 61
4 17 26
4 17 26
14 29 40
12 20 29
0 6 13
1 6 12
6 8 13
5 6 9
1 1 3
0 0 0
0 0 0
0 1 0
0 1 0
0 1 0
0 1 0
0 1 0
0 1 0
0 1 0
0 1 0
0 1 0
0 1 0
0 1 0
0 0 0
0 0 0
1 0 0
2 0 0
2 0 0
2 0 0
2 0 0
2 0 0
2 0 0
2 0 0
2 0 0
2 0 0
2 0 0
2 0 0
2 0 0
2 0 0
2 0 0
2 0 0
2 0 0
2 0 2
2 0 2
2 0 2
2 0 2
2 0 2
2 0 2
2 0 2
2 0 2
2 0 2
2 0 2
2 0 2
2 0 2
2 0 1
3 0 0
3 0 0
3 0 1
2 0 1
0 0 0
0 0 0
0 0 0
2 3 2
5 6 9
5 6 9
1 4 5
0 2 4
1 1 8
0 0 4
1 1 8
14 29 40
53 72 83
81 106 120
90 113 128
88 109 125
88 109 125
90 116 132
97 121 136
81 101 115
39 51 61
0 1 4
0 0 0
0 0 0
3 2 1
2 0 0
2 0 0
2 0 0
1 1 0
0 2 0
0 2 1
0 1 1
0 1 3
0 0 4
0 0 4
0 0 4
0 0 4
0 0 4
0 0 4
0 0 4
0 0 4
0 0 4
0 0 4
0 0 4
0 0 4
0 0 4
0 0 4
0 0 4
0 0 4
1 0 3
2 0 2
2 0 1
2 0 0
2 0 0
2 0 0
2 0 0
2 0 0
2 0 0
2 0 0
2 0 0
2 0 0
2 0 0
2 0 0
2 0 0
2 0 0
2 0 0
1 0 0
0 0 0
0 1 0
0 1 0
0 1 0
0 1 0
0 1 0
0 1 0
0 1 0
0 1 0
0 1 0
0 1 0
0 1 0
0 1 0
0 1 0
0 1 0
0 1 0
0 0 0
0 0 0
0 0 0
0 0 0
0 0 0
0 0 0
0 0 0
0 0 0
0 0 0
0 0 0
0 0 0
0 0 0
0 0 0
0 0 0
0 0 0
0 0 0
0 0 0
0 0 0
0 0 0
0 0 0
0 0 0
0 0 0
0 0 0
0 0 0
0 0 0
0 0 0
0 0 0
0 0 0
0 0 0
0 0 0
0 0 0
0 0 0
0 0 0
0 0 0
0 0 0
0 0 0
0 0 0
0 0 0
0 0 0
0 0 0
0 0 0
0 0 0
0 0 0
0 0 0
0 0 0
0 0 0
0 0 0
0 0 0
0 0 0
0 0 0
0 0 0
0 0 0
0 0 0
0 0 0
0 0 0
0 0 0
0 0 0
0 0 0
0 0 0
0 0 0
0 0 0
0 0 0
0 0 0
0 0 0
0 0 0
0 0 0
0 0 0
0 0 0
0 0 0
0 0 0
0 0 0
0 0 0
0 0 0
0 0 0
0 0 0
0 0 0
0 0 0
0 0 0
0 0 0
0 0 0
0 0 0
0 0 0
0 0 0
0 0 0
0 0 0
0 0 0
0 0 0
0 0 0
0 0 0
0 0 0
0 0 0
0 0 0
0 0 0
0 0 0
0 0 0
0 0 0
0 0 0
1 0 0
2 0 0
3 0 0
3 0 0
3 0 0
2 0 0
2 1 2
0 2 4
0 0 2
0 0 7
4 17 26
31 43 53
62 77 90
88 109 125
97 121 136
89 118 136
83 113 135
83 113 135
79 113 135
76 114 136
77 116 137
76 116 136
76 116 136
76 116 136
76 116 136
76 116 136
76 116 136
76 116 136
76 116 136
77 115 136
77 115 136
77 115 136
77 115 136
76 114 136
76 114 136
82 120 140
87 124 142
87 124 142
82 118 141
78 116 138
76 114 136
71 110 131
70 105 125
71 110 131
78 115 137
82 120 140
82 118 141
78 116 138
77 115 134
76 113 132
76 113 132
77 111 130
77 111 130
82 113 130
82 113 130
85 113 132
90 113 128
90 113 128
90 116 132
90 116 132
93 121 136
96 123 138
96 123 138
95 118 134
90 116 132
90 113 128
84 109 126
81 106 120
81 106 120
84 109 126
90 113 128
93 116 131
93 116 131
81 101 115
68 87 100
47 64 75
23 41 52
12 20 29
4 17 26
0 12 19
0 12 19
0 4 16
0 4 16
0 1 13
0 1 13
0 1 13
1 4 10
1 1 8
3 4 6
3 4 6
3 4 6
3 4 6
3 4 6
1 4 5
0 4 5
0 4 5
0 4 5
0 5 1
0 4 1
0 4 1
1 3 2
1 3 2
1 2 1
1 1 1
2 1 0
3 1 0
4 0 0
4 0 0
4 0 0
4 0 0
3 0 0
3 0 0
3 0 0
3 0 0
3 0 0
2 0 0
2 0 0
2 0 0
1 0 0
0 0 0
0 0 0
0 0 0
0 0 0
0 1 0
0 1 0
0 1 0
0 1 0
0 1 0
0 1 0
0 1 0
0 1 0
0 1 0
0 1 0
0 0 0
0 0 0
1 0 1
2 0 2
2 0 2
2 0 2
2 0 2
2 0 2
2 0 2
2 0 2
2 0 2
2 0 2
2 0 2
2 0 2
2 0 2
2 0 2
2 0 2
0 0 12
14 29 40
62 77 90
96 123 138
91 117 133
84 109 126
85 116 133
89 120 137
86 121 140
82 117 137
80 115 137
82 116 140
80 117 140
80 117 140
78 117 140
78 117 140
78 117 140
78 117 140
78 117 140
78 117 140
78 117 140
80 117 140
80 117 140
80 115 140
80 115 140
78 115 139
78 115 139
77 114 138
77 114 138
77 114 138
77 114 138
77 114 138
77 114 138
77 115 137
76 116 136
76 116 136
76 116 136
76 116 136
76 116 136
76 116 136
76 116 136
76 116 136
76 116 136
76 116 136
76 116 136
76 116 136
76 116 136
76 116 136
76 116 136
75 116 137
76 115 138
76 115 138
76 115 138
76 115 138
76 115 138
76 115 138
76 115 138
76 115 138
77 116 137
77 117 137
77 117 137
77 117 137
77 117 137
77 117 137
77 117 137
77 117 137
78 116 135
78 116 135
78 116 135
78 116 135
78 116 135
78 116 135
78 116 135
78 116 135
77 116 134
77 117 133
77 117 133
77 117 133
77 115 131
79 115 132
82 117 137
83 118 136
83 113 135
81 110 128
81 110 128
82 113 130
95 118 134
97 121 136
88 109 125
62 77 90
31 43 53
12 20 29
0 12 19
4 17 26
12 20 29
4 17 26
0 6 13
0 4 12
2 4 11
3 4 6
0 0 3
0 0 1
0 1 0
0 1 0
0 1 0
0 1 0
0 1 0
0 1 0
0 1 0
0 1 0
0 1 0
0 1 0
0 1 0
0 1 0
0 0 0
0 0 0
1 0 0
2 0 0
2 0 0
2 0 0
2 0 0
2 0 0
2 0 0
2 0 0
2 0 0
2 0 0
2 0 0
2 0 0
2 0 0
2 0 0
2 0 0
2 0 0
2 0 0
2 0 2
2 0 2
2 0 2
2 0 2
2 0 2
2 0 2
2 0 2
2 0 2
2 0 2
2 0 2
2 0 2
2 0 2
2 0 2
3 0 1
3 0 1
3 0 2
2 0 1
0 0 0
0 0 0
0 0 1
1 4 5
6 8 13
6 12 17
5 6 9
0 1 6
1 1 8
2 10 15
23 29 39
47 64 75
79 97 109
93 116 131
97 121 136
93 116 131
88 109 125
90 113 128
95 118 134
79 97 109
31 43 53
0 0 4
0 0 0
0 0 0
3 4 2
2 0 0
2 0 0
2 0 0
1 0 1
0 1 1
0 1 1
0 1 3
0 1 4
0 0 4
0 0 4
0 0 4
0 0 4
0 0 4
0 0 4
0 0 4
0 0 4
0 0 4
0 0 4
0 0 4
0 0 4
0 0 4
0 0 4
0 0 4
0 0 4
1 0 3
2 0 2
2 0 1
2 0 0
2 0 0
2 0 0
2 0 0
2 0 0
2 0 0
2 0 0
2 0 0
2 0 0
2 0 0
2 0 0
2 0 0
2 0 0
2 0 0
1 0 0
0 0 0
0 1 0
0 1 0
0 1 0
0 1 0
0 1 0
0 1 0
0 1 0
0 1 0
0 1 0
0 1 0
0 1 0
0 1 0
0 1 0
0 1 0
0 1 0
0 0 0
0 0 0
0 0 0
0 0 0
0 0 0
0 0 0
0 0 0
0 0 0
0 0 0
0 0 0
0 0 0
0 0 0
0 0 0
0 0 0
0 0 0
0 0 0
0 0 0
0 0 0
0 0 0
0 0 0
0 0 0
0 0 0
0 0 0
0 0 0
0 0 0
0 0 0
0 0 0
0 0 0
0 0 0
0 0 0
0 0 0
0 0 0
0 0 0
0 0 0
0 0 0
0 0 0
0 0 0
0 0 0
0 0 0
0 0 0
0 0 0
0 0 0
0 0 0
0 0 0
0 0 0
0 0 0
0 0 0
0 0 0
0 0 0
0 0 0
0 0 0
0 0 0
0 0 0
0 0 0
0 0 0
0 0 0
0 0 0
0 0 0
0 0 0
0 0 0
0 0 0
0 0 0
0 0 0
0 0 0
0 0 0
0 0 0
0 0 0
0 0 0
0 0 0
0 0 0
0 0 0
0 0 0
0 0 0
0 0 0
0 0 0
0 0 0
0 0 0
0 0 0
0 0 0
0 0 0
0 0 0
0 0 0
0 0 0
0 0 0
0 0 0
0 0 0
0 0 0
0 0 0
0 0 0
0 0 0
0 0 0
0 0 0
0 0 0
0 0 0
0 0 0
0 0 0
0 0 0
1 0 0
2 0 0
3 0 0
3 0 0
3 0 0
2 0 0
2 1 2
0 2 4
0 0 2
0 0 7
4 17 26
31 43 53
55 79 91
88 109 125
97 121 136
89 118 136
83 113 135
82 113 136
79 113 135
79 114 136
77 117 137
77 117 137
77 117 137
77 117 137
77 117 137
77 117 137
77 117 137
77 117 137
77 117 137
77 116 137
77 116 137
77 116 137
77 116 137
77 116 137
77 116 137
78 118 139
82 120 140
82 120 140
80 117 140
78 116 138
77 116 137
72 113 134
71 110 131
71 110 131
75 113 134
77 116 138
76 115 135
76 114 136
76 115 135
77 116 134
77 116 134
78 115 132
79 114 134
79 113 132
79 113 132
82 115 132
85 113 132
85 116 133
85 116 133
85 116 133
89 118 136
89 118 136
89 118 136
90 116 132
85 116 133
85 116 133
82 113 130
82 113 130
83 113 128
85 116 133
89 118 136
93 121 136
93 121 136
85 113 132
77 107 124
71 97 112
68 87 100
53 72 83
39 51 61
23 41 52
14 29 40
4 17 26
0 4 16
0 1 13
0 1 13
0 4 16
1 6 12
2 6 12
1 4 10
0 4 9
1 4 5
1 4 5
1 4 5
0 4 5
0 4 5
0 4 5
0 3 2
0 3 2
1 3 2
1 4 5
1 4 5
1 4 5
4 1 5
3 0 3
3 2 1
4 2 0
4 1 2
4 0 0
4 0 0
4 0 0
4 0 0
4 0 0
4 0 0
4 0 0
4 0 0
3 1 0
3 1 0
3 1 0
2 1 0
1 1 0
1 1 0
1 1 0
1 1 0
0 2 1
0 2 1
0 2 1
0 2 1
0 2 1
0 2 1
0 2 1
0 2 1
0 2 1
0 2 1
0 1 1
1 1 1
2 0 2
2 0 2
2 0 2
2 0 2
2 0 2
2 0 2
2 0 2
2 0 2
2 0 2
2 0 2
2 0 2
2 0 2
2 0 2
2 0 2
2 0 2
0 0 12
14 29 40
62 77 90
96 123 138
91 117 133
84 109 126
85 116 133
89 120 137
86 121 140
82 117 137
80 115 137
82 116 140
80 117 140
80 117 140
78 117 140
78 117 140
78 117 140
78 117 140
78 117 140
78 117 140
78 117 140
80 117 140
80 117 140
80 117 140
80 117 140
78 115 139
78 115 139
77 114 138
77 114 138
77 114 138
77 114 138
77 114 138
77 114 138
77 116 137
77 117 137
77 117 137
77 117 137
77 117 137
77 117 137
77 117 137
77 117 137
77 117 137
77 117 137
77 117 137
77 117 137
77 117 137
77 117 137
77 117 137
77 117 137
77 117 139
77 116 139
77 116 139
77 116 139
77 116 139
77 116 139
77 116 139
77 116 139
77 116 139
77 117 139
77 117 137
77 117 137
77 117 137
77 117 137
77 117 137
77 117 137
77 117 137
78 116 135
78 116 135
78 116 135
78 116 135
78 116 135
78 116 135
78 116 135
78 116 135
77 116 134
77 117 133
77 117 133
77 117 133
77 117 133
78 117 135
83 118 136
83 118 136
85 116 133
81 110 128
81 110 128
90 116 132
97 121 136
93 116 131
70 92 106
31 43 53
0 12 19
0 4 16
4 17 26
4 17 26
2 10 15
0 6 13
0 4 9
0 1 6
0 0 4
0 0 3
0 0 2
0 0 1
0 1 0
0 1 0
0 1 0
0 1 0
0 1 0
0 1 0
0 1 0
0 1 0
0 1 0
0 1 0
0 1 0
0 1 0
0 0 0
0 0 0
1 0 0
2 0 0
2 0 0
2 0 0
2 0 0
2 0 0
2 0 0
2 0 0
2 0 0
2 0 0
2 0 0
2 0 0
2 0 0
2 0 0
2 0 0
2 0 0
2 0 0
2 0 2
2 0 2
2 0 2
2 0 2
2 0 2
2 0 2
2 0 2
2 0 2
2 0 2
2 0 2
2 0 2
2 0 2
2 0 2
2 0 2
2 0 2
2 0 2
1 0 1
0 0 0
0 1 1
1 4 5
2 10 15
6 12 17
6 8 13
2 4 11
0 2 9
2 10 15
14 29 40
47 64 75
70 92 106
88 109 125
90 113 128
95 118 134
93 116 131
90 113 128
90 113 128
95 118 134
79 97 109
31 43 53
0 0 4
0 0 0
0 0 0
3 4 2
2 0 0
2 0 0
2 0 0
1 0 1
0 1 1
0 1 3
0 1 4
0 1 4
0 0 4
0 0 4
0 0 4
0 0 4
0 0 4
0 0 4
0 0 4
0 0 4
0 0 4
0 0 4
0 0 4
0 0 4
0 0 4
0 0 4
0 0 4
0 0 4
1 0 3
2 0 2
2 0 1
2 0 0
2 0 0
2 0 0
2 0 0
2 0 0
2 0 0
2 0 0
2 0 0
2 0 0
2 0 0
2 0 0
2 0 0
2 0 0
2 0 0
1 0 0
0 0 0
0 1 0
0 1 0
0 1 0
0 1 0
0 1 0
0 1 0
0 1 0
0 1 0
0 1 0
0 1 0
0 1 0
0 1 0
0 1 0
0 1 0
0 1 0
0 0 0
0 0 0
0 0 0
0 0 0
0 0 0
0 0 0
0 0 0
0 0 0
0 0 0
0 0 0
0 0 0
0 0 0
0 0 0
0 0 0
0 0 0
0 0 0
0 0 0
0 0 0
0 0 0
0 0 0
0 0 0
0 0 0
0 0 0
0 0 0
0 0 0
0 0 0
0 0 0
0 0 0
0 0 0
0 0 0
0 0 0
0 0 0
0 0 0
0 0 0
0 0 0
0 0 0
0 0 0
0 0 0
0 0 0
0 0 0
0 0 0
0 0 0
0 0 0
0 0 0
0 0 0
0 0 0
0 0 0
0 0 0
0 0 0
0 0 0
0 0 0
0 0 0
0 0 0
0 0 0
0 0 0
0 0 0
0 0 0
0 0 0
0 0 0
0 0 0
0 0 0
0 0 0
0 0 0
0 0 0
0 0 0
0 0 0
0 0 0
0 0 0
0 0 0
0 0 0
0 0 0
0 0 0
0 0 0
0 0 0
0 0 0
0 0 0
0 0 0
0 0 0
0 0 0
0 0 0
0 0 0
0 0 0
0 0 0
0 0 0
0 0 0
0 0 0
0 0 0
0 0 0
0 0 0
0 0 0
0 0 0
0 0 0
0 0 0
0 0 0
0 0 0
0 0 0
0 0 0
1 0 0
2 0 0
3 0 0
3 0 0
3 0 0
2 0 0
2 1 2
0 2 4
0 0 2
0 0 7
4 17 26
31 43 53
55 79 91
88 109 125
97 121 136
89 118 136
83 113 135
83 113 135
79 113 135
79 114 136
77 117 137
77 117 137
77 117 137
77 117 137
77 117 137
77 117 137
77 117 137
77 117 137
77 117 137
77 117 137
77 117 137
77 117 137
77 117 137
77 117 137
77 117 137
77 117 137
76 117 136
76 117 136
78 118 139
78 118 139
77 117 137
75 116 134
74 116 136
73 115 135
72 113 134
72 113 134
72 113 134
72 113 134
75 116 136
77 117 137
77 117 137
77 117 135
79 115 135
79 115 135
79 115 132
78 115 132
79 115 132
82 115 132
82 115 132
82 115 132
82 115 132
82 115 132
82 115 132
82 115 132
82 115 132
82 115 136
82 115 136
82 115 136
85 116 133
82 115 132
82 113 130
82 113 130
82 113 130
82 113 130
85 116 133
89 118 136
90 116 132
77 107 124
71 97 112
55 79 91
47 64 75
23 41 52
14 29 40
4 17 26
4 17 26
0 12 19
0 8 14
0 6 13
0 4 9
0 4 5
0 3 5
0 4 5
0 4 5
0 4 5
0 3 5
0 3 5
0 4 5
0 4 5
1 4 5
3 4 6
3 4 6
3 4 6
4 1 5
4 1 5
4 1 2
4 1 2
4 1 2
4 0 0
4 0 0
4 0 0
4 0 0
4 0 0
4 0 0
4 0 0
4 0 0
3 1 0
3 1 0
3 1 0
2 1 0
1 2 0
1 2 0
1 2 0
1 2 0
0 2 1
0 2 1
0 2 1
0 2 1
0 2 1
0 2 1
0 2 1
0 2 1
0 2 1
0 2 1
0 2 1
1 1 1
2 0 2
2 0 2
2 0 2
2 0 2
2 0 2
2 0 2
2 0 2
2 0 2
2 0 2
2 0 2
2 0 2
2 0 2
2 0 2
2 0 2
2 0 2
0 0 12
14 29 40
62 77 90
96 123 138
91 117 133
84 109 126
85 116 133
89 120 137
86 121 140
82 117 137
80 115 137
82 116 140
80 117 140
80 117 140
78 117 140
78 117 140
78 117 140
78 117 140
78 117 140
78 117 140
78 117 140
80 117 140
80 117 140
80 117 140
80 117 140
78 115 139
78 115 139
77 114 138
77 114 138
77 114 138
77 114 138
77 114 138
77 114 138
77 116 137
77 117 137
77 117 137
77 117 137
77 117 137
77 117 137
77 117 137
77 117 137
77 117 137
77 117 137
77 117 137
77 117 137
77 117 137
77 117 137
77 117 137
77 117 137
77 117 139
77 116 139
77 116 139
77 116 139
77 116 139
77 116 139
77 116 139
77 116 139
77 116 139
77 117 139
77 117 137
77 117 137
77 117 137
77 117 137
77 117 137
77 117 137
77 117 137
78 116 135
78 116 135
78 116 135
78 116 135
78 116 135
78 116 135
78 116 135
78 116 135
77 116 134
77 117 133
77 117 133
77 117 133
78 117 135
82 117 137
83 118 136
85 116 133
85 116 133
83 113 128
90 116 132
97 121 136
88 109 125
62 77 90
31 43 53
12 20 29
0 4 16
0 4 16
6 12 17
2 10 15
0 4 9
0 1 6
0 2 4
0 1 3
0 0 1
0 0 1
0 1 1
0 1 1
0 1 0
0 1 0
0 1 0
0 1 0
0 1 0
0 1 0
0 1 0
0 1 0
0 1 0
0 1 0
0 1 0
0 1 0
0 0 0
0 0 0
1 0 0
2 0 0
2 0 0
2 0 0
2 0 0
2 0 0
2 0 0
2 0 0
2 0 0
2 0 0
2 0 0
2 0 0
2 0 0
2 0 0
2 0 0
2 0 0
2 0 0
2 0 1
2 0 1
2 0 2
2 0 2
2 0 2
2 0 2
2 0 2
2 0 2
2 0 2
2 0 2
2 0 2
2 0 2
2 0 2
1 1 2
1 1 2
1 1 2
0 0 2
0 1 3
1 4 5
6 8 13
6 12 17
4 17 26
0 8 14
0 0 7
0 8 14
24 35 46
47 64 75
70 92 106
88 109 125
93 116 131
93 116 131
91 117 133
90 116 132
84 109 126
90 116 132
95 118 134
81 101 115
31 43 53
0 0 5
0 0 0
0 0 0
3 2 1
2 0 0
2 0 0
2 0 0
1 0 1
0 1 1
0 1 3
0 1 4
0 1 4
0 0 4
0 0 4
0 0 4
0 0 4
0 0 4
0 0 4
0 0 4
0 0 4
0 0 4
0 0 4
0 0 4
0 0 4
0 0 4
0 0 4
0 0 4
0 0 3
1 1 2
2 0 1
2 0 0
2 0 0
2 0 0
2 0 0
2 0 0
2 0 0
2 0 0
2 0 0
2 0 0
2 0 0
2 0 0
2 0 0
2 0 0
2 0 0
2 0 0
1 0 0
0 0 0
0 1 0
0 1 0
0 1 0
0 1 0
0 1 0
0 1 0
0 1 0
0 1 0
0 1 0
0 1 0
0 1 0
0 1 0
0 1 0
0 1 0
0 1 0
0 0 0
0 0 0
0 0 0
0 0 0
0 0 0
0 0 0
0 0 0
0 0 0
0 0 0
0 0 0
0 0 0
0 0 0
0 0 0
0 0 0
0 0 0
0 0 0
0 0 0
0 0 0
0 0 0
0 0 0
0 0 0
0 0 0
0 0 0
0 0 0
0 0 0
0 0 0
0 0 0
0 0 0
0 0 0
0 0 0
0 0 0
0 0 0
0 0 0
0 0 0
0 0 0
0 0 0
0 0 0
0 0 0
0 0 0
0 0 0
0 0 0
0 0 0
0 0 0
0 0 0
0 0 0
0 0 0
0 0 0
0 0 0
0 0 0
0 0 0
0 0 0
0 0 0
0 0 0
0 0 0
0 0 0
0 0 0
0 0 0
0 0 0
0 0 0
0 0 0
0 0 0
0 0 0
0 0 0
0 0 0
0 0 0
0 0 0
0 0 0
0 0 0
0 0 0
0 0 0
0 0 0
0 0 0
0 0 0
0 0 0
0 0 0
0 0 0
0 0 0
0 0 0
0 0 0
0 0 0
0 0 0
0 0 0
0 0 0
0 0 0
0 0 0
0 0 0
0 0 0
0 0 0
0 0 0
0 0 0
0 0 0
0 0 0
0 0 0
0 0 0
0 0 0
0 0 0
0 0 0
0 0 0
1 0 0
2 0 0
2 0 0
3 0 0
2 0 0
2 1 2
0 2 4
0 0 3
0 0 7
4 17 26
31 43 53
55 79 91
88 109 125
97 121 136
89 118 136
83 113 135
83 113 135
82 113 136
80 115 137
77 117 137
77 117 137
77 117 137
77 117 137
77 117 137
77 117 137
77 117 137
77 117 137
75 118 137
75 118 137
75 118 137
75 118 137
75 118 137
75 118 137
75 118 137
76 117 136
76 117 136
76 117 136
75 118 138
75 118 137
75 118 137
76 117 136
76 117 136
75 118 137
74 117 135
73 115 135
72 113 134
72 113 134
72 113 134
73 115 135
74 117 135
74 117 135
76 115 135
76 115 135
75 116 134
75 117 131
75 116 134
79 115 135
79 115 135
79 115 135
77 115 134
79 114 134
79 114 134
79 114 134
79 115 135
80 117 140
80 117 140
80 117 140
82 117 137
78 117 135
78 115 132
78 115 132
79 115 132
82 115 132
83 118 136
89 120 137
87 124 142
96 123 138
89 118 136
84 109 126
71 97 112
68 87 100
53 72 83
39 51 61
23 41 52
14 29 40
0 12 19
0 6 13
0 4 9
0 4 5
0 2 4
1 1 8
1 4 10
1 6 12
0 4 9
0 3 5
0 4 5
0 4 5
1 4 10
3 4 6
3 4 6
3 4 6
4 1 5
4 1 5
4 1 5
4 1 5
4 1 2
4 0 0
4 0 0
4 0 0
4 0 0
4 0 0
4 0 0
4 0 0
4 0 0
3 1 0
3 1 0
3 1 0
2 1 0
1 2 0
1 2 0
1 2 0
1 2 0
0 2 1
0 2 1
0 2 1
0 2 1
0 2 1
0 2 1
0 2 1
0 2 1
0 2 1
0 2 1
0 2 1
1 1 1
2 0 2
2 0 2
2 0 2
2 0 2
2 0 2
2 0 2
2 0 2
2 0 2
2 0 2
2 0 2
2 0 2
2 0 2
2 0 2
2 0 2
2 0 2
0 0 12
14 29 40
62 77 90
96 123 138
91 117 133
84 109 126
85 116 133
89 120 137
86 121 140
82 117 137
80 115 137
82 116 140
80 117 140
80 117 140
78 117 140
78 117 140
78 117 140
78 117 140
78 117 140
78 117 140
78 117 140
80 117 140
80 117 140
80 117 140
80 117 140
78 115 139
78 115 139
77 114 138
77 114 138
77 114 138
77 114 138
77 114 138
77 114 138
77 116 137
77 117 137
77 117 137
77 117 137
77 117 137
77 117 137
77 117 137
77 117 137
77 117 137
77 117 137
77 117 137
77 117 137
77 117 137
77 117 137
77 117 137
77 117 137
77 117 139
77 116 139
77 116 139
77 116 139
77 116 139
77 116 139
77 116 139
77 116 139
77 116 139
77 117 139
77 117 137
77 117 137
77 117 137
77 117 137
77 117 137
77 117 137
77 117 137
78 116 135
78 116 135
78 116 135
78 116 135
78 116 135
78 116 135
78 116 135
78 116 135
77 116 134
77 117 133
77 117 133
78 117 135
82 117 137
82 117 137
82 117 137
82 115 132
85 116 133
91 117 133
95 118 134
88 109 125
62 77 90
24 35 46
0 4 16
0 4 16
4 17 26
0 12 19
0 4 12
0 2 9
0 1 6
0 0 4
0 0 1
0 0 0
0 0 0
0 0 0
0 1 0
0 1 0
0 1 0
0 1 0
0 1 0
0 1 0
0 1 0
0 1 0
0 1 0
0 1 0
0 1 0
0 1 0
0 1 0
0 1 0
0 0 0
0 0 0
1 0 0
2 0 0
2 0 0
2 0 0
2 0 0
2 0 0
2 0 0
2 0 0
2 0 0
2 0 0
2 0 0
2 0 0
2 0 0
2 0 0
2 0 0
2 0 0
2 0 0
2 0 0
2 0 0
2 0 1
2 0 2
2 0 2
2 0 2
2 0 2
2 0 2
2 0 2
2 0 2
2 0 2
2 0 2
1 1 2
0 0 2
0 0 2
0 0 2
0 1 4
0 4 9
2 10 15
6 12 17
6 12 17
0 12 19
0 4 12
0 4 16
14 29 40
47 64 75
70 92 106
81 106 120
90 113 128
95 118 134
91 117 133
85 113 132
82 113 130
84 109 126
91 117 133
97 121 136
81 101 115
39 51 61
0 1 6
0 0 0
0 0 0
3 2 1
2 0 0
2 0 0
2 0 0
1 0 1
0 1 1
0 1 3
0 1 4
0 1 4
0 0 4
0 0 4
0 0 4
0 0 4
0 0 4
0 0 4
0 0 4
0 0 4
0 0 4
0 0 4
0 0 4
0 0 4
0 0 4
0 0 4
0 0 3
0 0 2
1 0 1
2 0 0
2 0 0
2 0 0
2 0 0
2 0 0
2 0 0
2 0 0
2 0 0
2 0 0
2 0 0
2 0 0
2 0 0
2 0 0
2 0 0
2 0 0
2 0 0
1 0 0
0 0 0
0 1 0
0 1 0
0 1 0
0 1 0
0 1 0
0 1 0
0 1 0
0 1 0
0 1 0
0 1 0
0 1 0
0 1 0
0 1 0
0 1 0
0 1 0
0 0 0
0 0 0
0 0 0
0 0 0
0 0 0
0 0 0
0 0 0
0 0 0
0 0 0
0 0 0
0 0 0
0 0 0
0 0 0
0 0 0
0 0 0
0 0 0
0 0 0
0 0 0
0 0 0
0 0 0
0 0 0
0 0 0
0 0 0
0 0 0
0 0 0
0 0 0
0 0 0
0 0 0
0 0 0
0 0 0
0 0 0
0 0 0
0 0 0
0 0 0
0 0 0
0 0 0
0 0 0
0 0 0
0 0 0
0 0 0
0 0 0
0 0 0
0 0 0
0 0 0
0 0 0
0 0 0
0 0 0
0 0 0
0 0 0
0 0 0
0 0 0
0 0 0
0 0 0
0 0 0
0 0 0
0 0 0
0 0 0
0 0 0
0 0 0
0 0 0
0 0 0
0 0 0
0 0 0
0 0 0
0 0 0
0 0 0
0 0 0
0 0 0
0 0 0
0 0 0
0 0 0
0 0 0
0 0 0
0 0 0
0 0 0
0 0 0
0 0 0
0 0 0
0 0 0
0 0 0
0 0 0
0 0 0
0 0 0
0 0 0
0 0 0
0 0 0
0 0 0
0 0 0
0 0 0
0 0 0
0 0 0
0 0 0
0 0 0
0 0 0
0 0 0
0 0 0
0 0 0
0 0 0
0 0 0
1 0 0
2 0 0
2 0 0
2 0 0
2 1 2
0 2 4
0 0 3
0 0 7
4 17 26
31 43 53
55 79 91
81 106 120
95 118 134
89 118 136
83 113 135
83 113 135
82 113 136
80 115 137
77 117 137
77 117 137
77 117 137
77 117 137
77 117 137
77 117 137
77 117 137
75 118 137
75 118 137
75 118 137
75 118 137
75 118 137
75 118 137
75 118 137
75 118 137
75 118 137
75 118 137
75 118 137
75 118 137
75 118 137
75 118 137
75 118 137
75 118 137
75 118 137
75 118 137
75 118 137
74 116 136
73 115 135
72 113 134
72 113 134
72 113 134
72 113 134
73 115 135
73 115 135
73 115 135
75 116 134
75 118 134
77 117 135
77 117 135
77 117 135
77 117 135
78 116 137
78 116 137
78 116 137
78 116 138
78 118 139
78 118 139
78 118 139
78 118 139
77 117 137
77 117 137
78 116 137
82 117 137
82 117 137
82 117 137
80 115 137
82 117 137
86 121 140
97 124 139
97 124 139
96 123 138
89 118 136
84 109 126
71 97 112
55 79 91
31 51 61
14 29 40
4 17 26
4 17 26
2 10 15
0 4 9
0 4 9
0 4 9
0 4 12
0 4 9
0 4 9
0 4 9
0 4 9
2 4 11
2 4 11
3 1 6
4 1 5
4 1 5
4 1 5
4 1 5
4 1 5
4 1 2
4 0 0
4 0 0
4 0 0
4 0 0
4 0 0
4 0 0
4 0 0
4 0 0
3 1 0
3 1 0
3 1 0
2 1 0
1 2 0
1 2 0
1 2 0
1 2 0
0 2 1
0 2 1
0 2 1
0 2 1
0 2 1
0 2 1
0 2 1
0 2 1
0 2 1
0 2 1
0 2 1
1 1 1
2 0 2
2 0 2
2 0 2
2 0 2
2 0 2
2 0 2
2 0 2
2 0 2
2 0 2
2 0 2
2 0 2
2 0 2
2 0 2
2 0 2
2 0 2
0 0 12
14 29 40
62 77 90
96 123 138
91 117 133
84 109 126
85 116 133
89 120 137
86 121 140
82 117 137
80 115 137
82 116 140
80 117 140
80 117 140
78 117 140
78 117 140
78 117 140
78 117 140
78 117 140
78 117 140
78 117 140
80 117 140
80 117 140
80 117 140
78 117 140
78 115 139
78 115 139
78 115 139
78 115 139
78 115 139
78 115 139
78 115 139
78 115 139
77 116 138
77 117 137
77 117 137
77 117 137
77 117 137
77 117 137
77 117 137
77 117 137
77 117 137
77 117 137
77 117 137
77 117 137
77 117 137
77 117 137
77 117 137
77 117 137
77 117 139
77 116 139
77 116 139
77 116 139
77 116 139
77 116 139
77 116 139
77 116 139
77 116 139
77 117 139
77 117 137
77 117 137
77 117 137
77 117 137
77 117 137
77 117 137
77 117 137
78 116 135
78 116 135
78 116 135
78 116 135
79 115 135
79 115 135
79 115 135
79 115 135
79 115 135
78 117 135
83 118 136
82 117 137
83 118 136
83 118 136
77 115 131
77 107 124
82 113 130
97 124 139
90 113 128
62 77 90
24 35 46
0 12 19
0 1 13
0 1 13
2 10 15
2 6 12
0 1 6
0 0 5
0 0 4
0 0 2
2 0 0
2 0 0
2 0 0
1 0 0
0 1 0
0 1 0
0 1 0
0 1 0
0 1 0
0 1 0
0 1 0
0 1 0
0 1 0
0 1 0
0 1 0
0 1 0
0 1 0
0 1 0
0 0 0
0 0 0
1 0 0
2 0 0
2 0 0
2 0 0
2 0 0
2 0 0
2 0 0
2 0 0
2 0 0
2 0 0
2 0 0
2 0 0
2 0 0
2 0 0
2 0 0
2 0 0
2 0 0
2 0 0
2 0 0
2 0 0
2 0 1
2 0 1
2 0 1
2 0 1
2 0 1
1 0 1
1 1 2
1 1 2
1 1 2
0 0 2
0 0 2
0 0 2
0 0 3
1 4 10
6 8 13
6 12 17
4 17 26
2 4 11
0 0 4
2 6 12
24 35 46
47 64 75
70 92 106
88 109 125
93 116 131
95 118 134
95 118 134
90 116 132
85 113 132
81 110 128
85 113 132
89 118 136
97 124 139
81 101 115
39 51 61
0 1 6
0 0 0
0 0 0
3 2 1
2 0 0
2 0 0
2 0 0
1 0 1
0 1 1
0 1 3
0 1 4
0 1 4
0 0 3
0 0 3
0 0 3
0 0 3
0 0 3
0 0 3
0 0 3
0 0 3
0 0 3
0 0 3
0 0 3
0 0 3
0 0 3
0 0 3
0 0 2
0 0 2
1 0 1
2 0 0
2 0 0
2 0 0
2 0 0
2 0 0
2 0 0
2 0 0
2 0 0
2 0 0
2 0 0
2 0 0
2 0 0
2 0 0
2 0 0
2 0 0
2 0 0
1 0 0
0 0 0
0 1 0
0 1 0
0 1 0
0 1 0
0 1 0
0 1 0
0 1 0
0 1 0
0 1 0
0 1 0
0 1 0
0 1 0
0 1 0
0 1 0
0 1 0
0 0 0
0 0 0
0 0 0
0 0 0
0 0 0
0 0 0
0 0 0
0 0 0
0 0 0
0 0 0
0 0 0
0 0 0
0 0 0
0 0 0
0 0 0
0 0 0
0 0 0
0 0 0
0 0 0
0 0 0
0 0 0
0 0 0
0 0 0
0 0 0
0 0 0
0 0 0
0 0 0
0 0 0
0 0 0
0 0 0
0 0 0
0 0 0
0 0 0
0 0 0
0 0 0
0 0 0
0 0 0
0 0 0
0 0 0
0 0 0
0 0 0
0 0 0
0 0 0
0 0 0
0 0 0
0 0 0
0 0 0
0 0 0
0 0 0
0 0 0
0 0 0
0 0 0
0 0 0
0 0 0
0 0 0
0 0 0
0 0 0
0 0 0
0 0 0
0 0 0
0 0 0
0 0 0
0 0 0
0 0 0
0 0 0
0 0 0
0 0 0
0 0 0
0 0 0
0 0 0
0 0 0
0 0 0
0 0 0
0 0 0
0 0 0
0 0 0
0 0 0
0 0 0
0 0 0
0 0 0
0 0 0
0 0 0
0 0 0
0 0 0
0 0 0
0 0 0
0 0 0
0 0 0
0 0 0
0 0 0
0 0 0
0 0 0
0 0 0
0 0 0
0 0 0
0 0 0
0 0 0
0 0 0
0 0 0
1 0 0
2 0 0
1 0 0
1 0 0
1 1 2
0 2 4
0 0 3
0 0 7
4 17 26
31 43 53
55 79 91
81 106 120
95 118 134
89 118 136
83 113 135
82 113 136
80 115 137
80 115 137
78 116 137
77 117 137
77 117 137
76 117 136
76 117 136
76 117 136
76 117 136
75 118 137
75 118 137
75 118 137
75 118 137
75 118 137
75 118 137
75 118 137
75 118 137
75 118 137
75 118 137
75 118 137
75 118 137
75 118 137
75 118 137
75 118 137
75 118 137
75 118 137
75 118 138
74 118 139
75 118 138
73 117 136
73 117 136
73 117 136
73 115 135
72 113 134
73 115 135
73 115 135
72 117 135
72 117 135
73 118 135
75 118 137
75 118 137
75 118 137
75 118 137
75 117 139
75 118 138
75 118 138
75 118 138
75 119 142
75 119 142
75 119 142
75 119 142
75 118 138
75 118 138
78 118 139
78 118 139
78 117 140
78 116 138
80 115 137
82 116 140
86 121 140
87 124 142
86 121 140
86 121 140
96 123 138
96 123 138
85 113 132
81 101 115
68 87 100
53 72 83
39 51 61
23 41 52
14 29 40
0 12 19
0 4 12
0 0 7
0 0 9
0 1 13
2 6 12
0 4 12
0 4 12
0 1 13
2 4 11
2 4 11
3 1 6
4 1 5
6 1 4
6 1 4
6 1 4
4 1 2
4 1 2
4 1 2
4 1 2
4 1 2
3 1 0
4 2 0
4 0 0
4 0 0
3 1 0
3 1 0
2 1 0
1 2 0
1 2 0
1 2 0
0 2 0
0 2 0
0 2 1
0 2 1
0 2 1
0 2 1
0 2 1
0 2 1
0 2 1
0 2 1
0 2 1
0 2 1
0 2 1
1 1 1
2 0 2
2 0 2
2 0 2
2 0 2
2 0 2
2 0 2
2 0 2
2 0 2
2 0 2
2 0 2
2 0 2
2 0 2
2 0 2
2 0 2
2 0 2
0 0 12
14 29 40
62 77 90
96 123 138
91 117 133
84 109 126
85 116 133
89 120 137
86 121 140
82 117 137
80 115 137
82 116 140
80 117 140
80 117 140
78 117 140
78 117 140
78 117 140
78 117 140
78 117 140
78 117 140
78 117 140
80 117 140
80 117 140
80 117 140
80 115 140
78 115 139
78 115 139
78 115 139
78 115 139
78 115 139
78 115 139
78 115 139
78 115 139
77 116 138
77 117 137
77 117 137
77 117 137
77 117 137
77 117 137
77 117 137
77 117 137
77 117 137
77 117 137
77 117 137
77 117 137
77 117 137
77 117 137
77 117 137
77 117 137
77 117 139
77 116 139
77 116 139
77 116 139
77 116 139
77 116 139
77 116 139
77 116 139
77 116 139
77 117 139
77 117 137
77 117 137
77 117 137
77 117 137
77 117 137
77 117 137
77 117 137
78 116 137
78 116 137
78 116 137
78 116 137
78 116 137
80 115 137
80 115 137
79 115 135
79 115 135
82 117 137
83 118 136
83 118 136
83 118 136
82 115 132
79 113 127
77 107 124
83 113 128
90 113 128
68 87 100
23 41 52
0 4 16
0 4 16
0 12 19
2 6 12
0 0 5
0 0 4
0 0 5
0 0 4
0 0 2
1 0 1
3 0 1
4 0 0
3 0 1
2 0 1
0 0 0
0 0 0
0 1 0
0 1 0
0 1 0
0 1 0
0 1 0
0 1 0
0 1 0
0 1 0
0 1 0
0 1 0
0 1 0
0 1 0
0 0 0
0 0 0
1 0 0
2 0 0
2 0 0
2 0 0
2 0 0
2 0 0
2 0 0
2 0 0
2 0 0
2 0 0
2 0 0
2 0 0
2 0 0
2 0 0
2 0 0
2 0 0
2 0 0
2 0 0
2 0 0
2 0 0
2 0 0
2 0 0
2 0 0
2 0 0
2 0 0
1 0 1
0 0 2
0 0 2
0 0 2
0 0 2
0 0 2
0 0 2
0 1 4
5 6 9
6 12 17
6 12 17
0 12 19
0 0 6
0 0 5
12 20 29
53 72 83
79 97 109
88 109 125
93 116 131
95 118 134
95 118 134
89 118 136
83 113 135
83 113 135
83 113 135
85 113 132
89 118 136
97 124 139
81 101 115
39 51 61
0 1 6
0 0 0
0 1 0
3 4 2
2 0 0
2 0 0
2 0 0
1 0 1
0 1 1
0 1 3
0 1 4
0 1 4
0 0 2
0 0 2
0 0 2
0 0 2
0 0 2
0 0 2
0 0 2
0 0 2
0 0 2
0 0 2
0 0 2
0 0 2
0 0 2
0 0 2
0 0 2
0 0 2
1 0 1
2 0 0
2 0 0
2 0 0
2 0 0
2 0 0
2 0 0
2 0 0
2 0 0
2 0 0
2 0 0
2 0 0
2 0 0
2 0 0
2 0 0
2 0 0
2 0 0
1 0 0
0 0 0
0 1 0
0 1 0
0 1 0
0 1 0
0 1 0
0 1 0
0 1 0
0 1 0
0 1 0
0 1 0
0 1 0
0 1 0
0 1 0
0 1 0
0 1 0
0 0 0
0 0 0
0 0 0
0 0 0
0 0 0
0 0 0
0 0 0
0 0 0
0 0 0
0 0 0
0 0 0
0 0 0
0 0 0
0 0 0
0 0 0
0 0 0
0 0 0
0 0 0
0 0 0
0 0 0
0 0 0
0 0 0
0 0 0
0 0 0
0 0 0
0 0 0
0 0 0
0 0 0
0 0 0
0 0 0
0 0 0
0 0 0
0 0 0
0 0 0
0 0 0
0 0 0
0 0 0
0 0 0
0 0 0
0 0 0
0 0 0
0 0 0
0 0 0
0 0 0
0 0 0
0 0 0
0 0 0
0 0 0
0 0 0
0 0 0
0 0 0
0 0 0
0 0 0
0 0 0
0 0 0
0 0 0
0 0 0
0 0 0
0 0 0
0 0 0
0 0 0
0 0 0
0 0 0
0 0 0
0 0 0
0 0 0
0 0 0
0 0 0
0 0 0
0 0 0
0 0 0
0 0 0
0 0 0
0 0 0
0 0 0
0 0 0
0 0 0
0 0 0
0 0 0
0 0 0
0 0 0
0 0 0
0 0 0
0 0 0
0 0 0
0 0 0
0 0 0
0 0 0
0 0 0
0 0 0
0 0 0
0 0 0
0 0 0
0 0 0
0 0 0
0 0 0
0 0 0
0 0 0
0 0 0
1 0 0
2 0 0
1 0 0
0 0 0
0 1 1
0 2 4
0 0 3
0 0 7
4 17 26
31 43 53
55 79 91
81 106 120
93 121 136
89 120 137
83 113 135
82 113 136
80 115 137
80 115 137
78 116 137
77 117 137
77 117 137
75 118 137
75 118 137
75 118 137
75 118 137
75 118 137
75 118 137
75 118 137
75 118 137
75 118 137
75 118 137
75 118 137
75 118 137
75 118 137
75 118 137
75 118 137
75 118 137
75 118 137
75 118 137
75 118 137
75 118 137
75 118 137
74 118 139
74 118 139
74 118 139
74 118 139
74 118 139
74 118 139
72 117 138
71 117 138
72 117 136
72 117 135
72 117 135
72 117 136
73 117 136
75 118 137
75 118 137
75 118 137
75 118 138
74 118 139
74 118 139
74 118 139
74 118 139
75 119 142
75 119 142
75 119 142
75 119 142
75 119 142
75 119 142
75 118 142
75 118 142
78 117 140
78 117 140
82 118 141
82 118 141
82 118 141
82 116 140
79 114 138
79 113 135
82 113 136
82 116 140
83 113 135
85 113 132
84 109 126
81 106 120
70 92 106
53 72 83
31 51 61
24 35 46
4 17 26
0 4 16
0 1 13
0 1 13
0 4 16
0 1 13
0 1 13
0 1 13
0 1 13
0 1 13
2 4 11
3 1 6
6 1 4
6 1 4
6 1 4
4 1 2
4 1 2
4 1 2
4 1 2
4 1 2
3 1 0
3 1 0
3 1 0
3 1 0
3 1 0
2 1 0
1 2 0
1 2 0
1 2 0
1 2 0
0 2 0
0 2 0
0 2 1
0 2 1
0 2 1
0 2 1
0 2 1
0 2 1
0 2 1
0 2 1
0 2 1
0 2 1
0 2 1
1 1 1
2 0 2
2 0 2
2 0 2
2 0 2
2 0 2
2 0 2
2 0 2
2 0 2
2 0 2
2 0 2
2 0 2
2 0 2
2 0 2
2 0 2
2 0 2
0 0 12
14 29 40
62 77 90
96 123 138
91 117 133
84 109 126
85 116 133
89 120 137
86 121 140
82 117 137
80 115 137
82 116 140
80 117 140
80 117 140
78 117 140
78 117 140
78 117 140
77 116 140
77 116 140
78 117 140
78 117 140
80 115 140
80 115 140
80 115 140
78 115 139
78 115 139
78 115 139
78 115 139
78 115 139
78 115 139
78 115 139
78 115 139
78 115 139
77 116 138
77 117 137
77 117 137
77 117 137
77 117 137
77 117 137
77 117 137
77 117 137
77 117 137
77 117 137
77 117 137
77 117 137
77 117 137
77 117 137
77 117 137
77 117 137
77 117 139
75 116 139
77 116 139
77 116 139
77 116 140
77 116 140
77 116 139
77 116 139
75 116 139
77 117 139
77 117 137
77 117 137
77 117 137
77 117 137
77 117 137
77 117 137
77 117 137
78 116 138
80 117 140
78 116 138
80 115 137
80 115 137
80 115 137
80 115 137
82 115 136
82 115 136
82 115 136
82 115 136
82 115 132
79 115 132
79 113 127
85 116 133
89 120 137
83 113 128
55 79 91
31 51 61
4 17 26
0 1 13
0 4 12
2 10 15
1 4 10
0 0 3
0 0 3
0 1 4
0 0 3
1 0 1
2 1 0
4 0 0
4 0 0
3 2 1
2 0 1
0 0 0
0 0 0
0 1 0
0 1 0
0 1 0
0 1 0
0 1 0
0 1 0
0 1 0
0 1 0
0 1 0
0 1 0
0 1 0
0 1 0
0 0 0
0 0 0
1 0 0
2 0 0
2 0 0
2 0 0
2 0 0
2 0 0
2 0 0
2 0 0
2 0 0
2 0 0
2 0 0
2 0 0
2 0 0
2 0 0
2 0 0
2 0 0
2 0 0
2 0 0
2 0 0
1 0 0
1 0 0
2 0 0
2 0 0
2 0 0
1 0 0
1 1 2
0 1 3
0 0 1
0 0 0
0 0 2
0 1 3
0 1 4
0 1 6
2 6 12
6 8 13
2 4 11
1 1 8
1 6 12
23 29 39
47 64 75
79 97 109
93 116 131
97 121 136
95 118 134
89 118 136
85 116 133
83 113 135
83 113 135
86 121 140
87 124 142
89 118 136
89 118 136
97 124 139
81 101 115
39 51 61
0 4 9
0 0 0
0 2 0
3 4 2
2 0 0
2 0 0
2 0 0
1 0 1
0 1 1
0 1 3
0 1 4
0 1 4
0 0 2
0 0 2
0 0 2
0 0 2
0 0 2
0 0 2
0 0 2
0 0 2
0 0 2
0 0 2
0 0 2
0 0 2
0 0 2
0 0 2
0 0 2
0 0 2
1 0 1
1 0 0
2 0 0
2 0 0
2 0 0
2 0 0
2 0 0
2 0 0
2 0 0
2 0 0
2 0 0
2 0 0
2 0 0
2 0 0
2 0 0
1 0 0
1 0 0
1 0 0
0 0 0
0 1 0
0 1 0
0 1 0
0 1 0
0 1 0
0 1 0
0 1 0
0 1 0
0 1 0
0 1 0
0 1 0
0 1 0
0 1 0
0 1 0
0 1 0
0 0 0
0 0 0
0 0 0
0 0 0
0 0 0
0 0 0
0 0 0
0 0 0
0 0 0
0 0 0
0 0 0
0 0 0
0 0 0
0 0 0
0 0 0
0 0 0
0 0 0
0 0 0
0 0 0
0 0 0
0 0 0
0 0 0
0 0 0
0 0 0
0 0 0
0 0 0
0 0 0
0 0 0
0 0 0
0 0 0
0 0 0
0 0 0
0 0 0
0 0 0
0 0 0
0 0 0
0 0 0
0 0 0
0 0 0
0 0 0
0 0 0
0 0 0
0 0 0
0 0 0
0 0 0
0 0 0
0 0 0
0 0 0
0 0 0
0 0 0
0 0 0
0 0 0
0 0 0
0 0 0
0 0 0
0 0 0
0 0 0
0 0 0
0 0 0
0 0 0
0 0 0
0 0 0
0 0 0
0 0 0
0 0 0
0 0 0
0 0 0
0 0 0
0 0 0
0 0 0
0 0 0
0 0 0
0 0 0
0 0 0
0 0 0
0 0 0
0 0 0
0 0 0
0 0 0
0 0 0
0 0 0
0 0 0
0 0 0
0 0 0
0 0 0
0 0 0
0 0 0
0 0 0
0 0 0
0 0 0
0 0 0
0 0 0
0 0 0
0 0 0
0 0 0
0 0 0
0 0 0
0 0 0
0 0 0
1 0 0
2 0 0
1 0 0
0 0 0
0 1 1
0 2 4
0 0 3
0 0 7
4 17 26
31 43 53
55 79 91
81 106 120
93 121 136
89 120 137
83 113 135
82 113 136
80 115 137
80 115 137
78 116 137
77 117 137
77 117 137
75 118 137
75 118 137
75 118 137
75 118 137
75 118 137
75 118 137
75 118 137
75 118 137
75 118 137
75 118 137
75 118 137
75 118 137
75 118 137
75 118 137
75 118 137
75 118 137
75 118 137
75 118 137
75 118 137
75 118 137
75 118 137
74 118 139
74 118 139
74 118 139
74 118 139
74 118 139
74 118 139
74 118 139
72 117 138
72 117 138
72 117 135
72 117 135
72 117 136
73 117 136
75 118 137
75 118 137
75 118 137
75 118 138
74 118 139
72 118 141
73 117 141
73 117 141
72 118 141
72 118 141
72 118 141
75 119 142
75 119 142
75 119 142
75 119 142
75 119 142
75 118 142
77 116 142
77 116 142
82 118 141
82 118 141
80 115 140
80 115 140
80 115 140
82 116 140
82 116 140
83 113 135
83 113 135
93 121 136
99 127 141
93 121 136
81 101 115
68 87 100
47 64 75
31 51 61
24 35 46
12 20 29
0 4 16
0 1 13
0 0 12
0 1 13
0 4 16
0 4 16
0 4 16
0 4 16
2 4 11
4 1 5
6 1 4
6 1 4
4 1 2
4 2 0
4 1 2
4 1 2
4 1 2
3 1 0
2 1 0
2 1 0
2 1 0
2 1 0
2 1 0
1 2 0
1 2 0
1 2 0
1 2 0
0 2 0
0 2 0
0 2 1
0 2 1
0 2 1
0 2 1
0 2 1
0 2 1
0 2 1
0 2 1
0 2 1
0 2 1
0 2 1
1 1 1
2 0 2
2 0 2
2 0 2
2 0 2
2 0 2
2 0 2
2 0 2
2 0 2
2 0 2
2 0 2
2 0 2
2 0 2
2 0 2
2 0 2
2 0 2
0 0 12
14 29 40
62 77 90
96 123 138
91 117 133
84 109 126
85 116 133
89 120 137
86 121 140
82 117 137
80 115 137
82 116 140
80 117 140
80 117 140
78 117 140
78 117 140
77 117 139
77 116 139
77 116 139
77 116 139
77 116 139
78 115 139
78 115 139
78 115 139
78 115 139
78 115 139
78 115 139
78 115 139
78 115 139
78 115 139
78 115 139
78 115 139
78 115 139
77 116 138
77 117 137
77 117 137
77 117 137
77 117 137
77 117 137
77 117 137
77 117 137
77 117 137
77 117 137
77 117 137
77 117 137
77 117 137
77 117 137
77 117 137
77 117 137
77 117 139
77 116 139
77 116 139
77 116 139
77 116 139
77 116 139
77 116 139
77 116 139
77 116 139
77 117 139
77 117 137
77 117 137
77 117 137
77 117 137
77 117 137
78 116 137
78 116 137
78 116 137
78 116 137
78 116 137
80 115 137
80 115 137
80 115 137
80 115 137
82 117 137
82 117 137
83 113 135
85 116 133
85 116 133
82 113 130
77 107 124
83 113 128
90 116 132
70 92 106
23 41 52
0 12 19
0 12 19
6 12 17
2 6 12
0 0 4
0 1 4
0 3 5
0 3 5
0 2 3
0 1 1
1 1 1
2 1 0
3 1 0
4 2 0
3 1 0
2 1 0
0 0 0
0 0 0
0 0 0
0 0 0
0 0 0
0 0 0
0 0 0
0 0 0
0 0 0
0 0 0
0 0 0
0 0 0
0 0 0
0 0 0
0 0 0
0 0 0
1 0 0
2 0 0
2 0 0
2 0 0
2 0 0
2 0 0
2 0 0
2 0 0
2 0 0
2 0 0
2 0 0
2 0 0
2 0 0
2 0 0
2 0 0
2 0 0
2 0 0
2 0 0
2 0 0
2 0 0
2 0 0
2 0 0
2 0 0
1 0 0
1 1 1
1 3 2
1 4 5
0 2 3
0 1 1
0 1 3
0 2 4
0 2 4
0 1 6
0 4 9
1 4 10
0 0 6
0 6 13
14 29 40
53 72 83
79 97 109
88 109 125
90 113 128
93 121 136
89 118 136
83 118 136
82 113 136
79 113 135
82 116 140
87 124 142
87 124 142
86 121 140
89 118 136
97 124 139
81 101 115
39 51 61
0 4 9
0 0 0
0 2 1
3 4 2
2 0 0
2 0 0
2 0 0
1 0 1
0 1 1
0 1 3
0 1 4
0 1 4
0 0 2
0 0 2
0 0 2
0 0 2
0 0 2
0 0 2
0 0 2
0 0 2
0 0 2
0 0 2
0 0 2
0 0 2
0 0 2
0 0 2
0 0 2
0 0 2
0 0 1
0 0 0
1 0 0
2 0 0
2 0 0
2 0 0
2 0 0
2 0 0
2 0 0
2 0 0
2 0 0
2 0 0
2 0 0
2 0 0
2 0 0
0 0 0
0 0 0
0 0 0
0 0 0
0 0 0
0 0 0
0 0 0
0 0 0
0 0 0
0 0 0
0 0 0
0 0 0
0 0 0
0 0 0
0 0 0
0 0 0
0 0 0
0 0 0
0 0 0
0 0 0
0 0 0
0 0 0
0 0 0
0 0 0
0 0 0
0 0 0
0 0 0
0 0 0
0 0 0
0 0 0
0 0 0
0 0 0
0 0 0
0 0 0
0 0 0
0 0 0
0 0 0
0 0 0
0 0 0
0 0 0
0 0 0
0 0 0
0 0 0
0 0 0
0 0 0
0 0 0
0 0 0
0 0 0
0 0 0
0 0 0
0 0 0
0 0 0
0 0 0
0 0 0
0 0 0
0 0 0
0 0 0
0 0 0
0 0 0
0 0 0
0 0 0
0 0 0
0 0 0
0 0 0
0 0 0
0 0 0
0 0 0
0 0 0
0 0 0
0 0 0
0 0 0
0 0 0
0 0 0
0 0 0
0 0 0
0 0 0
0 0 0
0 0 0
0 0 0
0 0 0
0 0 0
0 0 0
0 0 0
0 0 0
0 0 0
0 0 0
0 0 0
0 0 0
0 0 0
0 0 0
0 0 0
0 0 0
0 0 0
0 0 0
0 0 0
0 0 0
0 0 0
0 0 0
0 0 0
0 0 0
0 0 0
0 0 0
0 0 0
0 0 0
0 0 0
0 0 0
0 0 0
0 0 0
0 0 0
0 0 0
0 0 0
0 0 0
0 0 0
0 0 0
0 0 0
0 0 0
0 0 0
0 0 0
1 0 0
2 0 0
1 0 0
0 0 0
0 2 2
0 3 5
0 0 3
0 1 6
4 17 26
31 43 53
55 79 91
81 106 120
93 121 136
89 120 137
83 113 135
82 113 136
80 115 137
80 115 137
78 116 137
77 117 137
77 117 137
75 118 137
75 118 137
75 118 137
75 118 137
75 118 137
75 118 137
75 118 137
75 118 137
75 118 137
75 118 137
75 118 137
75 118 137
75 118 137
75 118 137
75 118 137
75 118 137
75 118 137
75 118 137
75 118 137
75 118 137
75 118 137
74 118 139
74 118 139
74 118 139
74 118 139
74 118 139
74 118 139
74 118 139
74 118 139
73 117 136
72 117 136
72 117 136
72 117 136
73 117 136
75 118 137
75 118 137
75 118 137
75 118 138
74 118 139
73 117 141
73 116 139
73 116 139
72 118 141
72 118 141
72 118 141
72 118 141
75 119 142
75 119 142
75 119 142
75 119 142
75 118 142
75 118 142
77 116 142
77 116 142
82 118 141
82 118 141
87 124 142
87 124 142
87 124 142
82 116 140
76 112 136
77 111 130
89 118 136
99 127 141
99 127 141
90 116 132
81 106 120
71 97 112
68 87 100
53 72 83
31 51 61
14 29 40
0 12 19
0 4 16
0 4 16
0 4 16
0 4 16
0 4 16
0 4 16
0 0 12
2 1 7
3 1 6
4 1 5
4 1 2
4 1 2
4 1 2
4 1 2
4 1 2
3 1 0
2 1 0
1 2 0
1 2 0
1 2 0
1 2 0
1 2 0
1 2 0
0 2 0
0 2 0
0 2 1
0 2 1
0 2 1
0 2 1
0 2 1
0 2 1
0 2 1
0 2 1
0 2 1
0 2 1
0 2 1
0 2 1
0 2 1
1 1 1
2 0 2
2 0 2
2 0 2
2 0 2
2 0 2
2 0 2
2 0 2
2 0 2
2 0 2
2 0 2
2 0 2
2 0 2
2 0 2
2 0 2
2 0 2
0 0 12
14 29 40
62 77 90
96 123 138
91 117 133
84 109 126
85 116 133
89 120 137
86 121 140
82 117 137
80 115 137
82 116 140
80 117 140
80 117 140
78 117 140
78 117 140
77 117 139
77 116 139
77 116 139
77 116 138
77 116 138
77 114 138
77 114 138
77 114 138
78 115 139
78 115 139
78 115 139
78 115 139
78 115 139
78 115 139
78 115 139
78 115 139
78 115 139
77 116 138
77 117 137
77 117 137
77 117 137
77 117 137
77 117 137
77 117 137
77 117 137
77 117 137
77 117 137
77 117 137
77 117 137
77 117 137
77 117 137
77 117 137
77 117 137
78 118 139
78 117 140
78 117 140
77 115 137
76 114 136
76 114 136
77 115 137
78 117 140
78 117 140
78 117 140
77 117 137
77 116 137
77 116 137
76 115 135
77 115 137
78 116 138
77 115 137
71 110 131
71 110 131
75 113 134
82 116 140
82 118 141
80 115 137
82 115 136
82 116 140
89 118 136
89 118 136
85 116 133
85 113 132
83 113 128
81 106 120
71 97 112
55 79 91
31 51 61
4 17 26
0 0 9
0 4 12
6 12 17
2 4 11
0 0 3
0 1 3
0 3 5
0 3 5
0 2 2
0 2 1
1 2 1
1 2 0
2 1 0
3 2 0
3 1 0
3 1 0
1 0 0
1 0 0
1 0 0
1 0 0
1 0 0
1 0 0
1 0 0
1 0 0
1 0 0
1 0 0
1 0 0
1 0 0
1 0 0
1 0 0
1 0 0
1 0 0
1 0 0
2 0 1
2 0 1
2 0 1
2 0 1
2 0 1
2 0 1
2 0 1
2 0 1
2 0 1
2 0 0
2 0 0
2 0 0
2 0 0
3 0 0
3 0 0
2 0 0
2 0 0
4 2 0
3 4 2
6 1 4
2 0 0
0 0 0
0 0 0
1 3 2
1 4 1
1 4 5
5 6 9
5 6 9
3 4 6
0 1 3
1 1 5
0 1 5
0 0 4
0 3 5
6 12 17
24 35 46
53 72 83
81 106 120
95 118 134
90 113 128
81 110 128
85 116 133
83 118 136
79 115 135
76 114 136
76 115 138
77 116 142
82 118 141
87 124 142
82 118 141
89 120 137
97 124 139
81 101 115
39 51 61
0 4 9
0 0 0
0 2 2
3 4 2
2 0 0
2 0 0
2 0 0
1 0 1
0 1 3
0 1 4
0 1 4
0 1 4
0 0 2
0 0 2
0 0 1
0 0 1
0 0 1
0 0 1
0 0 1
0 0 1
0 0 1
0 0 1
0 0 1
0 0 1
0 0 1
0 0 1
0 0 1
0 0 1
0 0 1
0 0 1
0 0 1
1 0 1
1 0 1
1 0 1
1 0 1
1 0 1
1 0 1
1 0 1
1 0 1
1 0 1
1 0 1
1 0 1
1 0 1
0 0 1
0 0 1
0 0 0
0 0 0
0 0 0
1 0 0
1 0 0
1 0 0
1 0 0
1 0 0
1 0 0
1 0 0
1 0 0
1 0 0
1 0 0
1 0 0
0 0 0
0 0 0
0 0 0
0 0 0
0 0 0
0 0 0
0 0 0
0 0 0
0 0 0
0 0 0
0 0 0
0 0 0
0 0 0
0 0 0
0 0 0
0 0 0
0 0 0
0 0 0
0 0 0
0 0 0
0 0 0
0 0 0
0 0 0
0 0 0
0 0 0
0 0 0
0 0 0
0 0 0
0 0 0
0 0 0
0 0 0
0 0 0
0 0 0
0 0 0
0 0 0
0 0 0
0 0 0
0 0 0
0 0 0
0 0 0
0 0 0
0 0 0
0 0 0
0 0 0
0 0 0
0 0 0
0 0 0
0 0 0
0 0 0
0 0 0
0 0 0
0 0 0
0 0 0
0 0 0
0 0 0
0 0 0
0 0 0
0 0 0
0 0 0
0 0 0
0 0 0
0 0 0
0 0 0
0 0 0
0 0 0
0 0 0
0 0 0
0 0 0
0 0 0
0 0 0
0 0 0
0 0 0
0 0 0
0 0 0
0 0 0
0 0 0
0 0 0
0 0 0
0 0 0
0 0 0
0 0 0
0 0 0
0 0 0
0 0 0
0 0 0
0 0 0
0 0 0
0 0 0
0 0 0
0 0 0
0 0 0
0 0 0
0 0 0
0 0 0
0 0 0
0 0 0
0 0 0
0 0 0
0 0 0
0 0 0
0 0 0
0 0 0
1 0 0
1 0 0
1 0 0
0 0 0
0 2 2
0 3 5
0 0 3
0 1 6
4 17 26
31 43 53
55 79 91
81 106 120
93 121 136
89 120 137
83 113 135
82 113 136
80 115 137
80 115 137
78 116 137
77 117 137
77 117 137
75 118 137
75 118 137
75 118 137
75 118 137
75 118 137
75 118 137
75 118 137
75 118 137
75 118 137
75 118 137
75 118 137
75 118 137
75 118 137
75 118 137
75 118 137
75 118 137
75 118 137
75 118 137
75 118 137
75 118 137
75 118 137
75 118 138
75 118 138
75 118 138
75 118 138
75 118 138
75 118 138
75 118 138
75 118 138
75 118 137
73 117 136
73 117 136
73 118 135
75 118 137
75 118 137
75 118 137
73 117 136
73 117 136
73 117 138
73 116 139
73 116 139
73 116 139
73 117 141
73 117 141
73 117 141
73 117 141
75 119 142
75 119 142
75 119 142
75 119 142
75 118 142
75 118 142
75 116 141
77 116 142
78 117 140
78 115 142
82 118 141
82 118 141
82 118 141
80 115 140
76 112 136
77 111 130
82 115 136
96 123 138
93 121 136
85 116 133
84 109 126
84 109 126
84 109 126
81 106 120
68 87 100
47 64 75
23 41 52
14 29 40
4 17 26
0 4 16
0 1 13
0 1 13
0 4 16
2 4 11
1 1 8
1 1 5
2 1 3
5 4 5
5 4 5
5 4 5
2 1 1
2 1 1
2 1 0
2 1 0
0 2 0
0 2 0
0 3 0
0 3 0
0 3 0
0 3 0
0 2 0
0 2 0
0 2 1
0 2 2
0 2 2
0 2 2
0 2 2
0 2 2
0 2 2
0 2 2
0 2 2
0 2 2
0 2 2
0 2 2
0 2 2
1 1 2
2 0 2
2 0 1
2 0 1
2 0 1
2 0 1
2 0 1
2 0 1
2 0 1
2 0 1
2 0 1
2 0 1
2 0 1
2 0 1
2 0 1
2 0 1
0 0 12
14 29 40
62 77 90
96 123 138
91 117 133
84 109 126
85 116 133
89 120 137
86 121 140
82 117 137
80 115 137
82 116 140
80 117 140
80 117 140
78 117 140
77 116 139
77 116 139
77 116 139
77 116 139
76 115 138
76 115 138
77 114 138
77 114 138
77 114 138
77 114 138
77 114 138
77 114 138
77 114 138
77 114 138
77 114 138
77 114 138
77 114 138
77 114 138
77 116 137
77 117 137
77 117 137
77 117 137
77 117 137
77 117 137
77 117 137
77 117 137
77 117 137
77 117 137
77 117 137
77 117 137
77 117 137
77 117 137
77 117 137
77 117 137
78 118 139
82 118 141
80 117 140
77 115 136
75 113 134
75 113 134
77 115 136
80 117 140
82 118 141
78 117 140
78 116 137
77 115 136
77 115 136
76 113 137
76 113 137
78 115 139
77 114 138
71 110 131
70 105 125
75 113 134
82 118 141
82 120 140
82 117 137
82 115 136
82 117 137
89 118 136
89 118 136
89 118 136
90 113 128
84 109 126
70 92 106
47 64 75
14 29 40
2 10 15
0 1 10
0 4 12
1 4 10
0 4 9
0 1 6
0 2 4
0 2 4
0 2 3
0 2 2
0 2 1
0 2 0
0 2 0
0 2 0
1 2 0
2 1 0
3 1 0
3 1 0
2 0 0
2 0 0
2 0 0
2 0 0
2 0 0
2 0 0
2 0 0
2 0 0
2 0 0
2 0 0
2 0 0
2 0 0
2 0 0
2 0 0
2 0 0
2 0 0
2 0 1
2 0 2
2 0 2
2 0 2
2 0 2
2 0 2
2 0 2
2 0 2
2 0 2
2 0 2
2 0 1
2 0 0
2 0 0
3 0 0
3 0 0
3 0 0
3 0 0
3 1 0
4 2 0
5 4 5
5 4 5
3 2 1
0 0 0
0 2 0
1 4 1
0 4 1
0 6 5
6 12 17
6 12 17
6 8 13
0 1 4
1 0 3
0 3 5
0 4 9
0 12 19
23 41 52
55 79 91
90 113 128
99 127 141
96 123 138
83 113 128
77 107 124
76 113 132
78 117 135
75 116 137
73 116 139
73 117 141
73 117 141
73 116 139
75 117 141
79 114 138
89 120 137
99 127 141
81 101 115
39 51 61
0 4 9
0 0 0
0 2 3
3 4 6
2 0 0
2 0 0
2 0 0
1 1 2
0 1 4
0 1 5
0 1 4
0 1 3
0 0 2
0 0 1
0 1 0
0 1 0
0 1 0
0 1 0
0 1 0
0 1 0
0 1 0
0 1 0
0 1 0
0 1 0
0 1 0
0 1 0
0 1 0
0 1 0
0 0 1
0 0 2
0 0 2
0 0 2
0 0 2
0 0 2
0 0 2
0 0 2
0 0 2
0 0 2
0 0 2
0 0 2
0 0 2
0 0 2
0 0 2
0 0 2
0 0 2
0 0 1
0 0 0
1 0 0
2 0 0
2 0 0
2 0 0
2 0 0
2 0 0
2 0 0
2 0 0
2 0 0
2 0 0
2 0 0
2 0 0
1 0 0
0 0 0
0 0 0
0 0 0
0 0 0
0 0 0
0 0 0
0 0 0
0 0 0
0 0 0
0 0 0
0 0 0
0 0 0
0 0 0
0 0 0
0 0 0
0 0 0
0 0 0
0 0 0
0 0 0
0 0 0
0 0 0
0 0 0
0 0 0
0 0 0
0 0 0
0 0 0
0 0 0
0 0 0
0 0 0
0 0 0
0 0 0
0 0 0
0 0 0
0 0 0
0 0 0
0 0 0
0 0 0
0 0 0
0 0 0
0 0 0
0 0 0
0 0 0
0 0 0
0 0 0
0 0 0
0 0 0
0 0 0
0 0 0
0 0 0
0 0 0
0 0 0
0 0 0
0 0 0
0 0 0
0 0 0
0 0 0
0 0 0
0 0 0
0 0 0
0 0 0
0 0 0
0 0 0
0 0 0
0 0 0
0 0 0
0 0 0
0 0 0
0 0 0
0 0 0
0 0 0
0 0 0
0 0 0
0 0 0
0 0 0
0 0 0
0 0 0
0 0 0
0 0 0
0 0 0
0 0 0
0 0 0
0 0 0
0 0 0
0 0 0
0 0 0
0 0 0
0 0 0
0 0 0
0 0 0
0 0 0
0 0 0
0 0 0
0 0 0
0 0 0
0 0 0
0 0 0
0 0 0
0 0 0
0 0 0
0 0 0
0 0 0
0 0 0
0 0 0
0 0 0
0 1 0
1 1 2
1 4 5
0 0 3
0 1 6
4 17 26
31 43 53
55 79 91
81 106 120
93 121 136
89 120 137
82 113 136
80 115 137
80 115 137
78 116 137
78 116 137
77 117 137
77 117 137
77 117 137
77 117 137
77 117 137
77 117 137
77 117 137
77 117 137
77 117 137
77 117 137
77 117 137
77 117 137
76 117 136
75 118 137
75 118 137
75 118 137
75 118 137
75 118 137
75 118 137
75 118 137
75 118 137
75 118 137
75 118 137
75 118 137
75 118 137
75 118 137
75 118 137
75 118 137
75 118 137
75 118 137
75 118 137
75 118 137
75 118 137
75 118 137
75 118 137
75 118 137
75 118 137
76 117 136
74 116 136
75 116 137
74 116 138
74 116 138
74 116 138
74 116 138
74 116 138
74 116 138
74 116 138
74 116 138
74 118 139
74 118 139
74 118 139
74 118 139
74 118 139
75 117 139
75 116 139
77 116 139
77 116 140
77 114 140
77 113 139
77 113 139
77 113 139
77 113 139
77 113 139
76 112 136
80 115 137
83 118 136
82 115 132
79 113 127
77 107 124
81 110 128
90 116 132
96 123 138
91 117 133
71 97 112
55 79 91
47 64 75
23 41 52
4 17 26
0 4 16
0 4 16
0 4 16
2 4 11
0 0 7
0 0 2
0 0 1
5 4 5
5 6 9
3 4 6
0 0 0
0 0 0
1 2 0
1 2 0
0 2 0
0 2 0
0 3 0
0 3 0
0 3 0
0 3 0
0 2 0
0 2 0
0 2 1
0 2 2
0 2 3
0 2 3
0 2 3
0 2 3
0 2 3
0 2 3
0 2 3
0 2 3
0 2 3
0 2 3
0 2 3
1 1 3
2 0 1
2 0 0
2 0 0
2 0 0
2 0 0
2 0 0
2 0 0
2 0 0
2 0 0
2 0 0
2 0 0
2 0 0
2 0 0
2 0 0
2 0 0
0 0 12
14 29 40
62 77 90
96 123 138
91 117 133
84 109 126
85 116 133
89 120 137
83 118 136
82 117 137
80 115 137
82 116 140
80 117 140
78 117 140
77 117 139
77 116 139
77 116 139
77 116 139
75 116 139
75 116 138
75 116 138
77 114 138
77 114 138
77 114 138
77 114 138
77 114 138
77 114 138
77 114 138
77 114 138
77 114 138
77 114 138
77 114 138
77 114 138
77 116 137
77 117 137
77 117 137
77 117 137
77 117 137
77 117 137
77 117 137
77 117 137
77 117 137
77 117 137
77 117 137
77 117 137
77 117 137
77 117 137
77 117 137
77 117 137
77 117 137
80 117 140
78 116 138
78 116 137
77 115 136
77 115 136
78 116 137
78 116 138
80 117 140
78 116 137
77 115 136
77 115 134
77 115 136
76 114 136
76 113 137
77 114 140
78 115 139
80 117 140
82 118 141
82 116 140
80 115 140
82 118 141
86 121 140
82 117 137
79 113 132
85 113 132
85 116 133
91 117 133
88 109 125
71 97 112
47 64 75
24 35 46
0 4 16
0 0 4
0 0 6
2 6 12
0 4 9
0 0 5
0 2 4
0 3 5
0 2 3
0 2 2
0 2 1
0 2 0
0 2 0
0 2 0
0 2 0
1 2 0
1 2 0
2 1 0
2 1 0
2 0 0
2 0 0
2 0 0
2 0 0
2 0 0
2 0 0
2 0 0
2 0 0
2 0 0
2 0 0
2 0 0
2 0 0
2 0 0
2 0 0
2 0 0
2 0 0
2 0 1
2 0 2
2 0 2
2 0 2
2 0 2
2 0 2
2 0 2
2 0 2
2 0 2
2 0 2
2 0 2
2 0 1
2 0 0
3 0 0
3 0 0
2 0 0
4 1 2
3 4 2
7 1 0
4 2 0
3 4 2
5 4 5
5 4 5
1 4 1
0 3 0
0 3 2
0 6 5
6 12 17
6 12 17
6 12 17
1 4 10
0 1 6
1 6 12
4 17 26
23 41 52
53 72 83
81 106 120
99 127 141
99 127 141
89 120 137
77 107 124
70 105 125
71 110 131
74 117 135
73 117 138
72 118 141
72 118 141
72 118 141
71 117 138
74 114 140
79 114 136
89 120 137
97 124 139
81 101 115
39 51 61
0 2 9
0 0 0
0 1 3
3 4 6
2 0 0
2 0 0
2 0 0
1 1 2
0 1 4
0 1 5
0 1 4
0 1 3
0 0 2
0 0 1
0 1 0
0 1 0
0 1 0
0 1 0
0 1 0
0 1 0
0 1 0
0 1 0
0 1 0
0 1 0
0 1 0
0 1 0
0 1 0
0 1 0
0 0 1
0 0 2
0 0 2
0 0 2
0 0 2
0 0 2
0 0 2
0 0 2
0 0 2
0 0 2
0 0 2
0 0 2
0 0 2
0 0 2
0 0 2
0 0 2
0 0 2
0 0 1
1 0 0
2 0 0
2 0 0
2 0 0
2 0 0
2 0 0
2 0 0
2 0 0
2 0 0
2 0 0
2 0 0
2 0 0
2 0 0
2 0 0
1 0 0
0 0 0
0 0 0
0 0 0
0 0 0
0 0 0
0 0 0
0 0 0
0 0 0
0 0 0
0 0 0
0 0 0
0 0 0
0 0 0
0 0 0
0 0 0
0 0 0
0 0 0
0 0 0
0 0 0
0 0 0
0 0 0
0 0 0
0 0 0
0 0 0
0 0 0
0 0 0
0 0 0
0 0 0
0 0 0
0 0 0
0 0 0
0 0 0
0 0 0
0 0 0
0 0 0
0 0 0
0 0 0
0 0 0
0 0 0
0 0 0
0 0 0
0 0 0
0 0 0
0 0 0
0 0 0
0 0 0
0 0 0
0 0 0
0 0 0
0 0 0
0 0 0
0 0 0
0 0 0
0 0 0
0 0 0
0 0 0
0 0 0
0 0 0
0 0 0
0 0 0
0 0 0
0 0 0
0 0 0
0 0 0
0 0 0
0 0 0
0 0 0
0 0 0
0 0 0
0 0 0
0 0 0
0 0 0
0 0 0
0 0 0
0 0 0
0 0 0
0 0 0
0 0 0
0 0 0
0 0 0
0 0 0
0 0 0
0 0 0
0 0 0
0 0 0
0 0 0
0 0 0
0 0 0
0 0 0
0 0 0
0 0 0
0 0 0
0 0 0
0 0 0
0 0 0
0 0 0
0 0 0
0 0 0
0 0 0
0 0 0
0 0 0
0 0 0
0 0 0
0 1 0
1 1 2
1 4 5
0 0 3
0 1 6
4 17 26
31 43 53
55 79 91
81 106 120
93 121 136
89 120 137
82 113 136
80 115 137
80 115 137
78 116 137
78 116 137
77 117 137
77 117 137
77 117 137
77 117 137
77 117 137
77 117 137
77 117 137
77 117 137
77 117 137
77 117 137
77 117 137
77 117 137
76 117 136
75 118 137
75 118 137
75 118 137
75 118 137
75 118 137
75 118 137
75 118 137
75 118 137
75 118 137
75 118 137
75 118 137
75 118 137
75 118 137
75 118 137
75 118 137
75 118 137
75 118 137
75 118 137
75 118 137
75 118 137
75 118 137
75 118 137
75 118 137
75 118 137
76 117 136
75 116 136
75 116 137
75 116 138
75 116 138
74 115 139
74 115 139
75 116 138
75 116 138
75 116 138
74 115 139
73 117 138
73 117 138
73 117 138
73 117 138
74 118 139
75 117 139
75 116 138
77 116 138
77 114 140
77 113 139
76 113 137
76 113 137
76 113 137
77 113 139
77 113 139
79 114 138
80 115 137
82 117 137
82 115 136
79 114 134
79 113 132
79 113 132
85 113 132
85 116 133
89 120 137
89 118 136
77 111 130
71 97 112
55 79 91
31 51 61
23 41 52
4 17 26
0 4 16
0 0 9
0 0 5
0 0 3
1 1 3
3 4 6
3 4 6
2 1 3
0 0 0
0 0 0
0 1 0
1 2 0
0 2 0
0 2 0
0 3 0
0 3 0
0 3 0
0 3 0
0 2 0
0 2 0
0 2 1
0 2 1
0 2 3
0 2 3
0 2 3
0 2 3
0 2 3
0 2 3
0 2 3
0 2 3
0 2 3
0 2 3
0 2 3
1 1 3
2 0 1
2 0 0
2 0 0
2 0 0
2 0 0
2 0 0
2 0 0
2 0 0
2 0 0
2 0 0
2 0 0
2 0 0
2 0 0
2 0 0
2 0 0
0 0 12
14 29 40
62 77 90
96 123 138
91 117 133
84 109 126
85 116 133
89 120 137
83 118 136
82 117 137
82 117 137
80 117 140
78 117 140
78 117 140
77 117 139
77 116 139
77 116 138
76 115 138
75 116 138
76 114 136
76 114 136
76 113 137
76 113 137
76 113 137
76 113 137
77 114 138
77 114 138
77 114 138
77 114 138
77 114 138
77 114 138
77 114 138
77 114 138
77 116 137
77 117 137
77 117 137
77 117 137
77 117 137
77 117 137
77 117 137
77 117 137
77 117 137
77 117 137
77 117 137
77 117 137
77 117 137
77 117 137
77 117 137
77 117 137
76 116 136
76 114 136
77 115 136
80 117 140
82 118 141
82 118 141
80 117 140
77 115 136
76 114 136
75 113 134
76 114 136
77 115 134
77 115 136
78 116 138
78 115 139
77 113 139
82 116 140
87 124 142
99 127 141
87 124 142
80 115 137
82 113 136
86 121 140
85 116 133
77 107 124
77 107 124
84 109 126
84 109 126
79 97 109
53 72 83
24 35 46
0 12 19
0 1 13
0 2 9
1 1 8
0 1 6
0 1 6
0 2 4
0 2 2
0 2 1
0 2 1
0 2 1
0 2 1
0 2 0
0 2 0
0 2 0
0 2 0
1 2 0
1 2 0
1 2 0
1 1 0
2 0 0
2 0 0
2 0 0
2 0 0
2 0 0
2 0 0
2 0 0
2 0 0
2 0 0
2 0 0
2 0 0
2 0 0
2 0 0
2 0 0
2 0 0
2 0 0
2 0 1
2 0 2
2 0 2
2 0 2
2 0 2
2 0 2
2 0 2
2 0 2
2 0 2
2 0 2
2 0 2
2 0 2
2 0 1
3 0 0
2 0 0
1 0 0
4 2 0
5 4 5
5 4 5
1 1 0
1 2 1
5 6 9
6 8 13
3 4 2
0 2 0
0 3 2
0 6 5
2 10 15
2 10 15
2 10 15
2 10 15
2 10 15
4 17 26
23 41 52
53 72 83
71 97 112
90 113 128
93 121 136
89 120 137
82 113 130
70 105 125
70 105 125
72 113 134
75 118 138
73 117 141
72 118 141
72 118 141
72 118 141
72 118 141
73 117 141
77 115 137
86 121 140
97 124 139
81 101 115
39 51 61
0 2 9
0 0 0
0 0 2
2 1 3
2 0 0
2 0 0
2 0 0
1 1 2
0 1 4
0 1 5
0 1 4
0 1 3
0 0 2
0 0 1
0 1 0
0 1 0
0 1 0
0 1 0
0 1 0
0 1 0
0 1 0
0 1 0
0 1 0
0 1 0
0 1 0
0 1 0
0 1 0
0 1 0
0 0 1
0 0 2
0 0 2
0 0 2
0 0 2
0 0 2
0 0 2
0 0 2
0 0 2
0 0 2
0 0 2
0 0 2
0 0 2
0 0 2
0 0 2
0 0 2
0 0 2
1 0 1
2 0 0
2 0 0
2 0 0
2 0 0
2 0 0
2 0 0
2 0 0
2 0 0
2 0 0
2 0 0
2 0 0
2 0 0
2 0 0
2 0 0
2 0 0
1 0 0
0 0 0
0 0 0
0 0 0
0 0 0
0 0 0
0 0 0
0 0 0
0 0 0
0 0 0
0 0 0
0 0 0
0 0 0
0 0 0
0 0 0
0 0 0
0 0 0
0 0 0
0 0 0
0 0 0
0 0 0
0 0 0
0 0 0
0 0 0
0 0 0
0 0 0
0 0 0
0 0 0
0 0 0
0 0 0
0 0 0
0 0 0
0 0 0
0 0 0
0 0 0
0 0 0
0 0 0
0 0 0
0 0 0
0 0 0
0 0 0
0 0 0
0 0 0
0 0 0
0 0 0
0 0 0
0 0 0
0 0 0
0 0 0
0 0 0
0 0 0
0 0 0
0 0 0
0 0 0
0 0 0
0 0 0
0 0 0
0 0 0
0 0 0
0 0 0
0 0 0
0 0 0
0 0 0
0 0 0
0 0 0
0 0 0
0 0 0
0 0 0
0 0 0
0 0 0
0 0 0
0 0 0
0 0 0
0 0 0
0 0 0
0 0 0
0 0 0
0 0 0
0 0 0
0 0 0
0 0 0
0 0 0
0 0 0
0 0 0
0 0 0
0 0 0
0 0 0
0 0 0
0 0 0
0 0 0
0 0 0
0 0 0
0 0 0
0 0 0
0 0 0
0 0 0
0 0 0
0 0 0
0 0 0
0 0 0
0 0 0
0 0 0
0 0 0
0 1 0
1 1 2
1 4 5
0 0 3
0 1 6
4 17 26
31 43 53
55 79 91
81 106 120
93 121 136
89 120 137
82 113 136
80 115 137
80 115 137
78 116 137
78 116 137
77 117 137
77 117 137
77 117 137
77 117 137
77 117 137
77 117 137
77 117 137
77 117 137
77 117 137
77 117 137
77 117 137
77 117 137
77 117 137
77 117 137
76 117 136
75 118 137
75 118 137
75 118 137
75 118 137
75 118 137
75 118 137
75 118 137
75 118 137
75 118 137
75 118 137
75 118 137
75 118 137
75 118 137
75 118 137
75 118 137
75 118 137
76 117 136
77 117 137
77 117 137
77 117 137
77 117 137
77 117 137
76 117 136
76 116 136
75 116 137
76 115 138
76 115 138
76 114 136
76 114 136
76 115 138
76 115 138
76 115 138
75 116 138
74 116 138
74 116 138
74 116 138
74 116 138
75 117 139
75 117 139
75 116 138
76 115 138
77 114 138
77 114 138
77 113 139
77 113 139
77 113 139
77 113 139
76 113 137
76 113 137
80 115 137
82 120 140
86 122 140
87 124 142
87 124 142
82 117 137
77 111 130
70 105 125
77 111 130
82 117 137
87 124 142
86 121 140
79 113 132
71 97 112
55 79 91
23 41 52
4 17 26
0 4 16
0 4 12
1 1 8
1 1 5
1 1 5
0 0 3
0 0 2
0 0 0
0 0 0
0 0 0
0 1 0
0 3 0
0 3 0
0 3 0
0 3 0
0 2 0
0 2 0
0 2 1
0 2 1
0 2 1
0 2 1
0 2 3
0 2 3
0 2 3
0 2 3
0 2 3
0 2 3
0 2 3
0 2 3
0 2 3
0 2 3
0 2 3
1 1 3
2 0 1
2 0 0
2 0 0
2 0 0
2 0 0
2 0 0
2 0 0
2 0 0
2 0 0
2 0 0
2 0 0
2 0 0
2 0 0
2 0 0
2 0 0
0 0 12
14 29 40
62 77 90
96 123 138
91 117 133
84 109 126
85 116 133
89 120 137
83 118 136
82 117 137
82 117 137
80 117 140
78 117 140
78 117 140
77 117 139
77 116 139
77 116 138
76 115 138
75 116 138
76 114 136
76 114 136
76 113 137
76 113 137
76 113 137
76 113 137
77 114 138
77 114 138
77 114 138
77 114 138
77 114 138
77 114 138
77 114 138
77 114 138
77 116 137
77 117 137
77 117 137
77 117 137
77 117 137
77 117 137
77 117 137
77 117 137
77 117 137
77 117 137
77 117 137
77 117 137
77 117 137
77 117 137
77 117 137
77 117 137
75 116 136
75 113 134
76 115 135
80 117 140
82 118 141
82 118 141
80 117 140
76 115 135
75 113 134
75 113 134
76 114 136
77 116 137
78 116 137
78 117 140
80 115 140
79 114 138
82 118 141
87 124 142
99 127 141
87 124 142
86 121 140
83 113 135
83 113 135
85 113 132
85 113 132
85 113 132
84 109 126
70 92 106
53 72 83
23 41 52
4 17 26
0 4 16
0 4 12
2 6 12
1 4 10
0 1 6
0 2 4
0 2 4
0 2 1
0 2 1
0 2 0
0 2 0
0 2 1
0 2 0
0 2 0
0 2 0
0 2 0
1 2 0
1 2 0
1 2 0
1 1 0
2 0 0
2 0 0
2 0 0
2 0 0
2 0 0
2 0 0
2 0 0
2 0 0
2 0 0
2 0 0
2 0 0
2 0 0
2 0 0
2 0 0
2 0 0
2 0 0
2 0 1
2 0 2
2 0 2
2 0 2
2 0 2
2 0 2
2 0 2
2 0 2
2 0 2
2 0 2
2 0 2
2 0 2
2 0 1
3 0 0
2 0 0
1 0 0
3 2 1
3 4 2
3 4 2
3 4 2
3 4 2
5 4 5
5 6 9
3 4 2
0 5 1
0 6 5
0 8 14
2 10 15
0 8 14
0 2 4
0 4 9
4 17 26
31 51 61
55 79 91
81 101 115
90 116 132
89 118 136
85 116 133
79 113 127
70 105 125
70 105 125
70 105 125
72 113 134
74 118 139
73 117 141
72 118 141
72 118 141
72 118 141
72 118 141
75 116 141
77 115 137
86 121 140
97 124 139
81 101 115
39 51 61
0 2 9
0 0 0
0 0 2
2 1 3
1 0 0
1 0 0
1 0 0
1 1 2
0 1 4
0 1 5
0 1 4
0 1 3
0 0 2
0 0 1
0 1 0
0 1 0
0 1 0
0 1 0
0 1 0
0 1 0
0 1 0
0 1 0
0 1 0
0 1 0
0 1 0
0 1 0
0 1 0
0 1 0
0 0 1
0 0 2
0 0 2
0 0 2
0 0 2
0 0 2
0 0 2
0 0 2
0 0 2
0 0 2
0 0 2
0 0 2
0 0 2
0 0 2
0 0 2
0 0 2
0 0 2
1 0 1
2 0 0
2 0 0
2 0 0
2 0 0
2 0 0
2 0 0
2 0 0
2 0 0
2 0 0
2 0 0
2 0 0
2 0 0
2 0 0
2 0 0
2 0 0
1 0 0
0 0 0
0 0 0
0 0 0
0 0 0
0 0 0
0 0 0
0 0 0
0 0 0
0 0 0
0 0 0
0 0 0
0 0 0
0 0 0
0 0 0
0 0 0
0 0 0
0 0 0
0 0 0
0 0 0
0 0 0
0 0 0
0 0 0
0 0 0
0 0 0
0 0 0
0 0 0
0 0 0
0 0 0
0 0 0
0 0 0
0 0 0
0 0 0
0 0 0
0 0 0
0 0 0
0 0 0
0 0 0
0 0 0
0 0 0
0 0 0
0 0 0
0 0 0
0 0 0
0 0 0
0 0 0
0 0 0
0 0 0
0 0 0
0 0 0
0 0 0
0 0 0
0 0 0
0 0 0
0 0 0
0 0 0
0 0 0
0 0 0
0 0 0
0 0 0
0 0 0
0 0 0
0 0 0
0 0 0
0 0 0
0 0 0
0 0 0
0 0 0
0 0 0
0 0 0
0 0 0
0 0 0
0 0 0
0 0 0
0 0 0
0 0 0
0 0 0
0 0 0
0 0 0
0 0 0
0 0 0
0 0 0
0 0 0
0 0 0
0 0 0
0 0 0
0 0 0
0 0 0
0 0 0
0 0 0
0 0 0
0 0 0
0 0 0
0 0 0
0 0 0
0 0 0
0 0 0
0 0 0
0 0 0
0 0 0
0 0 0
0 0 0
0 1 0
0 1 0
1 1 2
1 4 5
0 0 3
0 1 6
4 17 26
31 43 53
55 79 91
81 106 120
93 121 136
89 120 137
82 113 136
80 115 137
80 115 137
78 116 137
78 116 137
77 117 137
77 117 137
77 117 137
77 117 137
77 117 137
77 117 137
77 117 137
77 117 137
77 117 137
77 117 137
77 117 137
77 117 137
77 117 137
77 117 137
76 117 136
75 118 137
75 118 137
75 118 137
75 118 137
75 118 137
75 118 137
75 118 137
75 118 137
75 118 137
75 118 137
75 118 137
75 118 137
75 118 137
75 118 137
75 118 137
75 118 137
76 117 136
77 117 137
77 117 137
77 117 137
77 117 137
77 117 137
76 117 136
76 116 136
75 116 137
77 115 137
76 114 136
73 115 135
73 115 135
77 115 137
77 115 137
77 115 137
75 116 137
75 116 137
75 116 137
75 116 137
75 116 137
76 117 138
76 117 138
75 116 137
77 115 137
77 115 137
77 115 137
77 114 140
77 113 139
77 113 139
77 113 139
76 113 137
76 113 137
75 113 134
75 113 134
82 117 137
87 124 142
87 124 142
87 124 142
79 113 135
70 105 125
70 105 125
79 113 135
86 121 140
87 124 142
87 124 142
80 115 137
70 105 125
55 79 91
31 51 61
24 35 46
12 20 29
1 1 8
0 0 0
0 0 0
0 2 4
1 4 5
0 2 4
0 2 2
0 1 1
0 2 0
0 3 0
0 3 0
0 3 0
0 3 0
0 2 0
0 2 0
0 2 1
0 2 1
0 2 2
0 2 2
0 2 3
0 2 3
0 2 3
0 2 3
0 2 3
0 2 3
0 2 3
0 2 3
0 2 3
0 2 3
0 2 3
1 1 3
2 0 1
2 0 0
2 0 0
2 0 0
2 0 0
2 0 0
2 0 0
2 0 0
2 0 0
2 0 0
2 0 0
2 0 0
2 0 0
2 0 0
2 0 0
0 0 12
14 29 40
62 77 90
96 123 138
91 117 133
84 109 126
85 116 133
89 120 137
83 118 136
82 117 137
80 115 137
80 117 140
78 117 140
78 117 140
77 117 139
77 116 139
77 116 138
76 115 138
75 116 138
76 114 136
76 114 136
76 113 137
76 113 137
76 113 137
76 113 137
77 114 138
77 114 138
77 114 138
77 114 138
77 114 138
77 114 138
77 114 138
77 114 138
77 116 137
77 117 137
77 117 137
77 117 137
77 117 137
77 117 137
77 117 137
77 117 137
77 117 137
77 117 137
77 117 137
77 117 137
77 117 137
77 117 137
77 117 137
77 117 137
76 116 136
76 114 136
77 115 136
80 117 140
82 118 141
82 120 140
80 117 140
77 115 136
75 113 134
76 115 135
78 116 137
78 116 137
78 116 138
80 117 140
82 116 140
82 116 140
82 116 140
79 114 138
80 115 137
86 121 140
87 124 142
89 118 136
81 110 128
84 109 126
90 116 132
88 109 125
71 97 112
47 64 75
14 29 40
4 17 26
0 12 19
0 8 14
0 4 12
0 4 9
0 1 6
0 2 4
0 2 2
0 2 1
0 2 1
0 2 1
0 2 0
0 2 0
0 2 0
0 2 0
0 2 0
0 2 0
0 2 0
0 2 0
0 2 0
1 2 0
1 1 0
2 0 0
2 0 0
2 0 0
2 0 0
2 0 0
2 0 0
2 0 0
2 0 0
2 0 0
2 0 0
2 0 0
2 0 0
2 0 0
2 0 0
2 0 0
2 0 0
2 0 1
2 0 2
2 0 2
2 0 2
2 0 2
2 0 2
2 0 2
2 0 2
2 0 2
2 0 2
2 0 2
2 0 2
2 0 1
2 0 0
2 0 0
2 0 0
1 0 0
1 1 1
3 4 2
5 6 9
5 6 9
3 4 2
1 1 1
1 4 1
0 6 5
2 10 15
2 10 15
6 12 17
2 10 15
0 0 4
0 6 13
23 41 52
68 87 100
84 109 126
91 117 133
93 121 136
89 120 137
79 115 132
77 107 124
70 105 125
70 105 125
71 110 131
73 115 135
74 118 139
73 116 139
73 116 139
72 118 141
72 118 141
73 117 141
75 116 141
78 115 137
86 121 140
97 124 139
81 101 115
39 51 61
0 2 9
0 0 0
0 0 2
2 1 3
0 0 0
0 0 0
0 0 0
0 0 2
0 1 4
0 1 5
0 1 4
0 1 3
0 1 1
0 1 0
0 1 0
0 1 0
0 1 0
0 1 0
0 1 0
0 1 0
0 1 0
0 1 0
0 1 0
0 1 0
0 1 0
0 1 0
0 1 0
0 1 0
0 0 1
0 0 2
0 0 2
0 0 2
0 0 2
0 0 2
0 0 2
0 0 2
0 0 2
0 0 2
0 0 2
0 0 2
0 0 2
0 0 2
0 0 2
0 0 2
0 0 2
1 0 1
2 0 0
2 0 0
2 0 0
2 0 0
2 0 0
2 0 0
2 0 0
2 0 0
2 0 0
2 0 0
2 0 0
2 0 0
2 0 0
2 0 0
2 0 0
1 0 0
0 0 0
0 0 0
0 0 0
0 0 0
0 0 0
0 0 0
0 0 0
0 0 0
0 0 0
0 0 0
0 0 0
0 0 0
0 0 0
0 0 0
0 0 0
0 0 0
0 0 0
0 0 0
0 0 0
0 0 0
0 0 0
0 0 0
0 0 0
0 0 0
0 0 0
0 0 0
0 0 0
0 0 0
0 0 0
0 0 0
0 0 0
0 0 0
0 0 0
0 0 0
0 0 0
0 0 0
0 0 0
0 0 0
0 0 0
0 0 0
0 0 0
0 0 0
0 0 0
0 0 0
0 0 0
0 0 0
0 0 0
0 0 0
0 0 0
0 0 0
0 0 0
0 0 0
0 0 0
0 0 0
0 0 0
0 0 0
0 0 0
0 0 0
0 0 0
0 0 0
0 0 0
0 0 0
0 0 0
0 0 0
0 0 0
0 0 0
0 0 0
0 0 0
0 0 0
0 0 0
0 0 0
0 0 0
0 0 0
0 0 0
0 0 0
0 0 0
0 0 0
0 0 0
0 0 0
0 0 0
0 0 0
0 0 0
0 0 0
0 0 0
0 0 0
0 0 0
0 0 0
0 0 0
0 0 0
0 0 0
0 0 0
0 0 0
0 0 0
0 0 0
0 0 0
0 0 0
0 0 0
0 0 0
0 0 0
0 0 0
0 1 0
0 2 0
0 2 0
1 3 2
0 3 5
0 0 3
0 1 6
4 17 26
23 41 52
55 79 91
81 106 120
93 121 136
89 120 137
82 113 136
80 115 137
80 115 137
78 116 137
78 116 137
77 117 137
77 117 137
77 117 137
77 117 137
77 117 137
77 117 137
77 117 137
77 117 137
77 117 137
77 117 137
77 117 137
77 117 137
77 117 137
77 117 137
77 117 137
77 117 137
77 117 137
77 117 137
77 117 137
77 117 137
77 117 137
77 117 137
77 117 137
77 117 137
77 117 137
77 117 137
77 117 137
77 117 137
77 117 137
77 117 137
77 117 137
77 117 137
77 117 137
77 117 137
77 117 137
77 117 137
77 117 137
75 116 137
76 116 136
76 116 136
76 116 136
75 116 136
73 115 135
73 115 135
76 116 136
76 116 136
76 116 136
76 116 136
76 116 136
76 116 136
76 116 136
76 116 136
77 117 137
77 117 137
76 116 136
76 116 136
77 115 136
77 115 136
77 115 137
76 113 137
76 112 136
76 113 137
77 115 137
76 114 136
71 110 131
70 105 125
71 110 131
80 115 137
87 124 142
87 124 142
87 124 142
82 116 140
80 115 137
79 113 135
79 113 135
79 113 135
79 114 136
79 113 135
77 111 130
70 105 125
70 92 106
53 72 83
31 51 61
6 12 17
0 0 0
0 0 0
1 4 10
2 6 12
0 4 9
0 4 5
0 3 2
0 3 2
0 4 1
0 4 1
0 4 1
0 4 1
0 3 2
0 3 2
0 2 1
0 2 2
0 2 3
0 2 3
0 2 3
0 2 3
0 2 3
0 2 3
0 2 3
0 2 3
0 2 3
0 2 3
0 2 3
0 2 3
0 2 3
1 1 3
2 0 1
2 0 0
2 0 0
2 0 0
2 0 0
2 0 0
2 0 0
2 0 0
2 0 0
2 0 0
2 0 0
2 0 0
2 0 0
2 0 0
2 0 0
0 0 12
14 29 40
62 77 90
96 123 138
91 117 133
84 109 126
85 116 133
89 120 137
83 118 136
82 117 137
80 115 137
80 117 140
78 117 140
78 117 140
77 117 139
77 116 139
77 116 138
76 115 138
75 116 138
76 114 136
76 114 136
76 113 137
76 113 137
76 113 137
76 113 137
77 114 138
77 114 138
77 114 138
77 114 138
77 114 138
77 114 138
77 114 138
77 114 138
77 116 137
77 117 137
77 117 137
77 117 137
77 117 137
77 117 137
77 117 137
77 117 137
77 117 137
77 117 137
77 117 137
77 117 137
77 117 137
77 117 137
77 117 137
77 117 137
77 116 137
77 115 136
78 115 137
78 116 138
80 117 140
80 117 140
78 116 138
78 116 137
78 115 137
78 116 137
78 116 138
80 117 140
82 118 141
82 118 141
82 118 141
86 121 140
82 118 141
71 110 131
70 105 125
82 113 136
97 124 139
96 123 138
85 113 132
84 109 126
84 109 126
70 92 106
47 64 75
24 35 46
0 12 19
0 1 13
0 4 16
2 10 15
0 6 13
0 4 9
0 3 5
0 3 5
0 2 2
0 2 1
0 2 1
0 2 1
0 2 0
0 2 0
0 2 0
0 2 0
0 2 0
0 2 0
0 2 0
0 2 0
0 2 0
1 2 0
1 1 0
2 0 0
2 0 0
2 0 0
2 0 0
2 0 0
2 0 0
2 0 0
2 0 0
2 0 0
2 0 0
2 0 0
2 0 0
2 0 0
2 0 0
2 0 0
2 0 0
2 0 1
2 0 2
2 0 2
2 0 2
2 0 2
2 0 2
2 0 2
2 0 2
2 0 2
2 0 2
2 0 2
2 0 2
2 0 1
2 0 0
2 0 0
2 0 0
1 0 0
0 0 0
0 3 0
5 6 9
5 6 9
3 4 2
0 2 1
0 6 5
0 6 5
2 10 15
1 6 12
0 4 9
1 6 12
4 17 26
23 41 52
53 72 83
81 101 115
90 116 132
90 116 132
85 116 133
82 115 132
78 115 132
77 111 130
71 110 131
71 110 131
72 113 134
74 116 136
75 116 139
75 116 139
73 116 139
73 117 141
73 117 141
73 116 139
75 116 139
77 115 136
86 121 140
97 124 139
81 101 115
39 51 61
0 2 9
0 0 0
0 0 2
2 1 3
0 0 0
0 0 0
0 0 0
0 0 2
0 1 4
0 1 5
0 1 4
0 1 3
0 1 1
0 1 0
0 1 0
0 1 0
0 1 0
0 1 0
0 1 0
0 1 0
0 1 0
0 1 0
0 1 0
0 1 0
0 1 0
0 1 0
0 1 0
0 1 0
0 0 1
0 0 2
0 0 2
0 0 2
0 0 2
0 0 2
0 0 2
0 0 2
0 0 2
0 0 2
0 0 2
0 0 2
0 0 2
0 0 2
0 0 2
0 0 2
0 0 2
1 0 1
2 0 0
2 0 0
2 0 0
2 0 0
2 0 0
2 0 0
2 0 0
2 0 0
2 0 0
2 0 0
2 0 0
2 0 0
2 0 0
2 0 0
2 0 0
1 0 0
0 0 0
0 0 0
0 0 0
0 0 0
0 0 0
0 0 0
0 0 0
0 0 0
0 0 0
0 0 0
0 0 0
0 0 0
0 0 0
0 0 0
0 0 0
0 0 0
0 0 0
0 0 0
0 0 0
0 0 0
0 0 0
0 0 0
0 0 0
0 0 0
0 0 0
0 0 0
0 0 0
0 0 0
0 0 0
0 0 0
0 0 0
0 0 0
0 0 0
0 0 0
0 0 0
0 0 0
0 0 0
0 0 0
0 0 0
0 0 0
0 0 0
0 0 0
0 0 0
0 0 0
0 0 0
0 0 0
0 0 0
0 0 0
0 0 0
0 0 0
0 0 0
0 0 0
0 0 0
0 0 0
0 0 0
0 0 0
0 0 0
0 0 0
0 0 0
0 0 0
0 0 0
0 0 0
0 0 0
0 0 0
0 0 0
0 0 0
0 0 0
0 0 0
0 0 0
0 0 0
0 0 0
0 0 0
0 0 0
0 0 0
0 0 0
0 0 0
0 0 0
0 0 0
0 0 0
0 0 0
0 0 0
0 0 0
0 0 0
0 0 0
0 0 0
0 0 0
0 0 0
0 0 0
0 0 0
0 0 0
0 0 0
0 0 0
0 0 0
0 0 0
0 0 0
0 0 0
0 0 0
0 0 0
0 0 0
0 0 0
0 1 0
0 2 0
0 2 0
1 3 2
0 3 5
0 0 3
0 1 6
4 17 26
23 41 52
55 79 91
81 106 120
93 121 136
89 120 137
82 113 136
80 115 137
80 115 137
78 116 137
78 116 137
77 117 137
77 117 137
77 117 137
77 117 137
77 117 137
77 117 137
77 117 137
77 117 137
77 117 137
77 117 137
77 117 137
77 117 137
77 117 137
77 117 137
77 117 137
77 117 137
77 117 137
77 117 137
77 117 137
77 117 137
77 117 137
77 117 137
77 117 137
77 117 137
77 117 137
77 117 137
77 117 137
77 117 137
77 117 137
77 117 137
77 117 137
77 117 137
77 117 137
77 117 137
77 117 137
77 117 137
77 117 137
75 116 137
76 116 136
76 116 136
76 116 136
75 116 136
73 115 135
73 115 135
76 116 136
76 116 136
76 116 136
76 116 136
76 116 136
76 116 136
76 116 136
76 116 136
77 117 137
77 117 137
76 116 136
76 116 136
77 115 136
77 115 136
76 114 136
76 113 137
76 112 136
76 113 137
77 115 136
76 114 136
75 113 134
71 110 131
77 111 130
79 113 135
80 117 140
82 118 141
86 121 140
86 121 140
82 118 141
80 115 137
77 111 130
77 111 130
77 111 130
77 111 130
82 113 136
89 118 136
85 113 132
81 101 115
55 79 91
31 43 53
12 20 29
2 6 12
0 2 9
0 4 12
0 8 14
1 6 12
0 3 5
0 3 2
0 4 1
0 4 1
0 4 1
0 4 1
0 2 1
0 2 1
0 2 1
0 2 2
0 2 3
0 2 3
0 2 3
0 2 3
0 2 3
0 2 3
0 2 3
0 2 3
0 2 3
0 2 3
0 2 3
0 2 3
0 2 3
1 1 3
2 0 1
2 0 0
2 0 0
2 0 0
2 0 0
2 0 0
2 0 0
2 0 0
2 0 0
2 0 0
2 0 0
2 0 0
2 0 0
2 0 0
2 0 0
0 0 12
14 29 40
62 77 90
96 123 138
91 117 133
84 109 126
85 116 133
89 120 137
83 118 136
82 117 137
80 115 137
80 117 140
78 117 140
78 117 140
77 117 139
77 116 139
77 116 138
76 115 138
75 116 138
76 114 136
76 114 136
76 113 137
76 113 137
76 113 137
76 113 137
77 114 138
77 114 138
77 114 138
77 114 138
77 114 138
77 114 138
77 114 138
77 114 138
77 116 137
77 117 137
77 117 137
77 117 137
77 117 137
77 117 137
77 117 137
77 117 137
77 117 137
77 117 137
77 117 137
77 117 137
77 117 137
77 117 137
77 117 137
77 117 137
77 117 137
80 117 140
78 116 138
77 115 136
76 114 136
76 114 136
78 116 137
80 117 140
80 117 140
80 117 140
82 118 141
82 118 141
82 118 141
82 118 141
82 118 141
86 121 140
82 118 141
77 111 130
70 105 125
81 110 128
89 120 137
97 124 139
90 116 132
81 106 120
68 87 100
39 51 61
14 29 40
0 12 19
0 4 16
0 4 12
0 4 12
0 4 12
0 4 9
0 4 5
0 4 5
0 3 2
0 3 2
0 2 1
0 2 0
0 2 0
0 2 0
0 2 0
0 2 0
0 2 0
0 2 0
0 2 0
0 2 0
0 2 0
0 2 0
1 2 0
1 1 0
2 0 0
2 0 0
2 0 0
2 0 0
2 0 0
2 0 0
2 0 0
2 0 0
2 0 0
2 0 0
2 0 0
2 0 0
2 0 0
2 0 0
2 0 0
2 0 0
2 0 1
2 0 2
2 0 2
2 0 2
2 0 2
2 0 2
2 0 2
2 0 2
2 0 2
2 0 2
2 0 2
2 0 2
2 0 1
2 0 0
2 0 0
1 1 1
1 2 1
0 2 0
0 3 0
1 4 1
3 4 2
0 6 5
0 6 5
0 6 5
0 6 5
5 6 9
1 4 10
0 1 5
0 12 19
31 51 61
68 87 100
81 101 115
81 106 120
81 106 120
77 107 124
79 113 127
79 113 132
79 115 135
79 115 135
78 116 135
76 115 135
75 113 134
76 115 138
76 115 138
75 116 138
73 116 139
75 116 141
75 116 141
74 115 139
77 116 138
79 114 134
89 120 137
97 124 139
81 101 115
39 51 61
0 2 9
0 0 0
0 0 2
2 1 3
0 0 0
0 0 0
0 0 0
0 0 2
0 1 4
0 1 5
0 1 4
0 1 3
0 1 1
0 1 0
0 1 0
0 1 0
0 1 0
0 1 0
0 1 0
0 1 0
0 1 0
0 1 0
0 1 0
0 1 0
0 1 0
0 1 0
0 1 0
0 1 0
0 0 1
0 0 2
0 0 2
0 0 2
0 0 2
0 0 2
0 0 2
0 0 2
0 0 2
0 0 2
0 0 2
0 0 2
0 0 2
0 0 2
0 0 2
0 0 2
0 0 2
1 0 1
2 0 0
2 0 0
2 0 0
2 0 0
2 0 0
2 0 0
2 0 0
2 0 0
2 0 0
2 0 0
2 0 0
2 0 0
2 0 0
2 0 0
2 0 0
1 0 0
0 0 0
0 0 0
0 0 0
0 0 0
0 0 0
0 0 0
0 0 0
0 0 0
0 0 0
0 0 0
0 0 0
0 0 0
0 0 0
0 0 0
0 0 0
0 0 0
0 0 0
0 0 0
0 0 0
0 0 0
0 0 0
0 0 0
0 0 0
0 0 0
0 0 0
0 0 0
0 0 0
0 0 0
0 0 0
0 0 0
0 0 0
0 0 0
0 0 0
0 0 0
0 0 0
0 0 0
0 0 0
0 0 0
0 0 0
0 0 0
0 0 0
0 0 0
0 0 0
0 0 0
0 0 0
0 0 0
0 0 0
0 0 0
0 0 0
0 0 0
0 0 0
0 0 0
0 0 0
0 0 0
0 0 0
0 0 0
0 0 0
0 0 0
0 0 0
0 0 0
0 0 0
0 0 0
0 0 0
0 0 0
0 0 0
0 0 0
0 0 0
0 0 0
0 0 0
0 0 0
0 0 0
0 0 0
0 0 0
0 0 0
0 0 0
0 0 0
0 0 0
0 0 0
0 0 0
0 0 0
0 0 0
0 0 0
0 0 0
0 0 0
0 0 0
0 0 0
0 0 0
0 0 0
0 0 0
0 0 0
0 0 0
0 0 0
0 0 0
0 0 0
0 0 0
0 0 0
0 0 0
0 0 0
0 0 0
0 0 0
0 1 0
0 2 0
0 2 0
1 3 2
0 3 5
0 0 3
0 1 6
4 17 26
31 43 53
55 79 91
81 106 120
93 121 136
86 121 140
80 115 137
80 115 137
80 115 137
78 115 137
78 116 137
77 117 137
77 117 137
77 117 137
77 117 137
77 117 137
77 117 137
77 117 137
77 117 137
77 117 137
77 117 137
77 117 137
77 117 137
77 117 137
77 117 137
77 117 137
77 117 137
77 117 137
77 117 137
77 117 137
77 117 137
77 117 137
77 117 137
77 117 137
77 117 137
77 117 137
77 117 137
77 117 137
77 117 137
77 117 137
77 117 137
77 117 137
77 117 137
77 117 137
77 117 137
77 117 137
77 117 137
77 117 137
75 116 137
76 116 136
76 116 136
76 116 136
75 116 136
73 115 135
73 115 135
76 116 136
76 116 136
76 116 136
76 116 136
76 116 136
76 116 136
76 116 136
76 116 136
77 117 137
77 117 137
76 116 136
76 116 136
77 115 136
77 115 136
76 114 136
76 114 136
76 114 136
76 114 136
75 113 134
77 115 136
82 120 140
86 121 140
82 118 141
79 114 136
75 113 134
76 113 132
79 113 135
82 116 140
82 118 141
82 116 140
82 115 136
79 113 135
77 111 130
79 113 135
82 116 140
86 121 140
93 121 136
84 109 126
79 97 109
68 87 100
47 64 75
14 29 40
0 6 13
0 4 12
2 10 15
2 10 15
1 4 5
0 3 2
0 4 1
0 3 2
0 3 2
0 3 2
0 1 1
0 2 2
0 2 2
0 2 3
0 2 3
0 2 3
0 2 3
0 2 3
0 2 3
0 2 3
0 2 3
0 2 3
0 2 3
0 2 3
0 2 3
0 2 3
0 2 3
1 1 3
2 0 1
2 0 0
2 0 0
2 0 0
2 0 0
2 0 0
2 0 0
2 0 0
2 0 0
2 0 0
2 0 0
2 0 0
2 0 0
2 0 0
2 0 0
0 0 12
14 29 40
62 77 90
96 123 138
91 117 133
84 109 126
85 116 133
89 120 137
83 118 136
82 117 137
80 115 137
80 117 140
78 117 140
78 117 140
77 117 139
75 116 139
75 116 138
76 115 138
75 116 138
76 114 136
76 114 136
76 113 137
76 113 137
76 113 137
76 113 137
77 114 138
77 114 138
77 114 138
77 114 138
77 114 138
77 114 138
77 114 138
77 114 138
77 116 137
77 117 137
77 117 137
77 117 137
77 117 137
77 117 137
77 117 137
77 117 137
77 117 137
77 117 137
77 117 137
77 117 137
77 117 137
77 117 137
77 117 137
77 117 137
80 117 140
86 121 140
82 118 141
76 114 136
71 110 131
71 110 131
76 114 136
80 115 140
82 118 141
82 118 141
82 118 141
78 117 140
78 115 137
78 115 137
80 115 137
82 115 136
82 113 136
77 111 130
77 111 130
82 113 130
90 116 132
91 117 133
84 109 126
68 87 100
39 51 61
14 29 40
0 4 16
0 0 12
0 4 12
0 6 13
0 4 12
0 4 9
0 4 9
0 4 5
0 4 5
0 3 2
0 3 2
0 2 1
0 2 0
0 2 0
0 2 0
0 2 0
0 2 0
0 2 0
0 2 0
0 2 0
0 2 0
0 2 0
0 2 0
1 2 0
1 1 0
2 0 0
2 0 0
2 0 0
2 0 0
2 0 0
2 0 0
2 0 0
2 0 0
2 0 0
2 0 0
2 0 0
2 0 0
2 0 0
2 0 0
2 0 0
2 0 0
2 0 1
2 0 2
2 0 2
2 0 2
2 0 2
2 0 2
2 0 2
2 0 2
2 0 2
2 0 2
2 0 2
2 0 2
2 0 1
1 0 0
1 0 0
0 0 1
1 3 2
0 6 5
3 4 2
0 3 0
0 2 0
0 6 5
0 6 5
0 6 5
0 3 5
0 0 3
0 1 6
6 12 17
23 41 52
68 87 100
95 118 134
93 121 136
81 106 120
71 97 112
70 105 125
77 111 130
78 115 132
82 117 137
80 117 140
80 117 140
78 117 140
77 116 138
77 116 138
76 115 138
75 116 138
75 116 138
75 116 139
75 116 139
76 115 138
78 115 137
79 114 134
89 120 137
97 124 139
81 101 115
39 51 61
0 2 9
0 0 0
0 1 1
2 3 2
0 1 0
0 1 0
0 1 0
0 1 1
0 1 4
0 1 5
0 1 4
0 1 3
0 1 1
0 1 1
0 1 0
0 1 0
0 1 0
0 1 0
0 1 0
0 1 0
0 1 0
0 1 0
0 1 0
0 1 0
0 1 0
0 1 0
0 1 0
0 1 0
0 0 1
0 0 2
0 0 2
0 0 2
0 0 2
0 0 2
0 0 2
0 0 2
0 0 2
0 0 2
0 0 2
0 0 2
0 0 2
0 0 2
0 0 2
0 0 2
0 0 2
1 0 1
2 0 0
2 0 0
2 0 0
2 0 0
2 0 0
2 0 0
2 0 0
2 0 0
2 0 0
2 0 0
2 0 0
2 0 0
2 0 0
2 0 0
2 0 0
1 0 0
0 0 1
0 0 1
0 0 1
0 0 1
0 0 1
0 0 1
0 0 1
0 0 1
0 0 0
0 0 0
0 0 0
0 0 0
0 0 0
0 0 0
0 0 0
0 0 0
0 0 0
0 0 0
0 0 0
0 0 0
0 0 0
0 0 0
0 0 0
0 0 0
0 0 0
0 0 0
0 0 0
0 0 0
0 0 0
0 0 0
0 0 0
0 0 0
0 0 0
0 0 0
0 0 0
0 0 0
0 0 0
0 0 0
0 0 0
0 0 0
0 0 0
0 0 0
0 0 0
0 0 0
0 0 0
0 0 0
0 0 0
0 0 0
0 0 0
0 0 0
0 0 0
0 0 0
0 0 0
0 0 0
0 0 0
0 0 0
0 0 0
0 0 0
0 0 0
0 0 0
0 0 0
0 0 0
0 0 0
0 0 0
0 0 0
0 0 0
0 0 0
0 0 0
0 0 0
0 0 0
0 0 0
0 0 0
0 0 0
0 0 0
0 0 0
0 0 0
0 0 0
0 0 0
0 0 0
0 0 0
0 0 0
0 0 0
0 0 0
0 0 0
0 0 0
0 0 0
0 0 0
0 0 0
0 0 0
0 0 0
0 0 0
0 0 0
0 0 0
0 0 0
0 0 0
0 0 0
0 0 0
0 0 0
0 0 0
0 0 0
0 1 0
0 2 0
0 2 0
1 3 2
0 3 5
0 0 3
0 1 6
4 17 26
31 43 53
55 79 91
81 106 120
93 121 136
86 121 140
80 115 137
80 115 137
80 115 137
78 115 137
78 116 137
77 117 137
77 117 137
77 117 137
77 117 137
77 117 137
77 117 137
77 117 137
77 117 137
77 117 137
77 117 137
77 117 137
77 117 137
77 117 137
77 117 137
77 117 137
77 117 137
77 117 137
77 117 137
77 117 137
77 117 137
77 117 137
77 117 137
77 117 137
77 117 137
77 117 137
77 117 137
77 117 137
77 117 137
77 117 137
77 117 137
77 117 137
77 117 137
77 117 137
77 117 137
77 117 137
77 117 137
77 117 137
75 116 137
76 116 136
76 116 136
76 116 136
75 116 136
76 115 135
76 115 135
76 116 136
76 116 136
76 116 136
76 116 136
76 116 136
76 116 136
76 116 136
76 116 136
77 117 137
77 117 137
76 116 136
76 116 136
77 115 136
77 115 136
76 114 136
76 114 136
76 115 135
76 114 136
75 113 134
77 115 136
82 120 140
87 124 142
86 121 140
79 113 135
71 110 131
71 110 131
75 113 134
79 114 138
82 116 140
82 118 141
82 116 140
80 115 137
79 113 135
79 113 135
82 115 136
86 121 140
89 118 136
84 109 126
84 109 126
88 109 125
79 97 109
47 64 75
24 35 46
4 17 26
0 12 19
0 6 13
0 4 9
0 4 5
0 4 5
0 3 2
0 1 1
0 3 2
3 4 6
1 4 5
0 2 4
0 1 3
0 1 3
0 1 3
0 1 3
0 1 3
0 1 3
0 1 3
0 2 4
0 2 4
0 2 4
0 2 4
0 2 4
0 2 4
0 2 3
1 1 3
2 0 1
2 0 0
2 0 0
2 0 0
2 0 0
2 0 0
2 0 0
2 0 0
2 0 0
2 0 0
2 0 0
2 0 0
2 0 0
2 0 0
2 0 0
0 0 12
14 29 40
62 77 90
96 123 138
91 117 133
84 109 126
85 116 133
89 120 137
83 118 136
82 117 137
80 115 137
80 117 140
78 117 140
78 117 140
75 117 141
75 117 139
75 116 138
76 115 138
76 115 138
76 114 136
76 114 136
76 113 137
76 113 137
76 113 137
76 113 137
77 114 138
77 114 138
77 114 138
77 114 138
77 114 138
77 114 138
77 114 138
77 114 138
77 116 137
77 117 137
77 117 137
77 117 137
77 117 137
77 117 137
77 117 137
77 117 137
77 117 137
77 117 137
77 117 137
77 117 137
77 117 137
77 117 137
76 116 136
76 116 136
82 120 140
87 124 142
87 124 142
76 114 136
70 105 125
71 110 131
76 114 136
78 116 138
82 118 141
82 118 141
82 118 141
76 114 136
71 110 131
76 113 132
76 113 132
77 111 130
77 111 130
77 111 130
85 113 132
85 113 132
84 109 126
81 101 115
68 87 100
31 51 61
12 20 29
0 4 16
0 1 13
0 4 16
0 4 12
0 4 12
0 4 12
0 4 9
0 4 5
0 4 5
0 3 2
0 2 1
0 2 0
0 2 0
0 2 0
0 2 0
0 2 0
0 2 0
1 2 0
1 2 0
1 2 0
1 2 0
1 2 0
1 2 0
1 2 0
1 2 0
1 1 0
2 0 0
2 0 0
2 0 0
2 0 0
2 0 0
2 0 0
2 0 0
2 0 0
2 0 0
2 0 0
2 0 0
2 0 0
2 0 0
2 0 0
2 0 0
2 0 0
2 0 1
2 0 2
2 0 2
2 0 2
2 0 2
2 0 2
2 0 2
2 0 2
2 0 2
2 0 2
2 0 2
2 0 2
1 1 2
0 0 1
0 0 0
0 0 0
1 4 5
5 6 9
6 8 13
0 6 5
0 2 1
0 3 2
0 6 5
5 6 9
1 4 10
0 1 6
0 12 19
23 41 52
55 79 91
83 113 128
97 124 139
93 121 136
79 113 127
77 107 124
77 115 131
77 116 134
77 116 134
77 117 137
78 115 139
78 117 140
78 117 140
78 117 140
77 117 139
77 117 137
77 116 137
77 116 137
77 116 137
77 116 137
78 116 135
80 115 137
82 115 132
89 120 137
99 127 141
81 106 120
39 51 61
0 1 10
0 0 0
0 2 3
3 4 6
1 2 0
1 2 0
0 2 0
0 2 2
0 2 4
0 1 6
0 2 4
0 2 4
0 2 3
0 2 2
0 2 1
0 2 1
0 2 1
0 2 1
0 2 1
0 2 1
0 2 1
0 2 1
0 2 1
0 2 1
0 2 1
0 2 1
0 2 1
0 2 1
0 1 1
0 0 2
0 0 2
0 0 2
0 0 2
0 0 2
0 0 2
0 0 2
0 0 2
0 0 2
0 0 2
0 0 2
0 0 2
0 0 2
0 0 2
0 0 2
0 0 2
1 0 1
2 0 0
2 0 0
2 0 0
2 0 0
2 0 0
2 0 0
2 0 0
2 0 0
2 0 0
2 0 0
2 0 0
2 0 0
2 0 0
2 0 0
2 0 0
1 0 1
0 0 2
0 0 2
0 0 2
0 0 2
0 0 2
0 0 2
0 0 2
0 0 2
0 0 0
0 0 0
0 0 0
0 0 0
0 0 0
0 0 0
0 0 0
0 0 0
0 0 0
0 0 0
0 0 0
0 0 0
0 0 0
0 0 0
0 0 0
0 0 0
0 0 0
0 0 0
0 0 0
0 0 0
0 0 0
0 0 0
0 0 0
0 0 0
0 0 0
0 0 0
0 0 0
0 0 0
0 0 0
0 0 0
0 0 0
0 0 0
0 0 0
0 0 0
0 0 0
0 0 0
0 0 0
0 0 0
0 0 0
0 0 0
0 0 0
0 0 0
0 0 0
0 0 0
0 0 0
0 0 0
0 0 0
0 0 0
0 0 0
0 0 0
0 0 0
0 0 0
0 0 0
0 0 0
0 0 0
0 0 0
0 0 0
0 0 0
0 0 0
0 0 0
0 0 0
0 0 0
0 0 0
0 0 0
0 0 0
0 0 0
0 0 0
0 0 0
0 0 0
0 0 0
0 0 0
0 0 0
0 0 0
0 0 0
0 0 0
0 0 0
0 0 0
0 0 0
0 0 0
0 0 0
0 0 0
0 0 0
0 0 0
0 0 0
0 0 0
0 0 0
0 0 0
0 0 0
0 0 0
0 0 0
0 0 0
0 0 0
0 1 0
0 2 0
0 2 0
1 3 2
0 3 5
0 0 3
0 1 6
4 17 26
31 43 53
55 79 91
81 106 120
93 121 136
86 121 140
80 115 137
80 115 137
80 115 137
78 115 137
78 116 137
77 117 137
77 117 137
77 117 137
77 117 137
77 117 137
77 117 137
77 117 137
77 117 137
77 117 137
77 117 137
77 117 137
77 117 137
77 117 137
77 117 137
77 117 137
77 117 137
77 117 137
77 117 137
77 117 137
77 117 137
77 117 137
77 117 137
77 117 137
77 117 137
77 117 137
77 117 137
77 117 137
77 117 137
77 117 137
77 117 137
77 117 137
77 117 137
77 117 137
77 117 137
77 117 137
77 117 137
77 117 137
77 117 137
77 117 137
77 117 137
76 116 136
76 116 136
76 116 136
76 116 136
76 116 136
76 116 136
76 116 136
76 116 136
77 117 137
77 117 137
77 117 137
77 117 137
77 117 137
77 117 137
77 117 137
77 117 137
77 116 137
77 115 136
77 115 136
77 115 136
77 115 136
77 115 136
77 115 136
77 115 136
78 116 138
80 117 140
78 115 137
75 113 134
75 113 134
75 113 134
78 115 137
82 116 140
82 116 140
82 116 140
82 116 140
82 116 140
80 115 137
82 117 137
82 117 137
83 118 136
85 116 133
82 113 130
90 113 128
93 116 131
93 116 131
81 101 115
55 79 91
31 43 53
12 20 29
0 12 19
0 12 19
0 8 14
1 4 10
1 2 3
0 0 0
1 4 5
5 6 9
5 6 9
0 1 6
0 0 3
0 0 4
0 0 4
0 0 4
0 0 4
0 0 4
0 0 4
0 1 5
0 1 5
0 1 5
0 1 5
0 1 5
0 1 5
0 1 4
1 1 3
2 0 1
2 0 0
2 0 0
2 0 0
2 0 0
2 0 0
2 0 0
2 0 0
2 0 0
2 0 0
2 0 0
2 0 0
2 0 0
2 0 0
2 0 0
0 0 12
14 29 40
62 77 90
96 123 138
91 117 133
84 109 126
85 116 133
89 120 137
83 118 136
82 117 137
80 115 137
80 117 140
78 117 140
78 117 140
75 117 141
75 117 139
75 116 138
76 115 138
76 115 138
76 114 136
76 114 136
76 113 137
76 113 137
76 113 137
76 113 137
77 114 138
77 114 138
77 114 138
77 114 138
77 114 138
77 114 138
77 114 138
77 114 138
77 116 137
77 117 137
77 117 137
77 117 137
77 117 137
77 117 137
77 117 137
77 117 137
77 117 137
77 117 137
77 117 137
77 117 137
77 117 137
77 117 137
76 116 136
76 116 136
82 120 140
87 124 142
86 121 140
75 113 134
70 105 125
71 110 131
78 115 137
80 117 140
82 120 140
82 118 141
78 115 137
71 110 131
71 110 131
77 111 130
79 114 134
79 113 132
79 113 132
83 113 135
89 118 136
85 113 132
71 97 112
55 79 91
31 51 61
14 29 40
0 4 16
0 0 12
0 4 16
2 10 15
0 6 13
0 4 12
0 4 9
0 4 9
0 3 5
0 3 2
0 2 1
0 2 1
0 2 0
0 2 0
0 2 0
0 2 0
0 2 0
0 2 0
1 2 0
1 2 0
1 2 0
1 2 0
1 2 0
1 2 0
1 2 0
1 2 0
1 1 0
2 0 0
2 0 0
2 0 0
2 0 0
2 0 0
2 0 0
2 0 0
2 0 0
2 0 0
2 0 0
2 0 0
2 0 0
2 0 0
2 0 0
2 0 0
2 0 0
2 0 1
2 0 2
2 0 2
2 0 2
2 0 2
2 0 2
2 0 2
2 0 2
2 0 2
2 0 2
2 0 2
2 0 2
1 0 3
1 1 3
1 1 2
1 1 3
3 4 6
6 8 13
6 12 17
5 6 9
0 4 5
0 6 5
0 4 5
0 1 3
0 4 9
4 17 26
23 41 52
55 79 91
81 106 120
91 117 133
85 116 133
83 113 128
77 111 130
77 111 130
78 117 135
78 118 139
78 118 139
76 117 138
75 116 139
76 115 140
78 117 140
78 117 140
77 117 139
77 117 137
78 116 137
78 116 137
79 115 135
79 115 135
79 115 132
82 115 132
82 115 132
89 120 137
99 127 141
81 106 120
39 51 61
0 1 10
0 0 0
0 2 3
3 4 6
1 2 0
1 2 0
0 2 0
0 2 2
0 2 4
0 1 6
0 2 4
0 2 4
0 2 3
0 2 2
0 2 1
0 2 1
0 2 1
0 2 1
0 2 1
0 2 1
0 2 1
0 2 1
0 2 1
0 2 1
0 2 1
0 2 1
0 2 1
0 2 1
0 1 1
0 0 2
0 0 2
0 0 2
0 0 2
0 0 2
0 0 2
0 0 2
0 0 2
0 0 2
0 0 2
0 0 2
0 0 2
0 0 2
0 0 2
0 0 2
0 0 2
1 0 1
2 0 0
2 0 0
2 0 0
2 0 0
2 0 0
2 0 0
2 0 0
2 0 0
2 0 0
2 0 0
2 0 0
2 0 0
2 0 0
2 0 0
2 0 0
1 0 1
0 0 2
0 0 2
0 0 2
0 0 2
0 0 2
0 0 2
0 0 2
0 0 2
0 0 0
0 0 0
0 0 0
0 0 0
0 0 0
0 0 0
0 0 0
0 0 0
0 0 0
0 0 0
0 0 0
0 0 0
0 0 0
0 0 0
0 0 0
0 0 0
0 0 0
0 0 0
0 0 0
0 0 0
0 0 0
0 0 0
0 0 0
0 0 0
0 0 0
0 0 0
0 0 0
0 0 0
0 0 0
0 0 0
0 0 0
0 0 0
0 0 0
0 0 0
0 0 0
0 0 0
0 0 0
0 0 0
0 0 0
0 0 0
0 0 0
0 0 0
0 0 0
0 0 0
0 0 0
0 0 0
0 0 0
0 0 0
0 0 0
0 0 0
0 0 0
0 0 0
0 0 0
0 0 0
0 0 0
0 0 0
0 0 0
0 0 0
0 0 0
0 0 0
0 0 0
0 0 0
0 0 0
0 0 0
0 0 0
0 0 0
0 0 0
0 0 0
0 0 0
0 0 0
0 0 0
0 0 0
0 0 0
0 0 0
0 0 0
0 0 0
0 0 0
0 0 0
0 0 0
0 0 0
0 0 0
0 0 0
0 0 0
0 0 0
0 0 0
0 0 0
0 0 0
0 0 0
0 0 0
0 0 0
0 0 0
0 0 0
0 1 0
0 2 0
0 2 0
1 3 2
0 3 5
0 0 3
0 1 6
4 17 26
31 43 53
55 79 91
81 106 120
93 121 136
89 120 137
82 115 136
80 115 137
80 115 137
78 115 137
78 116 137
77 117 137
77 117 137
77 117 137
77 117 137
77 117 137
77 117 137
77 117 137
77 117 137
77 117 137
77 117 137
77 117 137
77 117 137
77 117 137
77 117 137
77 117 137
77 117 137
77 117 137
77 117 137
77 117 137
77 117 137
77 117 137
77 117 137
77 117 137
77 117 137
77 117 137
77 117 137
77 117 137
77 117 137
77 117 137
77 117 137
77 117 137
77 117 137
77 117 137
77 117 137
77 117 137
77 117 137
77 117 137
77 117 137
77 117 137
77 117 137
76 116 136
76 116 136
76 116 136
76 116 136
76 116 136
76 116 136
76 116 136
76 116 136
77 117 137
77 117 137
77 117 137
77 117 137
77 117 137
77 117 137
77 117 137
77 117 137
77 116 137
77 115 136
77 115 136
77 115 136
77 115 136
77 115 136
77 115 136
77 115 136
76 114 136
75 113 134
75 113 134
75 113 134
77 115 136
78 118 139
80 117 140
82 116 140
80 115 137
80 115 137
82 116 140
82 116 140
80 117 140
80 117 140
82 117 137
82 117 137
82 115 132
82 113 130
85 113 132
90 116 132
95 118 134
93 116 131
81 106 120
62 77 90
31 51 61
14 29 40
4 17 26
2 10 15
0 4 9
0 1 5
1 4 5
5 6 9
6 8 13
5 6 9
0 1 6
0 0 3
0 0 4
0 0 4
0 0 4
0 0 4
0 0 4
0 0 4
0 1 5
0 1 5
0 1 5
0 1 5
0 1 5
0 1 5
0 1 4
1 1 3
2 0 1
2 0 0
2 0 0
2 0 0
2 0 0
2 0 0
2 0 0
2 0 0
2 0 0
2 0 0
2 0 0
2 0 0
2 0 0
2 0 0
2 0 0
0 0 12
14 29 40
62 77 90
96 123 138
91 117 133
84 109 126
85 116 133
89 120 137
83 118 136
82 117 137
78 116 138
78 118 139
78 118 139
75 118 142
75 117 141
75 117 139
75 116 138
76 115 138
75 116 138
76 114 136
76 114 136
76 113 137
76 113 137
76 113 137
76 113 137
77 114 138
77 114 138
77 114 138
77 114 138
77 114 138
77 114 138
77 114 138
77 114 138
77 116 137
77 117 137
77 117 137
77 117 137
77 117 137
77 117 137
77 117 137
77 117 137
77 117 137
77 117 137
77 117 137
77 117 137
77 117 137
77 117 137
77 117 137
77 117 137
80 117 140
82 120 140
80 117 140
71 110 131
71 110 131
75 113 134
80 117 140
82 120 140
82 120 140
78 117 140
75 113 134
71 110 131
71 110 131
79 114 134
86 121 140
87 124 142
86 121 140
89 118 136
84 109 126
71 97 112
55 79 91
31 51 61
12 20 29
0 4 16
0 1 13
0 4 16
0 4 12
1 6 12
2 4 11
2 4 11
1 1 8
1 4 5
0 2 2
0 2 1
0 2 0
0 2 0
0 2 0
0 2 0
0 2 0
0 2 0
0 2 0
0 2 0
1 2 0
1 2 0
1 2 0
1 2 0
1 2 0
1 2 0
1 2 0
1 2 0
1 1 0
2 0 0
2 0 0
2 0 0
2 0 0
2 0 0
2 0 0
2 0 0
2 0 0
2 0 0
2 0 0
2 0 0
2 0 0
2 0 0
2 0 0
2 0 0
2 0 0
2 0 1
2 0 2
2 0 2
2 0 2
2 0 2
2 0 2
2 0 2
2 0 2
2 0 2
2 0 2
2 0 2
3 0 3
4 1 5
3 1 6
3 4 6
3 4 6
3 4 6
6 8 13
2 10 15
0 8 14
0 8 14
2 10 15
1 6 12
0 0 5
0 12 19
31 51 61
68 87 100
81 106 120
83 113 128
83 113 128
77 107 124
70 105 125
70 105 125
71 110 131
75 116 136
75 117 141
75 117 141
75 117 141
75 117 141
75 117 141
75 117 141
77 117 139
77 116 137
78 116 137
80 115 137
80 115 137
82 115 136
82 115 132
82 113 130
82 115 132
82 115 132
89 120 137
99 127 141
81 106 120
39 51 61
0 1 10
0 0 0
0 2 3
3 4 6
1 2 0
1 2 0
0 2 0
0 2 2
0 2 4
0 1 6
0 2 4
0 2 4
0 2 3
0 2 2
0 2 1
0 2 1
0 2 1
0 2 1
0 2 1
0 2 1
0 2 1
0 2 1
0 2 1
0 2 1
0 2 1
0 2 1
0 2 1
0 2 1
0 1 1
0 0 2
0 0 2
0 0 2
0 0 2
0 0 2
0 0 2
0 0 2
0 0 2
0 0 2
0 0 2
0 0 2
0 0 2
0 0 2
0 0 2
0 0 2
0 0 2
1 0 1
2 0 0
2 0 0
2 0 0
2 0 0
2 0 0
2 0 0
2 0 0
2 0 0
2 0 0
2 0 0
2 0 0
2 0 0
2 0 0
2 0 0
2 0 0
1 0 1
0 0 2
0 0 2
0 0 2
0 0 2
0 0 2
0 0 2
0 0 2
0 0 2
0 0 0
0 0 0
0 0 0
0 0 0
0 0 0
0 0 0
0 0 0
0 0 0
0 0 0
0 0 0
0 0 0
0 0 0
0 0 0
0 0 0
0 0 0
0 0 0
0 0 0
0 0 0
0 0 0
0 0 0
0 0 0
0 0 0
0 0 0
0 0 0
0 0 0
0 0 0
0 0 0
0 0 0
0 0 0
0 0 0
0 0 0
0 0 0
0 0 0
0 0 0
0 0 0
0 0 0
0 0 0
0 0 0
0 0 0
0 0 0
0 0 0
0 0 0
0 0 0
0 0 0
0 0 0
0 0 0
0 0 0
0 0 0
0 0 0
0 0 0
0 0 0
0 0 0
0 0 0
0 0 0
0 0 0
0 0 0
0 0 0
0 0 0
0 0 0
0 0 0
0 0 0
0 0 0
0 0 0
0 0 0
0 0 0
0 0 0
0 0 0
0 0 0
0 0 0
0 0 0
0 0 0
0 0 0
0 0 0
0 0 0
0 0 0
0 0 0
0 0 0
0 0 0
0 0 0
0 0 0
0 0 0
0 0 0
0 0 0
0 0 0
0 0 0
0 0 0
0 0 0
0 0 0
0 0 0
0 0 0
0 0 0
0 0 0
0 1 0
0 2 0
0 2 0
1 3 2
1 4 5
0 0 2
0 1 6
4 17 26
31 43 53
55 79 91
81 106 120
93 121 136
89 120 137
82 115 136
80 115 137
80 115 137
78 115 137
78 116 137
77 117 137
77 117 137
77 117 137
77 117 137
77 117 137
77 117 137
77 117 137
77 117 137
77 117 137
77 117 137
77 117 137
77 117 137
77 117 137
77 117 137
77 117 137
77 117 137
77 117 137
77 117 137
77 117 137
77 117 137
77 117 137
77 117 137
77 117 137
77 117 137
77 117 137
77 117 137
77 117 137
77 117 137
77 117 137
77 117 137
77 117 137
77 117 137
77 117 137
77 117 137
77 117 137
77 117 137
77 117 137
77 117 137
77 117 137
77 117 137
76 116 136
76 116 136
76 116 136
76 116 136
76 116 136
76 116 136
76 116 136
76 116 136
77 117 137
77 117 137
77 117 137
77 117 137
77 117 137
77 117 137
77 117 137
77 117 137
77 116 137
77 115 136
77 115 136
77 115 136
77 115 136
77 115 136
77 115 136
76 114 136
76 114 136
75 113 134
76 114 136
77 115 136
78 116 138
80 117 140
80 117 140
78 116 137
78 116 137
80 115 137
80 115 137
82 116 140
82 116 140
82 117 137
82 117 137
83 118 136
82 117 137
82 115 132
85 116 133
90 116 132
90 116 132
90 113 128
90 113 128
88 109 125
79 97 109
53 72 83
24 35 46
4 17 26
0 1 10
0 4 12
6 12 17
6 12 17
2 4 11
0 1 6
0 0 4
0 0 4
0 0 4
0 0 4
0 0 4
0 0 4
0 0 4
0 0 4
0 1 5
0 1 5
0 1 5
0 1 5
0 1 5
0 1 5
0 1 4
1 1 3
2 0 1
2 0 0
2 0 0
2 0 0
2 0 0
2 0 0
2 0 0
2 0 0
2 0 0
2 0 0
2 0 0
2 0 0
2 0 0
2 0 0
2 0 0
0 0 12
14 29 40
62 77 90
96 123 138
91 117 133
84 109 126
85 116 133
89 120 137
83 118 136
82 117 137
78 116 138
78 118 139
78 118 139
75 118 142
75 117 141
75 117 139
75 116 138
76 115 138
75 116 138
76 114 136
76 114 136
76 113 137
76 113 137
76 113 137
76 113 137
77 114 138
77 114 138
77 114 138
77 114 138
77 114 138
77 114 138
77 114 138
77 114 138
77 116 137
77 117 137
77 117 137
77 117 137
77 117 137
77 117 137
77 117 137
77 117 137
77 117 137
77 117 137
77 117 137
77 117 137
77 117 137
77 117 137
77 117 137
77 117 137
78 116 138
78 115 139
76 114 136
71 110 131
71 110 131
78 115 137
82 120 140
87 124 142
82 120 140
77 115 137
71 110 131
71 110 131
76 113 132
82 117 137
87 124 142
99 127 141
97 124 139
85 116 133
71 97 112
55 79 91
31 51 61
14 29 40
0 4 16
0 1 10
0 4 16
2 10 15
0 4 12
1 4 10
2 4 11
1 1 8
1 4 5
1 3 2
0 2 0
0 2 1
0 2 0
0 2 0
0 2 0
0 2 0
0 2 0
0 2 0
0 2 0
0 2 0
1 2 0
1 2 0
1 2 0
1 2 0
1 2 0
1 2 0
1 2 0
1 2 0
1 1 0
2 0 0
2 0 0
2 0 0
2 0 0
2 0 0
2 0 0
2 0 0
2 0 0
2 0 0
2 0 0
2 0 0
2 0 0
2 0 0
2 0 0
2 0 0
2 0 0
2 0 1
2 0 2
2 0 2
2 0 2
2 0 2
2 0 2
2 0 2
2 0 1
2 0 2
2 0 2
2 0 2
3 0 3
4 1 5
3 1 6
3 4 6
3 4 6
3 4 6
1 4 5
0 4 9
0 8 14
0 8 14
0 8 14
0 8 14
12 20 29
23 41 52
68 87 100
90 113 128
91 117 133
77 107 124
70 105 125
70 105 125
70 105 125
77 111 130
76 114 136
76 114 136
74 115 139
73 117 141
73 117 141
73 117 141
73 117 141
73 117 138
76 117 138
77 116 137
78 116 137
79 115 135
79 115 135
82 115 132
82 115 132
82 113 130
82 115 132
82 115 132
89 120 137
99 127 141
81 106 120
39 51 61
0 1 10
0 0 0
0 2 3
3 4 6
1 2 0
1 2 0
0 2 0
0 2 2
0 2 4
0 1 6
0 2 4
0 2 4
0 2 3
0 2 2
0 2 1
0 2 1
0 2 1
0 2 1
0 2 1
0 2 1
0 2 1
0 2 1
0 2 1
0 2 1
0 2 1
0 2 1
0 2 1
0 2 1
0 1 1
0 0 2
0 0 2
0 0 2
0 0 2
0 0 2
0 0 2
0 0 2
0 0 2
0 0 2
0 0 2
0 0 2
0 0 2
0 0 2
0 0 2
0 0 2
0 0 2
1 0 1
2 0 0
2 0 0
2 0 0
2 0 0
2 0 0
2 0 0
2 0 0
2 0 0
2 0 0
2 0 0
2 0 0
2 0 0
2 0 0
2 0 0
2 0 0
1 0 1
1 1 2
1 1 2
1 1 2
1 1 2
1 1 2
1 1 2
1 1 2
1 1 2
1 0 1
1 0 1
1 0 1
1 0 1
1 0 1
1 0 1
1 0 0
1 0 0
0 0 0
0 0 0
0 0 0
0 0 0
0 0 0
0 0 0
0 0 0
0 0 0
0 0 0
0 0 0
0 0 0
0 0 0
0 0 0
0 0 0
0 0 0
0 0 0
0 0 0
0 0 0
0 0 0
0 0 0
0 0 0
0 0 0
0 0 0
0 0 0
0 0 0
0 0 0
0 0 0
0 0 0
0 0 0
0 0 0
0 0 0
0 0 0
0 0 0
0 0 0
0 0 0
0 0 0
0 0 0
0 0 0
0 0 0
0 0 0
0 0 0
0 0 0
0 0 0
0 0 0
0 0 0
0 0 0
0 0 0
0 0 0
0 0 0
0 0 0
0 0 0
0 0 0
0 0 0
0 0 0
0 0 0
0 0 0
0 0 0
0 0 0
0 0 0
0 0 0
0 0 0
0 0 0
0 0 0
0 0 0
0 0 0
0 0 0
0 0 0
0 0 0
0 0 0
0 0 0
0 0 0
0 0 0
0 0 0
0 0 0
0 0 0
0 0 0
0 0 0
0 0 0
0 0 0
0 0 0
0 0 0
0 0 0
0 0 0
0 0 0
0 1 0
0 2 0
0 2 0
1 3 2
1 4 5
0 0 2
0 1 6
4 17 26
31 43 53
55 79 91
81 106 120
93 121 136
89 120 137
82 115 136
80 115 137
80 115 137
78 115 137
78 116 137
77 117 137
77 117 137
77 117 137
77 117 137
77 117 137
77 117 137
77 117 137
77 117 137
77 117 137
77 117 137
77 117 137
77 117 137
77 117 137
77 117 137
77 117 137
77 117 137
77 117 137
77 117 137
77 117 137
77 117 137
77 117 137
77 117 137
77 117 137
77 117 137
77 117 137
77 117 137
77 117 137
77 117 137
77 117 137
77 117 137
77 117 137
77 117 137
77 117 137
77 117 137
77 117 137
77 117 137
77 117 137
77 117 137
77 117 137
77 117 137
76 116 136
76 116 136
76 116 136
76 116 136
76 116 136
76 116 136
76 116 136
76 116 136
77 117 137
77 117 137
77 117 137
77 117 137
77 117 137
77 117 137
77 117 137
77 117 137
77 116 137
77 115 136
77 115 136
77 115 136
77 115 136
77 115 136
77 115 136
76 114 136
76 114 136
77 115 136
78 116 137
78 116 138
78 116 138
80 115 137
78 115 139
78 116 137
78 116 137
80 115 137
80 115 137
82 116 140
82 117 137
82 117 137
82 117 137
83 118 136
82 117 137
83 118 136
83 118 136
82 115 132
81 110 128
84 109 126
90 113 128
97 124 139
97 121 136
81 101 115
47 64 75
24 35 46
4 17 26
0 6 13
1 6 12
2 6 12
0 1 6
0 0 5
0 0 4
0 0 4
0 0 4
0 0 4
0 0 4
0 0 4
0 0 4
0 0 4
0 1 5
0 1 5
0 1 5
0 1 5
0 1 5
0 1 5
0 1 4
1 1 3
2 0 1
2 0 0
2 0 0
2 0 0
2 0 0
2 0 0
2 0 0
2 0 0
2 0 0
2 0 0
2 0 0
2 0 0
2 0 0
2 0 0
2 0 0
0 0 12
14 29 40
62 77 90
96 123 138
91 117 133
84 109 126
85 116 133
89 120 137
83 118 136
78 116 137
78 116 138
78 118 139
78 118 139
75 118 142
75 117 141
75 117 139
75 116 138
76 115 138
75 116 138
76 114 136
76 114 136
76 113 137
76 113 137
76 113 137
76 113 137
77 114 138
77 114 138
77 114 138
77 114 138
77 114 138
77 114 138
77 114 138
77 114 138
78 115 137
78 116 137
78 116 135
78 116 135
78 116 135
78 116 135
77 117 135
77 117 137
77 117 137
77 117 137
76 117 138
76 117 138
76 117 138
76 117 138
76 117 138
77 116 139
78 116 138
78 115 137
76 112 136
71 110 131
75 113 134
80 117 140
86 121 140
87 124 142
82 117 137
75 113 134
71 110 131
77 111 130
79 115 135
83 118 136
86 122 140
89 120 137
82 113 130
71 97 112
55 79 91
31 51 61
12 20 29
0 4 16
0 4 16
0 4 16
0 6 13
0 6 13
0 4 9
0 4 9
2 1 7
2 1 3
1 1 2
1 2 1
1 2 0
1 2 0
1 2 0
1 2 0
1 2 0
1 2 0
0 2 0
0 2 0
0 2 0
0 2 0
1 2 0
1 2 0
1 2 0
1 2 0
1 2 0
1 2 0
1 2 0
1 2 0
1 1 0
2 0 0
2 0 0
2 0 0
2 0 0
2 0 0
2 0 0
2 0 0
2 0 0
2 0 0
2 0 0
2 0 0
2 0 0
1 0 0
0 0 0
0 0 0
0 0 0
1 0 0
2 0 0
2 0 1
2 0 1
2 0 1
2 0 0
2 0 0
2 0 0
2 0 1
2 0 2
2 0 2
3 0 2
2 1 3
1 1 5
0 1 6
1 4 5
0 2 4
0 2 2
1 4 5
2 10 15
2 10 15
0 4 9
4 17 26
39 51 61
70 92 106
88 109 125
90 113 128
83 113 128
77 107 124
70 105 125
70 105 125
82 117 137
87 124 142
82 120 140
75 117 141
73 116 139
73 116 139
73 116 139
73 116 139
73 116 139
73 116 139
75 116 138
77 116 137
79 115 135
79 115 135
79 115 132
82 115 132
82 115 132
82 113 130
82 115 132
82 115 132
89 120 137
99 127 141
81 106 120
39 51 61
0 1 10
0 0 0
0 2 3
1 4 5
0 2 0
0 2 0
0 2 0
0 2 2
0 2 4
0 1 6
0 2 4
0 2 4
0 2 3
0 2 2
0 2 1
0 2 1
0 2 1
0 2 1
0 2 1
0 2 1
0 2 1
0 2 1
0 2 1
0 2 1
0 2 1
0 2 1
0 2 1
0 2 1
0 1 1
0 0 2
0 0 2
0 0 2
0 0 2
0 0 2
0 0 2
0 0 2
0 0 2
0 0 2
0 0 2
0 0 2
0 0 2
0 0 2
0 0 2
0 0 2
0 0 2
1 0 1
2 0 0
2 0 0
2 0 0
2 0 0
2 0 0
2 0 0
2 0 0
2 0 0
2 0 0
2 0 0
2 0 0
2 0 0
2 0 0
2 0 0
2 0 0
2 0 1
2 1 3
2 1 3
2 1 3
2 1 3
2 1 3
2 1 3
2 1 3
2 1 3
2 0 2
2 0 2
2 0 2
2 0 2
2 0 2
2 0 2
2 0 2
2 0 1
2 0 0
2 0 0
2 0 0
2 0 0
2 0 0
2 0 0
2 0 0
2 0 0
2 0 0
2 0 0
2 0 0
2 0 0
2 0 0
2 0 0
2 0 0
2 0 0
2 0 0
2 0 0
2 0 0
2 0 0
2 0 0
2 0 0
2 0 0
2 0 0
2 0 0
2 0 0
2 0 0
2 0 0
2 0 0
2 0 0
2 0 0
2 0 0
2 0 0
2 0 0
2 0 0
2 0 0
2 0 0
2 0 0
2 0 0
2 0 0
2 0 0
2 0 0
2 0 0
2 0 0
2 0 0
2 0 0
2 0 0
2 0 0
2 0 0
2 0 0
2 0 0
2 0 0
2 0 0
2 0 0
2 0 0
2 0 0
2 0 0
2 0 0
2 0 0
2 0 0
2 0 0
2 0 0
2 0 0
2 0 0
2 0 0
2 0 0
2 0 0
2 0 0
2 0 0
2 0 0
2 0 0
2 0 0
2 0 0
2 0 0
2 0 0
2 0 0
2 0 0
2 0 0
2 0 0
2 0 0
2 0 0
1 0 0
0 0 0
0 1 0
0 2 0
0 3 0
0 3 2
1 4 1
1 4 5
0 0 3
0 1 6
4 17 26
31 43 53
55 79 91
81 106 120
93 121 136
89 120 137
82 115 136
82 115 136
79 115 135
78 116 135
78 116 137
78 116 137
78 116 137
77 116 138
77 116 139
77 116 139
77 116 139
77 116 139
77 116 139
77 116 138
77 116 138
77 116 138
77 116 138
77 116 138
77 116 138
77 116 138
77 116 138
77 116 138
77 116 138
77 116 138
77 116 138
77 116 138
77 116 138
77 116 138
77 116 138
77 116 138
77 116 138
77 116 139
77 116 139
77 116 139
77 116 139
77 116 139
77 117 139
77 117 137
77 117 137
77 117 137
77 117 137
77 117 137
77 117 137
77 117 137
77 117 137
76 116 136
76 116 136
76 116 136
76 116 136
76 116 136
76 116 136
76 116 136
76 116 136
77 117 137
77 117 137
77 117 137
77 117 137
77 117 137
77 117 137
77 117 137
77 117 137
77 116 137
77 115 136
77 115 136
77 115 136
77 115 136
77 115 136
77 115 136
77 115 136
77 115 136
78 115 137
78 116 138
80 117 140
78 116 138
78 115 137
77 115 137
77 117 137
80 117 140
80 115 137
80 115 137
80 115 137
80 115 137
82 117 137
82 117 137
82 115 136
82 117 137
86 122 140
86 122 140
82 115 132
79 113 127
77 107 124
85 116 133
97 124 139
99 127 141
97 121 136
81 101 115
53 72 83
24 35 46
6 12 17
0 0 5
0 0 3
2 1 7
2 4 11
0 0 7
0 0 5
0 0 5
0 0 5
0 1 4
0 1 4
0 0 4
0 0 4
0 1 4
0 2 3
1 2 3
1 1 3
1 1 5
1 1 5
1 1 3
1 1 1
2 0 0
2 0 0
2 0 0
2 0 0
2 0 0
2 0 0
2 0 0
2 0 0
2 0 0
2 0 0
2 0 0
2 0 0
2 0 0
2 0 0
2 0 0
0 0 12
14 29 40
62 77 90
96 123 138
91 117 133
84 109 126
85 116 133
89 120 137
83 118 136
78 116 137
78 116 138
78 118 139
78 118 139
75 118 142
75 117 141
75 117 139
75 116 138
76 115 138
75 116 138
76 114 136
76 114 136
76 113 137
76 113 137
76 113 137
76 113 137
77 114 138
77 114 138
77 114 138
77 114 138
77 114 138
77 114 138
77 114 138
77 114 138
78 115 137
78 116 137
78 116 135
78 116 135
78 116 135
78 116 135
77 117 135
77 117 137
77 117 137
77 117 137
76 117 138
75 117 139
75 117 139
75 117 139
75 117 139
77 116 139
77 116 140
77 116 140
76 114 136
75 113 134
75 113 134
80 117 140
82 118 141
82 118 141
79 114 134
77 111 130
77 111 130
79 115 132
82 120 140
86 122 140
86 121 140
77 111 130
71 97 112
55 79 91
31 51 61
14 29 40
0 4 16
0 0 12
0 12 19
0 12 19
0 6 13
0 4 12
0 4 9
1 1 8
2 1 3
2 2 2
1 1 2
1 1 1
1 2 0
1 2 0
1 2 0
1 2 0
1 2 0
1 2 0
0 2 0
0 2 0
0 2 0
0 2 0
1 2 0
1 2 0
1 2 0
1 2 0
1 2 0
1 2 0
1 2 0
1 2 0
1 1 0
2 0 0
2 0 0
2 0 0
2 0 0
2 0 0
2 0 0
2 0 0
2 0 0
2 0 0
2 0 0
2 0 0
2 0 0
1 0 0
0 0 0
0 0 0
0 0 0
1 0 0
2 0 0
2 0 0
2 0 0
2 0 0
2 0 0
2 0 0
2 0 0
2 0 1
2 0 2
2 0 2
1 1 2
0 0 3
0 0 4
0 0 5
0 0 4
0 0 1
0 0 0
0 0 2
0 6 13
0 12 19
4 17 26
23 41 52
68 87 100
90 113 128
91 117 133
81 106 120
77 107 124
70 105 125
70 105 125
76 113 132
87 124 142
87 124 142
87 124 142
77 116 142
73 116 139
73 116 139
73 116 139
73 116 139
73 116 139
73 116 139
75 116 138
77 116 137
79 115 135
79 115 135
79 115 132
82 115 132
82 115 132
82 113 130
82 115 132
82 115 132
89 120 137
99 127 141
81 106 120
39 51 61
0 1 10
0 0 0
0 2 3
1 4 5
0 2 0
0 2 0
0 2 0
0 2 2
0 2 4
0 1 6
0 2 4
0 2 4
0 2 3
0 2 2
0 2 1
0 2 1
0 2 1
0 2 1
0 2 1
0 2 1
0 2 1
0 2 1
0 2 1
0 2 1
0 2 1
0 2 1
0 2 1
0 2 1
0 1 1
0 0 2
0 0 2
0 0 2
0 0 2
0 0 2
0 0 2
0 0 2
0 0 2
0 0 2
0 0 2
0 0 2
0 0 2
0 0 2
0 0 2
0 0 2
0 0 2
1 0 1
2 0 0
2 0 0
2 0 0
2 0 0
2 0 0
2 0 0
2 0 0
2 0 0
2 0 0
2 0 0
2 0 0
2 0 0
2 0 0
2 0 0
2 0 0
2 0 1
3 0 3
3 0 3
3 0 3
3 0 3
3 0 3
3 0 3
3 0 3
3 0 3
3 0 3
3 0 3
3 0 3
3 0 3
3 0 3
3 0 3
3 0 2
3 0 1
2 0 0
2 0 0
2 0 0
2 0 0
2 0 0
2 0 0
2 0 0
2 0 0
2 0 0
2 0 0
2 0 0
2 0 0
2 0 0
2 0 0
2 0 0
2 0 0
2 0 0
2 0 0
2 0 0
2 0 0
2 0 0
2 0 0
2 0 0
2 0 0
2 0 0
2 0 0
2 0 0
2 0 0
2 0 0
2 0 0
2 0 0
2 0 0
2 0 0
2 0 0
2 0 0
2 0 0
2 0 0
2 0 0
2 0 0
2 0 0
2 0 0
2 0 0
2 0 0
2 0 0
2 0 0
2 0 0
2 0 0
2 0 0
2 0 0
2 0 0
2 0 0
2 0 0
2 0 0
2 0 0
2 0 0
2 0 0
2 0 0
2 0 0
2 0 0
2 0 0
2 0 0
2 0 0
2 0 0
2 0 0
2 0 0
2 0 0
2 0 0
2 0 0
2 0 0
2 0 0
2 0 0
2 0 0
2 0 0
2 0 0
2 0 0
2 0 0
2 0 0
2 0 0
2 0 0
2 0 0
2 0 0
1 0 0
0 0 0
0 1 0
0 2 0
0 3 0
0 3 2
1 4 5
1 4 5
0 0 3
0 1 6
4 17 26
31 43 53
55 79 91
81 106 120
93 121 136
89 120 137
82 115 136
82 115 136
79 115 135
78 116 135
78 116 137
78 116 137
78 116 137
77 116 138
77 116 139
77 116 139
77 116 139
77 116 139
77 116 139
77 116 139
77 116 139
77 116 139
77 116 139
77 116 139
77 116 139
77 116 139
77 116 139
77 116 139
77 116 139
77 116 139
77 116 139
77 116 139
77 116 139
77 116 139
77 116 139
77 116 139
77 116 139
77 116 139
77 116 139
77 116 139
77 116 139
77 116 139
77 117 139
77 117 137
77 117 137
77 117 137
77 117 137
77 117 137
77 117 137
77 117 137
77 117 137
76 116 136
76 116 136
76 116 136
76 116 136
76 116 136
76 116 136
76 116 136
76 116 136
77 117 137
77 117 137
77 117 137
77 117 137
77 117 137
77 117 137
77 117 137
77 117 137
77 116 137
77 115 136
77 115 136
77 115 136
77 115 136
77 115 136
77 115 136
77 115 136
77 115 136
78 116 137
78 116 138
80 117 140
78 116 138
77 115 136
77 115 137
80 117 140
82 116 140
82 116 140
80 115 137
80 115 137
80 115 137
82 117 137
82 117 137
80 115 137
82 117 137
86 122 140
86 122 140
78 117 135
77 111 130
77 107 124
83 113 128
91 117 133
96 123 138
97 121 136
90 113 128
79 97 109
47 64 75
24 35 46
6 12 17
2 1 7
0 0 6
0 0 9
0 0 7
1 1 8
0 0 7
0 0 6
0 1 4
0 0 4
0 0 3
0 0 4
0 1 3
0 2 3
1 2 3
1 1 3
1 1 3
1 1 2
1 1 2
1 1 1
2 0 0
2 0 0
2 0 0
2 0 0
2 0 0
2 0 0
2 0 0
2 0 0
2 0 0
2 0 0
2 0 0
2 0 0
2 0 0
2 0 0
2 0 0
0 0 12
14 29 40
62 77 90
96 123 138
91 117 133
84 109 126
85 116 133
89 120 137
83 118 136
78 116 137
78 116 138
78 118 139
78 118 139
75 118 142
75 117 141
75 117 139
75 116 138
76 115 138
75 116 138
76 114 136
76 114 136
76 113 137
76 113 137
76 113 137
76 113 137
77 114 138
77 114 138
77 114 138
77 114 138
77 114 138
77 114 138
77 114 138
78 115 137
79 115 135
79 115 135
79 115 135
79 115 135
79 115 135
79 115 135
78 116 135
77 116 137
78 116 138
77 116 138
75 116 139
75 117 141
75 117 141
75 117 141
75 117 141
75 117 141
78 117 140
78 117 140
78 117 140
75 113 134
75 113 134
78 116 137
82 117 137
79 114 134
77 111 130
77 107 124
77 111 130
83 118 136
86 122 140
87 124 142
82 115 132
71 97 112
53 72 83
23 41 52
12 20 29
0 4 16
0 1 13
0 4 16
0 4 16
0 8 14
0 4 12
0 2 9
1 1 8
0 1 6
1 1 5
1 1 2
3 0 1
3 0 1
3 1 0
3 1 0
2 1 0
1 2 0
1 2 0
1 2 0
0 2 0
0 2 0
0 2 0
0 2 0
1 2 0
1 2 0
1 2 0
1 2 0
1 2 0
1 2 0
1 2 0
1 2 0
1 1 0
2 0 0
2 0 0
2 0 0
2 0 0
2 0 0
2 0 0
2 0 0
2 0 0
2 0 0
2 0 0
2 0 0
2 0 0
1 0 0
0 0 0
0 0 0
0 0 0
0 0 0
0 0 0
1 0 0
1 0 0
2 0 0
3 0 0
2 0 1
3 0 2
3 0 3
2 1 3
1 1 2
0 0 2
0 0 3
0 0 5
0 0 6
0 0 6
0 0 4
0 0 6
0 0 6
0 8 14
12 20 29
31 51 61
55 79 91
71 97 112
84 109 126
83 113 128
79 113 127
77 107 124
79 113 127
78 115 132
82 117 137
87 124 142
87 124 142
87 124 142
77 116 142
73 117 141
73 117 141
73 117 141
73 116 139
71 117 138
73 116 139
75 116 138
77 116 137
78 116 137
80 115 137
79 115 132
82 115 132
82 115 132
82 113 130
82 115 132
82 115 132
89 120 137
97 124 139
81 101 115
39 51 61
0 2 9
0 0 0
0 2 3
1 4 5
0 2 0
0 2 0
0 3 0
0 3 2
0 3 5
0 3 5
0 3 5
0 3 5
0 2 3
0 2 2
0 2 1
0 2 1
0 2 1
0 2 1
0 2 1
0 2 1
0 2 1
0 2 1
0 2 1
0 2 1
0 2 1
0 2 1
0 2 1
0 2 1
0 1 1
0 0 2
0 0 2
0 0 2
0 0 2
0 0 2
0 0 2
0 0 2
0 0 2
0 0 2
0 0 2
0 0 2
0 0 2
0 0 2
0 0 2
0 0 2
0 0 2
1 0 1
2 0 0
2 0 0
2 0 0
2 0 0
2 0 0
2 0 0
2 0 0
2 0 0
2 0 0
2 0 0
2 0 0
2 0 0
2 0 0
2 0 0
2 0 0
2 0 1
3 0 3
3 0 3
3 0 3
3 0 3
3 0 3
3 0 3
3 0 3
3 0 3
3 0 3
3 0 3
3 0 3
3 0 3
3 0 3
3 0 3
3 0 2
3 0 1
2 0 0
2 0 0
2 0 0
2 0 0
2 0 0
2 0 0
2 0 0
2 0 0
2 0 0
2 0 0
2 0 0
2 0 0
2 0 0
2 0 0
2 0 0
2 0 0
2 0 0
2 0 0
2 0 0
2 0 0
2 0 0
2 0 0
2 0 0
2 0 0
2 0 0
2 0 0
2 0 0
2 0 0
2 0 0
2 0 0
2 0 0
2 0 0
2 0 0
2 0 0
2 0 0
2 0 0
2 0 0
2 0 0
2 0 0
2 0 0
2 0 0
2 0 0
2 0 0
2 0 0
2 0 0
2 0 0
2 0 0
2 0 0
2 0 0
2 0 0
2 0 0
2 0 0
2 0 0
2 0 0
2 0 0
2 0 0
2 0 0
2 0 0
2 0 0
2 0 0
2 0 0
2 0 0
2 0 0
2 0 0
2 0 0
2 0 0
2 0 0
2 0 0
2 0 0
2 0 0
2 0 0
2 0 0
2 0 0
2 0 0
2 0 0
2 0 0
2 0 0
2 0 0
2 0 0
2 0 0
2 0 0
1 0 0
0 0 0
0 1 0
0 2 0
0 3 0
0 3 2
1 4 5
0 4 5
0 0 3
0 3 5
4 17 26
31 43 53
55 79 91
81 106 120
93 121 136
89 120 137
82 115 132
82 115 136
79 115 135
80 115 137
80 115 137
78 116 137
78 116 137
77 116 138
77 116 139
77 116 139
77 116 139
77 116 139
77 116 139
77 116 140
77 116 140
77 116 140
77 116 140
77 116 140
77 116 140
77 116 140
77 116 140
77 116 140
77 116 140
77 116 140
77 116 140
77 116 140
77 116 140
77 116 140
77 116 140
77 116 140
77 116 140
77 116 139
77 116 139
77 116 139
77 116 139
77 116 139
77 116 139
77 116 138
77 117 139
77 117 137
77 117 137
77 117 137
77 117 137
77 117 137
77 117 137
76 116 136
76 116 136
76 116 136
76 116 136
76 116 136
76 116 136
76 116 136
76 116 136
77 117 137
77 117 137
77 117 137
77 117 137
77 117 137
77 117 137
77 117 137
77 117 137
77 116 137
77 115 136
77 115 136
77 115 136
77 115 136
77 115 136
77 115 136
78 116 137
78 116 137
78 116 137
78 116 138
78 116 137
77 115 136
77 116 137
78 116 138
82 118 141
82 118 141
80 117 140
80 115 137
80 115 137
80 115 137
82 117 137
82 117 137
82 117 137
82 117 137
82 120 140
82 120 140
78 117 135
77 115 131
77 111 130
79 113 127
83 113 128
85 113 132
90 113 128
81 106 120
81 101 115
70 92 106
53 72 83
31 43 53
12 20 29
0 1 10
0 0 6
1 1 8
2 4 11
0 2 9
0 0 7
0 0 5
0 0 4
0 0 2
0 0 3
0 1 3
0 2 3
1 1 3
1 1 3
1 1 2
1 1 1
1 1 1
1 1 1
2 0 1
2 0 0
2 0 0
2 0 0
2 0 0
2 0 0
2 0 0
2 0 0
2 0 0
2 0 0
2 0 0
2 0 0
2 0 0
2 0 0
2 0 0
0 0 12
14 29 40
62 77 90
97 121 136
91 117 133
84 109 126
85 116 133
89 120 137
83 118 136
78 116 137
78 116 138
78 118 139
78 118 139
75 118 142
75 117 141
75 117 139
75 116 138
76 115 138
75 116 138
76 114 136
76 114 136
76 113 137
76 113 137
76 113 137
76 113 137
77 114 138
77 114 138
77 114 138
77 114 138
77 114 138
77 114 138
78 115 137
79 114 136
79 115 135
79 115 135
79 115 135
79 115 135
79 115 135
79 115 135
79 115 135
78 116 137
78 116 138
77 116 139
76 115 140
75 117 141
75 117 141
75 117 141
75 117 141
75 117 141
77 116 142
82 118 141
82 120 140
78 118 139
80 117 140
82 120 140
82 117 137
79 113 132
77 111 130
77 107 124
85 113 132
89 120 137
96 123 138
82 115 132
71 97 112
53 72 83
23 41 52
4 17 26
0 1 13
0 0 12
0 4 16
2 10 15
0 6 13
0 4 9
0 4 9
0 1 6
1 1 5
1 1 5
1 1 5
1 1 2
3 0 1
3 0 1
3 1 0
3 1 0
2 1 0
1 2 0
1 2 0
1 2 0
0 2 0
0 2 0
0 2 0
0 2 0
1 2 0
1 2 0
1 2 0
1 2 0
1 2 0
1 2 0
1 2 0
1 2 0
1 1 0
2 0 0
2 0 0
2 0 0
2 0 0
2 0 0
2 0 0
2 0 0
2 0 0
2 0 0
2 0 0
2 0 0
2 0 0
1 0 0
0 0 0
0 0 0
0 0 0
0 0 0
0 0 0
2 1 1
3 2 1
2 0 0
1 0 0
1 0 1
3 0 3
3 0 3
2 0 1
1 1 2
0 1 6
1 1 8
0 0 7
0 0 9
0 2 9
0 1 10
0 4 16
2 10 15
12 20 29
31 51 61
68 87 100
81 106 120
81 106 120
71 97 112
77 107 124
79 113 127
82 115 132
82 115 132
82 117 137
82 120 140
82 120 140
82 118 141
75 119 142
77 116 142
73 117 141
73 117 141
73 117 141
73 116 139
73 116 139
73 116 139
75 116 138
77 116 137
78 116 137
80 115 137
79 115 135
82 115 132
82 115 132
82 113 130
82 115 132
82 115 132
89 120 137
97 124 139
81 101 115
39 51 61
0 2 9
0 0 0
0 2 3
1 4 5
0 2 0
0 2 0
0 3 0
0 3 2
0 3 5
0 3 5
0 3 5
0 3 5
0 2 3
0 2 2
0 2 1
0 2 1
0 2 1
0 2 1
0 2 1
0 2 1
0 2 1
0 2 1
0 2 1
0 2 1
0 2 1
0 2 1
0 2 1
0 2 1
0 1 1
0 0 2
0 0 2
0 0 2
0 0 2
0 0 2
0 0 2
0 0 2
0 0 2
0 0 2
0 0 2
0 0 2
0 0 2
0 0 2
0 0 2
0 0 2
0 0 2
1 0 1
2 0 0
2 0 0
2 0 0
2 0 0
2 0 0
2 0 0
2 0 0
2 0 0
2 0 0
2 0 0
2 0 0
2 0 0
2 0 0
2 0 0
2 0 0
2 0 1
3 0 3
3 0 3
3 0 3
3 0 3
3 0 3
3 0 3
3 0 3
3 0 3
3 0 3
3 0 3
3 0 3
3 0 3
3 0 3
3 0 3
3 0 2
3 0 1
2 0 0
2 0 0
2 0 0
2 0 0
2 0 0
2 0 0
2 0 0
2 0 0
2 0 0
2 0 0
2 0 0
2 0 0
2 0 0
2 0 0
2 0 0
2 0 0
2 0 0
2 0 0
2 0 0
2 0 0
2 0 0
2 0 0
2 0 0
2 0 0
2 0 0
2 0 0
2 0 0
2 0 0
2 0 0
2 0 0
2 0 0
2 0 0
2 0 0
2 0 0
2 0 0
2 0 0
2 0 0
2 0 0
2 0 0
2 0 0
2 0 0
2 0 0
2 0 0
2 0 0
2 0 0
2 0 0
2 0 0
2 0 0
2 0 0
2 0 0
2 0 0
2 0 0
2 0 0
2 0 0
2 0 0
2 0 0
2 0 0
2 0 0
2 0 0
2 0 0
2 0 0
2 0 0
2 0 0
2 0 0
2 0 0
2 0 0
2 0 0
2 0 0
2 0 0
2 0 0
2 0 0
2 0 0
2 0 0
2 0 0
2 0 0
2 0 0
2 0 0
2 0 0
2 0 0
2 0 0
2 0 0
1 0 0
0 0 0
0 1 0
0 2 0
0 3 0
0 3 2
1 4 5
0 4 5
0 1 3
0 3 5
4 17 26
23 41 52
55 79 91
81 106 120
93 121 136
89 120 137
82 115 132
82 115 136
82 115 136
80 115 137
80 115 137
78 116 137
78 116 137
77 116 138
77 116 139
77 116 139
77 116 139
77 116 139
77 116 139
77 116 140
77 116 142
77 116 142
77 116 142
77 116 142
77 116 142
77 116 142
77 116 142
77 116 142
77 116 142
77 116 142
77 116 142
77 116 142
77 116 142
77 116 142
77 116 142
77 116 142
77 116 140
77 116 139
77 116 139
77 116 139
77 116 139
77 116 139
77 116 139
77 116 139
77 117 139
77 117 137
77 117 137
77 117 137
77 117 137
77 117 137
77 117 137
76 116 136
76 116 136
76 116 136
76 116 136
76 116 136
76 116 136
76 116 136
76 116 136
77 117 137
77 117 137
77 117 137
77 117 137
77 117 137
77 117 137
77 117 137
77 117 137
77 116 137
77 115 136
77 115 136
77 115 136
77 115 136
77 115 136
77 115 136
78 116 137
78 116 137
78 116 137
78 116 137
77 115 136
77 115 136
78 116 137
78 116 138
82 118 141
82 118 141
80 117 140
80 115 137
80 115 137
80 115 137
82 117 137
82 117 137
82 117 137
82 117 137
77 117 137
77 117 137
78 117 135
77 117 133
77 115 131
79 113 127
79 113 127
79 113 127
81 106 120
81 101 115
81 101 115
81 106 120
79 97 109
62 77 90
39 51 61
14 29 40
6 12 17
0 1 10
1 1 8
0 0 7
0 2 9
0 2 9
0 4 9
1 4 5
1 1 5
0 2 3
0 2 3
1 1 3
1 1 3
1 1 2
1 1 1
1 1 1
1 1 1
2 0 1
2 0 0
2 0 0
2 0 0
2 0 0
2 0 0
2 0 0
2 0 0
2 0 0
2 0 0
2 0 0
2 0 0
2 0 0
2 0 0
2 0 0
0 0 12
14 29 40
62 77 90
97 121 136
95 118 134
81 110 128
85 116 133
89 120 137
83 118 136
82 117 137
78 116 138
78 118 139
78 118 139
75 118 142
75 118 142
75 117 141
75 116 139
76 115 138
76 114 136
76 113 137
76 113 137
76 113 137
76 113 137
76 113 137
76 113 137
77 114 138
77 114 138
77 114 138
77 114 138
78 115 137
78 115 137
79 113 135
79 113 135
82 115 132
82 115 132
82 115 132
82 115 132
82 115 132
82 115 136
82 115 136
80 115 137
78 115 139
77 116 142
75 116 141
75 116 141
75 116 141
73 117 141
75 118 142
75 118 142
77 116 142
82 118 141
82 120 140
87 124 142
87 124 142
87 124 142
87 124 142
82 115 132
79 113 127
81 110 128
90 116 132
97 121 136
90 116 132
70 92 106
47 64 75
24 35 46
4 17 26
0 4 16
0 0 7
0 0 9
0 2 9
1 4 10
0 4 9
0 3 5
1 1 8
0 1 6
1 1 5
1 1 3
0 0 3
0 0 2
2 0 0
2 0 0
2 0 0
2 0 0
1 1 0
0 1 0
0 1 0
0 1 0
0 1 0
0 1 0
0 1 0
0 1 0
0 1 0
0 1 0
0 1 0
0 1 0
0 1 0
0 1 0
0 1 0
0 1 0
0 0 0
1 0 0
1 0 0
1 0 0
1 0 0
1 0 0
1 0 0
1 0 0
1 0 0
1 0 0
1 0 0
1 0 0
1 0 0
0 0 0
0 0 0
0 0 0
0 0 0
0 0 0
1 1 0
5 4 5
5 4 5
3 4 2
0 0 0
0 0 0
4 1 5
2 1 2
0 0 0
4 1 5
6 8 13
2 4 11
0 0 9
2 4 11
6 12 17
0 12 19
4 17 26
14 29 40
31 51 61
68 87 100
83 113 128
93 121 136
83 113 128
77 107 124
77 107 124
82 115 132
83 118 136
82 117 137
82 117 137
82 120 140
80 117 140
78 117 140
78 117 140
75 117 141
73 117 141
73 117 141
73 117 141
73 116 139
75 116 141
75 116 138
77 115 137
77 115 136
77 115 136
79 114 134
79 114 134
82 115 132
82 115 132
79 113 132
82 115 132
82 113 130
89 118 136
97 124 139
81 101 115
39 51 61
0 1 6
0 0 0
0 1 1
3 4 2
0 3 0
0 3 0
0 3 0
0 3 2
0 3 5
0 3 5
0 3 5
0 3 5
0 2 3
0 2 3
0 2 2
0 2 2
0 2 2
0 2 2
0 2 2
0 2 2
0 2 2
0 2 2
0 2 2
0 2 2
0 2 2
0 2 2
0 2 2
1 1 2
1 0 1
1 0 1
1 0 1
1 0 1
1 0 1
1 0 1
1 0 1
1 0 1
1 0 1
1 0 1
1 0 1
1 0 1
1 0 1
1 0 1
1 0 1
1 0 1
1 0 1
2 0 0
2 0 0
1 0 0
1 0 0
1 0 0
1 0 0
1 0 0
1 0 0
1 0 1
2 0 1
2 0 1
2 0 1
2 0 1
3 0 2
3 0 2
3 0 2
3 0 2
3 0 3
3 0 3
3 0 3
3 0 3
4 1 5
4 1 5
4 1 5
4 1 5
4 1 5
4 1 5
4 1 5
4 1 5
4 1 5
4 1 5
3 0 3
4 1 2
3 0 1
3 0 0
3 1 0
3 1 0
3 1 0
3 1 0
3 1 0
3 0 0
3 0 0
3 0 0
3 0 0
3 0 0
3 0 0
3 0 0
3 0 0
3 0 0
3 0 0
3 0 0
3 0 0
3 0 0
3 0 0
3 0 0
3 0 0
3 0 0
3 0 0
3 0 0
3 0 0
3 0 0
3 0 0
3 0 0
3 0 0
3 0 0
3 0 0
3 0 0
3 0 0
3 0 0
3 0 0
3 0 0
3 0 0
3 0 0
3 0 0
3 0 0
3 0 0
3 0 0
3 0 0
3 0 0
3 0 0
3 0 0
3 0 0
3 0 0
3 0 0
3 0 0
3 0 0
3 0 0
3 0 0
3 0 0
3 0 0
3 0 0
3 0 0
3 0 0
3 0 0
3 0 0
3 0 0
3 0 0
3 0 0
3 0 0
3 0 0
3 0 0
3 0 0
3 0 0
3 0 0
3 0 0
3 0 0
3 0 0
3 0 0
3 0 0
3 0 0
3 0 0
3 0 0
3 0 0
3 1 0
2 1 0
1 1 0
0 2 0
0 2 0
0 3 0
0 4 1
1 4 1
0 6 5
0 2 3
0 4 5
4 17 26
23 41 52
55 79 91
81 106 120
93 121 136
93 121 136
85 116 133
82 115 132
82 115 132
79 115 135
79 115 135
79 115 135
78 116 137
78 115 137
78 115 139
78 115 139
78 115 139
77 116 140
77 116 140
77 116 142
77 116 142
77 116 142
77 116 142
77 116 142
77 116 142
77 116 142
77 116 142
77 116 142
77 116 142
77 116 142
77 116 142
77 116 142
77 116 142
77 116 142
77 116 142
77 116 142
77 116 142
77 116 140
77 116 140
77 116 140
77 116 140
77 116 140
77 116 140
77 116 139
77 116 139
77 116 138
77 116 138
77 117 137
77 117 137
77 117 137
77 117 135
77 116 134
77 116 134
77 116 134
77 116 134
77 116 134
77 116 134
77 116 134
77 116 134
77 117 137
77 117 137
77 117 137
77 117 137
77 117 137
77 117 137
77 117 137
77 117 137
77 117 137
77 116 137
77 116 137
77 116 137
77 116 137
77 116 137
76 116 136
77 116 137
77 116 137
77 115 136
77 115 134
76 114 136
77 115 136
78 116 137
78 116 138
78 116 138
78 116 138
78 116 138
78 116 137
78 116 137
78 116 137
78 116 137
78 116 138
80 117 140
80 117 140
78 117 135
77 117 135
78 117 135
78 117 135
77 117 133
77 115 131
77 115 131
79 113 127
77 107 124
77 107 124
84 109 126
84 109 126
81 106 120
71 97 112
68 87 100
53 72 83
31 43 53
0 4 16
0 0 2
0 0 4
2 6 12
2 10 15
6 12 17
6 8 13
5 6 9
1 4 5
0 1 3
1 0 1
1 1 2
1 1 1
1 1 1
2 1 0
2 1 0
3 1 0
3 1 0
3 1 0
3 1 0
3 1 0
3 0 1
3 0 1
3 0 1
3 0 1
3 0 1
3 0 1
3 0 1
2 0 1
1 1 1
1 1 1
0 0 12
14 29 40
62 77 90
97 121 136
95 118 134
81 110 128
85 116 133
86 121 140
83 118 136
82 117 137
78 116 138
78 118 139
78 118 139
75 118 142
75 118 142
75 117 141
75 116 141
76 115 138
76 114 136
76 113 137
76 113 137
76 113 137
76 113 137
76 113 137
76 113 137
77 114 138
77 114 138
77 114 138
77 114 138
78 115 137
79 114 136
79 113 135
79 113 135
82 115 132
82 115 132
82 115 132
82 115 132
82 115 132
82 115 136
82 115 136
80 115 137
78 115 139
77 116 142
77 116 142
75 116 141
75 116 141
75 118 142
75 118 142
75 118 142
77 116 142
82 118 141
87 124 142
87 124 142
87 124 142
86 121 140
89 120 137
85 116 133
89 118 136
89 118 136
91 117 133
90 113 128
70 92 106
47 64 75
14 29 40
0 12 19
0 1 13
1 1 8
0 4 9
0 4 9
0 0 5
0 0 4
0 1 3
0 2 4
0 1 6
1 1 5
1 1 3
1 1 2
0 0 2
0 0 2
1 0 0
2 0 0
2 0 0
2 0 0
1 0 0
0 0 0
0 0 0
0 0 0
0 0 0
0 0 0
0 0 0
0 0 0
0 0 0
0 0 0
0 0 0
0 0 0
0 0 0
0 0 0
0 0 0
0 0 0
0 0 0
0 0 0
0 0 0
0 0 0
0 0 0
0 0 0
0 0 0
0 0 0
0 0 0
0 0 0
0 0 0
0 0 0
0 0 0
0 0 0
0 0 0
0 0 0
0 0 0
1 2 1
3 4 2
5 4 5
5 4 5
5 4 5
1 1 2
1 1 2
2 1 3
1 1 2
0 0 1
3 4 6
6 12 17
6 8 13
2 4 11
0 1 13
4 17 26
12 20 29
14 29 40
31 51 61
68 87 100
83 113 128
97 124 139
89 120 137
82 113 130
77 107 124
77 111 130
83 118 136
82 117 137
82 117 137
80 117 140
80 117 140
78 115 139
77 116 138
75 116 139
75 117 141
73 117 141
75 116 141
75 116 141
75 116 141
75 116 141
76 115 138
77 115 137
77 115 136
77 115 134
79 114 134
79 114 134
79 113 135
79 113 135
79 113 132
79 113 132
82 113 130
89 118 136
97 124 139
81 101 115
39 51 61
0 1 6
0 0 0
0 1 0
3 4 2
0 4 1
0 4 1
0 3 0
0 3 2
0 3 2
0 3 5
0 3 5
0 3 5
0 2 3
0 2 3
0 2 3
0 2 3
0 2 3
0 2 3
0 2 3
0 2 3
0 2 3
0 2 3
0 2 3
0 2 3
0 2 3
0 2 3
0 2 3
1 1 3
2 0 1
2 0 0
2 0 0
2 0 0
2 0 0
2 0 0
2 0 0
2 0 0
2 0 0
2 0 0
2 0 0
2 0 0
2 0 0
2 0 0
2 0 0
2 0 0
2 0 0
2 0 0
2 0 0
1 0 0
0 0 0
0 0 0
0 0 0
0 0 0
0 0 0
1 0 1
2 0 2
2 0 2
2 0 2
2 0 2
3 0 3
3 0 3
3 0 3
3 0 3
3 0 3
3 0 3
3 0 3
3 0 3
4 1 5
4 1 5
4 1 5
4 1 5
4 1 5
4 1 5
4 1 5
4 1 5
4 1 5
4 1 5
4 1 5
3 0 3
4 0 0
4 0 0
4 2 0
4 2 0
4 2 0
4 2 0
4 2 0
4 0 0
4 0 0
4 0 0
4 0 0
4 0 0
4 0 0
4 0 0
4 0 0
4 0 0
4 0 0
3 0 0
3 0 0
3 0 0
3 0 0
3 0 0
3 0 0
3 0 0
3 0 0
3 0 0
3 0 0
3 0 0
3 0 0
3 0 0
3 0 0
3 0 0
3 0 0
3 0 0
3 0 0
3 0 0
3 0 0
3 0 0
3 0 0
3 0 0
3 0 0
3 0 0
3 0 0
3 0 0
3 0 0
3 0 0
3 0 0
3 0 0
3 0 0
3 0 0
3 0 0
3 0 0
3 0 0
3 0 0
3 0 0
3 0 0
3 0 0
3 0 0
3 0 0
3 0 0
3 0 0
3 0 0
3 0 0
3 0 0
3 0 0
3 0 0
3 0 0
3 0 0
3 0 0
3 0 0
3 0 0
3 0 0
3 0 0
3 0 0
3 0 0
3 0 0
3 0 0
3 0 0
3 0 0
3 0 0
3 1 0
2 1 0
1 2 0
0 2 0
0 2 0
0 3 0
0 4 1
0 6 5
0 6 5
0 3 2
0 4 5
4 17 26
23 41 52
55 79 91
81 106 120
93 121 136
93 121 136
82 115 132
82 115 132
82 115 132
79 115 135
79 115 135
79 115 135
78 116 137
78 115 137
78 115 139
78 115 139
78 115 142
77 116 142
77 116 142
77 116 142
77 116 142
77 116 142
77 116 142
77 116 142
77 116 142
77 116 142
77 116 142
77 116 142
77 116 142
77 116 142
77 116 142
77 116 142
77 116 142
77 116 142
77 116 142
77 116 142
77 116 142
77 116 142
77 116 142
77 116 142
77 116 142
77 116 142
77 116 140
77 116 139
77 116 139
77 116 139
77 116 138
77 117 137
77 117 137
77 117 137
77 117 135
78 116 135
78 116 135
78 116 135
78 116 135
78 116 135
78 116 135
78 116 135
78 116 135
77 117 137
77 117 137
77 117 137
77 117 137
77 117 137
77 117 137
77 117 137
77 117 137
77 117 137
77 117 137
77 117 137
77 117 137
77 117 137
77 117 137
76 117 136
76 116 136
76 116 136
77 115 136
76 114 136
76 114 136
77 115 136
78 116 137
78 116 137
78 116 137
78 116 137
78 116 137
78 116 137
78 116 137
78 116 137
78 116 137
78 116 138
80 117 140
80 117 140
78 117 135
77 117 135
77 117 135
77 117 135
77 117 133
77 117 133
78 117 135
78 117 135
79 115 132
79 115 132
79 113 127
77 107 124
77 107 124
77 107 124
79 113 127
81 106 120
53 72 83
14 29 40
2 4 11
0 0 5
2 4 11
6 12 17
6 12 17
6 12 17
6 8 13
3 4 6
1 3 2
1 1 1
1 1 1
1 1 1
1 1 1
2 1 0
3 1 0
3 1 0
3 1 0
3 1 0
3 1 0
3 1 0
3 0 1
3 0 1
3 0 1
3 0 1
3 0 1
3 0 1
3 0 1
2 0 1
1 1 1
1 1 1
0 0 12
14 29 40
62 77 90
97 121 136
95 118 134
81 110 128
85 116 133
86 121 140
82 120 140
82 117 137
78 115 139
78 117 140
77 116 142
75 118 142
75 117 141
75 116 141
76 115 140
77 114 138
76 113 137
76 113 137
76 113 137
76 113 137
76 113 137
76 113 137
76 113 137
77 114 138
77 114 138
77 114 138
77 114 138
78 115 137
79 114 136
79 113 135
79 113 135
82 115 132
82 115 132
82 115 132
82 115 132
82 115 132
82 115 136
82 115 136
80 115 137
78 115 139
77 116 142
77 116 142
75 116 141
75 116 141
75 116 141
75 118 142
77 116 142
77 116 142
82 118 141
86 121 140
82 118 141
79 113 132
77 107 124
77 107 124
85 116 133
97 124 139
99 127 141
90 113 128
70 92 106
47 64 75
14 29 40
0 12 19
0 1 10
0 0 7
0 0 6
0 1 6
1 1 5
0 0 3
0 0 2
0 0 2
0 1 1
0 2 4
0 2 4
1 1 3
1 1 3
0 0 2
0 0 1
1 0 0
2 0 0
2 0 0
2 0 0
1 0 0
0 0 0
0 0 0
0 0 0
0 0 0
0 0 0
0 0 0
0 0 0
0 0 0
0 0 0
0 0 0
0 0 0
0 0 0
0 0 0
0 0 0
0 0 0
0 0 0
0 0 0
0 0 0
0 0 0
0 0 0
0 0 0
0 0 0
0 0 0
0 0 0
0 0 0
0 0 0
0 0 0
0 0 0
0 0 0
0 0 0
0 0 0
0 1 0
3 4 2
5 4 5
3 4 2
2 1 2
5 4 5
6 8 13
5 6 9
1 1 3
0 0 2
1 1 8
6 8 13
6 12 17
6 12 17
6 12 17
6 12 17
12 20 29
24 35 46
31 51 61
55 79 91
79 113 127
87 124 142
99 127 141
83 118 136
77 107 124
70 105 125
77 111 130
82 120 140
82 120 140
82 117 137
80 117 140
80 117 140
78 116 138
75 116 137
75 116 138
75 116 139
75 116 139
74 115 139
74 115 139
74 115 139
76 115 140
77 114 138
77 115 137
77 115 136
77 115 134
79 114 134
79 114 134
79 113 135
79 113 135
79 113 132
79 114 134
79 113 132
89 120 137
97 124 139
81 101 115
39 51 61
0 1 6
0 0 0
0 1 0
3 4 2
0 4 1
0 4 1
0 4 1
0 4 1
0 3 2
0 4 5
0 3 5
0 3 5
0 2 3
0 2 3
0 2 3
0 2 3
0 2 3
0 2 3
0 2 3
0 2 3
0 2 3
0 2 3
0 2 3
0 2 3
0 2 3
0 2 3
0 2 3
1 1 3
2 0 1
2 0 0
3 0 0
3 0 0
3 0 0
3 0 0
3 0 0
3 0 0
3 0 0
3 0 0
3 0 0
3 0 0
3 0 0
3 0 0
3 0 0
3 0 0
3 0 0
3 0 0
2 0 0
1 0 0
0 0 0
0 0 0
0 0 0
0 0 0
0 0 0
1 0 1
2 0 2
2 0 2
2 0 2
2 0 2
3 0 3
3 0 3
3 0 3
3 0 3
3 0 3
3 0 3
3 0 3
3 0 3
4 1 5
4 1 5
4 1 5
4 1 5
4 1 5
4 1 5
4 1 5
4 1 5
4 1 5
4 1 5
4 1 5
3 0 3
4 0 0
4 0 0
4 0 0
4 0 0
4 0 0
4 0 0
4 0 0
4 0 0
4 0 0
4 0 0
4 0 0
4 0 0
4 0 0
4 0 0
4 0 0
4 0 0
4 0 0
3 0 0
3 0 0
3 0 0
3 0 0
3 0 0
3 0 0
3 0 0
3 0 0
3 0 0
3 0 0
3 0 0
3 0 0
3 0 0
3 0 0
3 0 0
3 0 0
3 0 0
3 0 0
3 0 0
3 0 0
3 0 0
3 0 0
3 0 0
3 0 0
3 0 0
3 0 0
3 0 0
3 0 0
3 0 0
3 0 0
3 0 0
3 0 0
3 0 0
3 0 0
3 0 0
3 0 0
3 0 0
3 0 0
3 0 0
3 0 0
3 0 0
3 0 0
3 0 0
3 0 0
3 0 0
3 0 0
3 0 0
3 0 0
3 0 0
3 0 0
3 0 0
3 0 0
3 0 0
3 0 0
3 0 0
3 0 0
3 0 0
3 0 0
3 0 0
3 0 0
3 0 0
3 0 0
3 0 0
3 1 0
2 1 0
1 2 0
0 2 0
0 2 0
0 3 0
0 4 1
0 6 5
0 6 5
0 3 2
0 4 5
4 17 26
23 41 52
55 79 91
81 106 120
93 121 136
93 121 136
82 115 132
82 115 132
82 115 132
79 115 135
79 115 135
78 116 137
78 116 137
78 115 137
78 115 139
78 115 139
78 115 142
77 116 142
77 116 142
77 116 142
77 116 142
77 116 142
77 116 142
77 116 142
77 116 142
77 116 142
77 116 142
77 116 142
77 116 142
77 116 142
77 116 142
77 116 142
77 116 142
77 116 142
77 116 142
77 116 142
77 116 142
77 116 142
77 116 142
77 116 142
77 116 142
77 116 142
77 116 140
77 116 139
77 116 139
77 116 139
77 116 138
77 117 137
77 117 137
77 117 137
77 117 135
78 116 135
78 116 135
78 116 135
78 116 135
78 116 135
78 116 135
78 116 135
78 116 135
77 117 137
77 117 137
77 117 137
77 117 137
77 117 137
77 117 137
77 117 137
77 117 137
77 117 137
77 117 137
77 117 137
77 117 137
77 117 137
77 117 137
76 117 136
76 116 136
76 116 136
77 115 136
76 114 136
76 114 136
76 114 136
77 115 136
77 115 136
77 115 136
77 115 136
77 115 136
77 115 136
78 116 137
78 116 137
78 116 137
78 116 137
78 116 138
78 116 138
77 117 135
77 117 135
77 117 135
77 117 135
77 117 135
78 117 135
78 117 135
78 117 135
78 117 135
78 117 135
77 115 131
77 115 131
77 115 131
77 115 131
83 118 136
82 113 130
70 92 106
47 64 75
14 29 40
0 6 13
0 1 10
0 8 14
6 12 17
2 10 15
2 6 12
1 4 10
3 4 6
2 3 2
1 2 1
1 1 1
1 1 1
2 1 0
3 1 0
3 1 0
3 1 0
3 1 0
3 1 0
3 1 0
3 0 1
3 0 1
3 0 1
3 0 1
3 0 1
3 0 1
3 0 1
2 0 1
1 1 1
1 1 1
0 0 12
14 29 40
62 77 90
97 121 136
95 118 134
81 110 128
85 116 133
86 121 140
82 120 140
82 117 137
78 115 139
78 117 140
77 116 142
75 118 142
75 117 141
77 116 142
77 116 140
77 114 138
76 113 137
76 113 137
76 113 137
76 113 137
76 113 137
76 113 137
76 113 137
77 114 138
77 114 138
77 114 138
77 114 138
78 115 137
79 114 136
79 113 135
79 113 135
82 115 132
82 115 132
82 115 132
82 115 132
82 115 132
82 115 136
82 115 136
80 115 137
78 115 139
77 116 142
77 116 142
75 116 141
75 116 141
75 116 141
75 116 141
75 116 141
77 116 142
82 118 141
82 118 141
82 113 136
70 105 125
71 97 112
77 107 124
93 121 136
99 127 141
93 116 131
70 92 106
47 64 75
14 29 40
4 17 26
0 12 19
0 8 14
1 4 10
1 1 8
0 1 4
0 1 3
0 0 2
0 0 2
0 0 2
0 1 1
0 2 3
0 2 3
1 1 3
1 1 3
0 0 2
0 0 1
1 0 0
2 0 0
2 0 0
2 0 0
1 0 0
0 0 0
0 0 0
0 0 0
0 0 0
0 0 0
0 0 0
0 0 0
0 0 0
0 0 0
0 0 0
0 0 0
0 0 0
0 0 0
0 0 0
0 0 0
0 0 0
0 0 0
0 0 0
0 0 0
0 0 0
0 0 0
0 0 0
0 0 0
0 0 0
0 0 0
0 0 0
0 0 0
0 0 0
0 0 0
0 0 0
0 0 0
0 1 0
5 4 5
5 4 5
1 3 2
0 1 1
5 6 9
6 12 17
6 8 13
1 1 5
0 1 6
2 4 11
6 8 13
6 12 17
0 4 16
0 4 16
4 17 26
24 35 46
39 51 61
55 79 91
77 107 124
83 118 136
86 122 140
86 122 140
79 115 132
70 105 125
70 105 125
71 110 131
82 117 137
82 120 140
82 117 137
80 117 140
80 117 140
78 116 138
77 117 137
75 116 137
76 115 138
76 115 138
76 115 138
76 115 138
76 115 138
76 115 138
77 114 138
77 115 137
77 115 136
77 115 136
79 114 136
79 114 136
79 114 136
79 114 136
79 113 135
79 114 134
79 113 132
89 120 137
96 123 138
81 101 115
39 51 61
0 1 6
0 0 0
0 1 0
3 4 2
0 4 1
0 4 1
0 4 1
0 4 1
0 3 2
0 4 5
0 3 5
0 3 5
0 2 3
0 2 3
0 2 3
0 2 3
0 2 3
0 2 3
0 2 3
0 2 3
0 2 3
0 2 3
0 2 3
0 2 3
0 2 3
0 2 3
0 2 3
1 1 3
2 0 1
2 0 0
3 0 0
3 0 0
3 0 0
3 0 0
3 0 0
3 0 0
3 0 0
3 0 0
3 0 0
3 0 0
3 0 0
3 0 0
3 0 0
3 0 0
3 0 0
3 0 0
2 0 0
1 0 0
0 0 0
0 0 0
0 0 0
0 0 0
0 0 0
1 0 1
2 0 2
2 0 2
2 0 2
2 0 2
3 0 3
3 0 3
3 0 3
3 0 3
3 0 3
3 0 3
3 0 3
3 0 3
4 1 5
4 1 5
4 1 5
4 1 5
4 1 5
4 1 5
4 1 5
4 1 5
4 1 5
4 1 5
4 1 5
3 0 3
4 0 0
4 0 0
4 0 0
4 0 0
4 0 0
4 0 0
4 0 0
4 0 0
4 0 0
4 0 0
4 0 0
4 0 0
4 0 0
4 0 0
4 0 0
4 0 0
4 0 0
3 0 0
3 0 0
3 0 0
3 0 0
3 0 0
3 0 0
3 0 0
3 0 0
3 0 0
3 0 0
3 0 0
3 0 0
3 0 0
3 0 0
3 0 0
3 0 0
3 0 0
3 0 0
3 0 0
3 0 0
3 0 0
3 0 0
3 0 0
3 0 0
3 0 0
3 0 0
3 0 0
3 0 0
3 0 0
3 0 0
3 0 0
3 0 0
3 0 0
3 0 0
3 0 0
3 0 0
3 0 0
3 0 0
3 0 0
3 0 0
3 0 0
3 0 0
3 0 0
3 0 0
3 0 0
3 0 0
3 0 0
3 0 0
3 0 0
3 0 0
3 0 0
3 0 0
3 0 0
3 0 0
3 0 0
3 0 0
3 0 0
3 0 0
3 0 0
3 0 0
3 0 0
3 0 0
3 0 0
3 1 0
2 1 0
1 2 0
0 2 0
0 2 0
0 3 0
0 4 1
0 6 5
0 6 5
0 3 2
0 4 5
4 17 26
23 41 52
55 79 91
81 106 120
93 121 136
93 121 136
82 115 132
82 115 132
82 115 132
79 115 135
78 116 135
76 117 136
77 117 137
77 116 138
77 116 139
77 116 140
77 116 142
77 116 142
77 116 142
77 116 142
77 116 142
77 116 142
77 116 142
77 116 142
77 116 142
77 116 142
77 116 142
77 116 142
77 116 142
77 116 142
77 116 142
77 116 142
77 116 142
77 116 142
77 116 142
77 116 142
77 116 142
77 116 142
77 116 142
77 116 142
77 116 142
77 116 142
77 116 140
77 116 139
77 116 139
77 116 139
77 116 138
77 117 137
77 117 137
77 117 137
77 117 135
78 116 135
78 116 135
78 116 135
78 116 135
78 116 135
78 116 135
78 116 135
78 116 135
77 117 137
77 117 137
77 117 137
77 117 137
77 117 137
77 117 137
77 117 137
77 117 137
77 117 137
77 117 137
77 117 137
77 117 137
77 117 137
77 117 137
76 117 136
76 116 136
76 116 136
77 115 136
76 114 136
76 114 136
76 114 136
77 115 136
77 115 136
77 115 136
77 115 136
77 115 136
77 115 136
78 116 137
78 116 137
78 116 137
78 116 137
78 116 137
78 116 137
77 117 135
77 117 135
77 117 135
77 117 135
77 117 135
77 117 135
78 116 135
78 116 135
78 117 135
77 117 135
75 116 134
77 117 133
75 117 131
75 117 131
77 115 131
79 113 127
77 107 124
68 87 100
39 51 61
12 20 29
0 4 16
0 6 13
0 8 14
0 4 9
1 1 8
1 4 10
5 6 9
1 4 5
1 3 2
1 1 1
1 1 1
2 1 0
3 1 0
3 1 0
3 1 0
3 1 0
3 1 0
3 1 0
3 0 1
3 0 1
3 0 1
3 0 1
3 0 1
3 0 1
3 0 1
2 0 1
1 1 1
1 1 1
0 0 12
14 29 40
62 77 90
97 121 136
95 118 134
81 110 128
85 116 133
86 121 140
82 120 140
77 117 137
77 116 139
78 117 140
75 118 142
75 118 142
77 116 142
77 116 142
77 116 140
77 114 138
76 113 137
76 113 137
76 113 137
76 113 137
76 113 137
76 113 137
76 113 137
77 114 138
77 114 138
77 114 138
77 114 138
79 114 138
79 114 136
79 114 134
79 114 134
82 115 132
82 115 132
82 115 132
82 115 132
82 115 132
82 115 136
80 115 137
80 115 137
78 115 139
77 116 142
75 116 141
77 116 142
77 116 142
77 116 142
77 116 142
75 116 141
77 116 140
80 115 140
82 117 137
82 113 136
77 107 124
70 105 125
83 113 128
99 127 141
99 127 141
70 92 106
31 51 61
12 20 29
4 17 26
4 17 26
4 17 26
4 17 26
0 8 14
0 4 9
0 1 4
0 0 2
0 0 2
0 0 2
0 0 2
0 1 3
0 2 3
0 2 3
0 0 2
0 0 3
0 0 2
0 0 1
0 0 0
1 0 0
1 0 0
1 0 0
0 0 0
0 0 0
0 0 0
0 0 0
0 0 0
0 0 0
0 0 0
0 0 0
0 0 0
0 0 0
0 0 0
0 0 0
0 0 0
0 0 0
0 0 0
0 0 0
0 0 0
0 0 0
0 0 0
0 0 0
0 0 0
0 0 0
0 0 0
0 0 0
0 0 0
0 0 0
0 0 0
0 0 0
0 0 0
0 0 0
0 0 0
0 0 0
0 0 0
2 2 2
3 4 2
3 4 6
5 6 9
5 6 9
5 4 5
3 4 6
1 4 10
2 6 12
2 10 15
6 12 17
6 12 17
0 1 13
0 1 13
12 20 29
47 64 75
70 92 106
81 106 120
82 115 132
86 122 140
86 122 140
83 118 136
76 113 132
70 105 125
70 105 125
71 110 131
78 116 135
82 117 137
82 117 137
82 117 137
80 117 140
78 116 138
77 117 137
77 116 137
77 115 137
77 115 136
76 114 136
76 114 136
76 114 136
76 114 136
76 114 136
76 114 136
77 115 137
77 115 137
78 115 137
78 115 137
78 115 137
78 115 137
79 113 135
79 114 134
79 113 132
89 120 137
96 123 138
81 101 115
39 51 61
0 1 6
0 0 0
0 1 0
3 4 2
0 4 1
0 4 1
0 4 1
0 4 1
0 3 2
0 4 5
0 3 5
0 3 5
0 2 3
0 2 3
0 2 3
0 2 3
0 2 3
0 2 3
0 2 3
0 2 3
0 2 3
0 2 3
0 2 3
0 2 3
0 2 3
0 2 3
0 2 3
1 1 3
2 0 1
2 0 0
3 0 0
3 0 0
3 0 0
3 0 0
3 0 0
3 0 0
3 0 0
3 0 0
3 0 0
3 0 0
3 0 0
3 0 0
3 0 0
3 0 0
3 0 0
3 0 0
2 0 0
1 0 0
0 0 0
0 0 0
0 0 0
0 0 0
0 0 0
0 0 1
1 1 2
1 1 2
1 1 2
2 0 2
2 1 3
2 1 3
2 1 3
2 1 3
4 1 5
4 1 5
3 0 3
4 1 5
4 1 5
4 1 5
4 1 5
4 1 5
4 1 5
4 1 5
4 1 5
4 1 5
4 1 5
4 1 5
4 1 5
4 1 5
4 0 0
4 0 0
4 0 0
4 0 0
4 0 0
4 0 0
4 0 0
4 2 0
4 2 0
4 2 0
4 2 0
4 2 0
4 2 0
4 2 0
4 2 0
4 2 0
4 2 0
3 0 0
3 0 0
3 0 0
3 0 0
3 0 0
3 0 0
3 0 0
3 0 0
3 0 0
3 0 0
3 0 0
3 0 1
3 0 1
3 0 1
3 0 1
3 0 1
3 0 1
3 0 1
3 0 1
3 0 1
3 0 1
3 0 1
3 0 1
3 0 1
3 0 1
3 0 1
3 0 1
3 0 1
3 0 1
3 0 1
3 0 1
3 0 1
3 0 1
3 0 1
3 0 1
3 0 1
3 0 1
3 0 1
3 0 1
3 0 1
3 0 1
3 0 1
3 0 1
3 0 1
3 0 1
3 0 1
3 0 1
3 0 1
3 0 1
3 0 1
3 0 1
3 0 1
3 0 1
3 0 1
3 0 1
3 0 1
3 0 1
3 0 1
3 0 1
3 0 1
3 0 0
3 0 0
3 0 0
3 0 0
2 0 0
1 1 0
1 2 1
1 2 1
1 4 1
0 5 1
0 6 5
0 6 5
0 3 2
0 6 5
4 17 26
23 41 52
55 79 91
81 106 120
95 118 134
91 117 133
83 113 128
82 115 132
82 113 130
77 115 131
74 117 135
75 118 137
75 118 137
73 117 136
76 117 138
75 117 139
75 117 141
75 117 141
75 117 141
75 116 141
77 116 142
77 116 142
77 116 142
77 116 142
77 116 142
77 116 142
75 117 141
75 117 141
75 117 141
75 117 141
77 116 142
77 116 142
77 116 142
77 116 142
78 115 142
78 115 142
78 115 142
78 115 142
78 115 142
78 115 142
77 116 140
77 116 140
77 116 140
77 115 139
77 116 138
78 116 138
78 116 137
78 116 137
78 116 135
78 116 135
78 116 135
78 116 135
78 116 135
78 116 135
78 116 135
78 116 135
78 116 135
78 116 135
78 116 135
77 117 137
77 117 137
77 117 137
77 117 137
77 117 137
77 117 137
77 117 137
77 117 137
77 117 137
77 117 137
77 117 137
77 117 137
77 117 137
77 117 137
76 117 136
76 116 136
76 116 136
77 115 136
76 114 136
76 114 136
76 114 136
77 115 136
77 115 136
77 115 136
77 115 136
77 115 136
77 115 136
77 115 136
77 115 136
78 116 137
78 116 137
78 116 137
78 116 137
77 117 137
77 117 135
77 117 135
77 117 135
77 117 135
77 117 135
77 116 137
77 117 135
77 117 135
77 117 135
76 117 136
77 117 135
77 117 135
77 117 133
77 115 131
79 113 127
83 113 128
81 106 120
55 79 91
31 51 61
12 20 29
0 12 19
0 8 14
0 2 4
1 2 3
1 4 5
0 4 9
0 6 5
3 4 6
2 1 3
1 1 1
1 0 0
2 1 1
2 1 1
3 1 0
3 1 0
3 1 0
3 1 0
3 0 1
3 0 1
3 0 1
3 0 1
3 0 1
3 0 1
3 0 1
2 0 1
1 1 1
1 1 1
0 0 12
14 29 40
62 77 90
97 121 136
95 118 134
81 110 128
85 116 133
86 121 140
82 120 140
77 117 137
75 117 139
75 118 142
75 118 142
75 118 142
77 116 142
77 116 142
77 116 140
77 114 138
76 113 137
76 113 137
76 113 137
76 113 137
76 113 137
76 113 137
76 113 137
77 114 138
77 114 138
77 114 138
77 114 138
79 114 138
79 114 136
79 114 134
79 114 134
82 115 132
82 115 136
82 115 136
82 115 136
82 115 136
79 115 135
80 115 137
80 115 137
78 115 139
77 116 142
77 116 142
77 116 142
77 116 142
77 116 142
77 116 142
76 115 140
76 115 138
76 113 137
79 113 135
82 113 136
85 116 133
89 118 136
97 124 139
97 124 139
81 101 115
39 51 61
4 17 26
0 4 12
2 10 15
4 17 26
12 20 29
4 17 26
2 10 15
0 4 9
0 1 4
0 0 2
0 0 2
0 0 2
0 0 2
0 1 3
0 2 3
0 2 3
0 0 2
0 0 2
0 0 2
0 0 2
0 0 0
0 0 0
0 0 0
0 0 0
0 0 0
0 0 0
0 0 0
0 0 0
0 0 0
0 0 0
0 0 0
0 0 0
0 0 0
0 0 0
0 0 0
0 0 0
0 0 0
0 0 0
0 0 0
0 0 0
0 0 0
0 0 0
0 0 0
0 0 0
0 0 0
0 0 0
0 0 0
0 0 0
0 0 0
0 0 0
0 0 0
0 0 0
0 0 0
0 0 0
0 0 0
0 0 0
0 0 0
0 0 0
0 2 0
5 6 9
6 12 17
5 6 9
0 0 0
0 2 4
2 6 12
2 10 15
0 8 14
0 4 16
0 12 19
0 4 16
4 17 26
31 51 61
68 87 100
90 113 128
90 116 132
82 115 132
83 118 136
83 118 136
78 117 135
76 113 132
77 111 130
77 111 130
76 113 132
76 113 132
79 115 135
82 117 137
82 117 137
82 117 137
78 116 137
78 116 137
77 116 137
77 115 136
77 115 134
76 114 136
76 114 136
76 114 136
76 114 136
76 114 136
76 114 136
77 115 137
77 114 138
77 114 138
77 114 138
77 114 138
77 115 137
79 113 135
79 114 134
79 113 132
89 120 137
96 123 138
81 101 115
39 51 61
0 1 6
0 0 0
0 1 0
3 4 2
0 4 1
0 4 1
0 4 1
0 4 1
0 3 2
0 4 5
0 3 5
0 3 5
0 2 3
0 2 3
0 2 3
0 2 3
0 2 3
0 2 3
0 2 3
0 2 3
0 2 3
0 2 3
0 2 3
0 2 3
0 2 3
0 2 3
0 2 3
1 1 3
2 0 1
2 0 0
3 0 0
3 0 0
3 0 0
3 0 0
3 0 0
3 0 0
3 0 0
3 0 0
3 0 0
3 0 0
3 0 0
3 0 0
3 0 0
3 0 0
3 0 0
3 0 0
2 0 0
1 0 0
0 0 0
0 0 0
0 0 0
0 0 0
0 0 0
0 0 1
0 0 2
0 0 2
0 0 2
1 1 2
1 1 3
1 1 3
1 1 3
2 1 3
4 1 5
4 1 5
4 1 5
4 1 5
4 1 5
4 1 5
4 1 5
4 1 5
4 1 5
4 1 5
4 1 5
4 1 5
4 1 5
4 1 5
4 1 5
4 1 5
3 0 2
3 0 1
3 0 0
3 1 0
3 1 0
3 1 0
3 1 0
3 1 0
3 1 0
3 1 0
3 1 0
3 1 0
3 1 0
3 1 0
3 1 0
3 1 0
3 1 0
2 0 0
2 0 0
2 0 0
2 0 0
2 0 0
2 0 0
2 0 0
2 0 0
2 0 0
2 0 0
2 0 1
2 0 2
2 0 2
2 0 2
2 0 2
2 0 2
2 0 2
2 0 2
2 0 2
2 0 2
2 0 2
2 0 2
2 0 2
2 0 2
2 0 2
2 0 2
2 0 2
2 0 2
2 0 2
2 0 2
2 0 2
2 0 2
2 0 2
2 0 2
2 0 2
2 0 2
2 0 2
2 0 2
2 0 2
2 0 2
2 0 2
2 0 2
2 0 2
2 0 2
2 0 2
2 0 2
2 0 2
2 0 2
2 0 2
2 0 2
2 0 2
2 0 2
2 0 2
2 0 2
2 0 2
2 0 2
2 0 2
2 0 2
2 0 2
2 0 2
2 0 1
2 0 0
3 0 0
3 0 1
2 0 1
1 1 1
1 1 2
1 3 2
1 4 1
0 5 1
0 6 5
0 6 5
0 4 5
0 4 9
4 17 26
23 41 52
55 79 91
81 106 120
95 118 134
91 117 133
83 113 128
83 113 128
79 115 132
77 117 133
75 118 134
73 118 135
72 117 136
73 117 136
75 118 137
75 118 138
74 118 139
74 118 139
74 118 139
75 117 141
75 117 141
75 117 141
75 117 141
75 117 141
75 117 141
75 117 141
75 117 141
75 117 141
75 117 141
75 117 141
77 116 142
77 116 142
77 116 142
77 116 142
78 115 142
78 115 142
78 115 142
78 115 142
78 115 142
78 115 142
78 115 139
78 115 139
78 115 139
78 115 139
78 116 138
78 116 137
78 116 137
78 116 137
78 116 135
78 116 135
78 116 135
78 116 135
78 116 135
78 116 135
78 116 135
78 116 135
78 116 135
78 116 135
78 116 135
77 117 137
77 117 137
77 117 137
77 117 137
77 117 137
77 117 137
77 117 137
77 117 137
77 117 137
77 117 137
77 117 137
77 117 137
77 117 137
77 117 137
76 117 136
76 116 136
76 116 136
77 115 136
76 114 136
76 114 136
76 114 136
77 115 136
77 115 136
77 115 136
77 115 136
77 115 136
77 115 136
77 115 136
77 115 136
78 116 137
78 116 137
78 116 137
78 116 137
77 117 137
77 117 137
77 117 137
77 117 137
77 117 137
77 117 137
77 117 137
77 117 137
77 117 137
77 117 137
77 117 135
77 117 135
77 117 135
78 116 135
78 115 132
79 113 132
82 115 132
84 109 126
71 97 112
55 79 91
31 51 61
14 29 40
2 10 15
0 1 3
1 0 0
0 2 2
0 4 5
5 6 9
5 6 9
3 4 6
2 2 2
1 1 1
1 1 1
2 1 1
3 1 0
3 1 0
3 1 0
3 1 0
3 0 1
3 0 1
3 0 1
3 0 1
3 0 1
3 0 1
3 0 1
2 0 1
1 1 1
1 1 1
0 0 12
14 29 40
62 77 90
97 121 136
95 118 134
81 110 128
85 116 133
86 121 140
82 120 140
77 117 137
75 117 139
75 118 142
75 118 142
75 118 142
75 118 142
75 117 141
76 115 140
76 115 138
76 114 136
76 113 137
76 113 137
76 113 137
76 113 137
76 113 137
76 113 137
77 114 138
77 114 138
77 114 138
77 114 138
79 114 138
78 115 137
79 114 134
79 114 134
82 115 136
82 115 136
82 115 136
82 115 136
82 115 136
80 115 137
80 115 137
79 114 138
78 115 139
78 115 139
77 116 140
77 116 140
77 116 140
78 115 142
80 115 140
78 115 139
76 114 136
76 113 132
77 111 130
81 110 128
96 123 138
99 127 141
97 124 139
68 87 100
39 51 61
14 29 40
0 12 19
0 4 12
1 6 12
6 8 13
6 12 17
6 12 17
2 10 15
1 4 5
0 0 3
0 0 1
0 0 2
0 0 2
0 0 2
0 0 3
0 1 3
0 1 1
0 0 2
0 0 2
0 0 2
0 0 2
0 0 0
0 0 0
0 0 0
0 0 0
0 0 0
0 0 0
0 0 0
0 0 0
0 0 0
0 0 0
0 0 0
0 0 0
0 0 0
0 0 0
0 0 0
0 0 0
0 0 0
0 0 0
0 0 0
0 0 0
0 0 0
0 0 0
0 0 0
0 0 0
0 0 0
0 0 0
0 0 0
0 0 0
0 0 0
0 0 0
0 0 0
0 0 0
0 0 0
0 0 0
0 0 0
1 0 0
1 1 0
0 1 1
0 2 2
3 4 6
5 6 9
5 6 9
0 4 5
0 4 9
1 6 12
2 6 12
1 4 10
0 0 7
0 4 16
14 29 40
47 64 75
70 92 106
88 109 125
90 113 128
85 113 132
79 113 132
77 115 131
78 115 132
77 115 131
77 117 133
77 115 134
77 115 134
77 115 134
77 115 134
79 115 135
79 115 135
82 117 137
82 117 137
78 117 135
78 116 135
77 116 137
77 115 136
77 115 134
76 114 136
76 114 136
76 114 136
76 114 136
76 114 136
76 114 136
77 115 137
77 114 138
77 114 138
77 114 138
77 114 138
77 114 138
79 113 135
79 114 134
79 114 134
89 120 137
96 123 138
81 101 115
39 51 61
0 1 6
0 0 0
0 1 0
3 4 2
0 4 1
0 4 1
0 4 1
0 4 1
0 3 2
0 4 5
0 3 5
0 3 5
0 2 3
0 2 3
0 2 3
0 2 3
0 2 3
0 2 3
0 2 3
0 2 3
0 2 3
0 2 3
0 2 3
0 2 3
0 2 3
0 2 3
0 2 3
1 1 3
2 0 1
2 0 0
3 0 0
3 0 0
3 0 0
3 0 0
3 0 0
3 0 0
3 0 0
3 0 0
3 0 0
3 0 0
3 0 0
3 0 0
3 0 0
3 0 0
3 0 0
3 0 0
2 0 0
1 0 0
0 0 0
0 0 0
0 0 0
0 0 0
0 0 0
0 0 1
0 0 2
0 0 2
0 0 2
0 0 2
1 1 3
1 1 3
1 1 3
1 1 3
4 1 5
4 1 5
3 1 6
3 1 6
3 1 6
3 1 6
3 1 6
3 1 6
3 1 6
3 1 6
3 1 6
3 1 6
3 1 6
3 1 6
3 1 6
4 1 5
2 1 3
2 1 3
2 1 1
2 1 1
2 1 1
2 1 1
2 1 1
2 1 1
2 1 1
2 1 1
2 1 1
2 1 1
2 1 1
2 1 1
2 1 1
2 1 1
2 1 1
1 0 1
1 0 1
1 0 1
1 0 1
1 0 1
1 0 1
1 0 1
1 0 1
1 1 2
1 1 2
1 0 3
1 0 3
1 0 3
1 0 3
1 0 3
1 0 3
1 0 3
1 0 3
1 0 3
1 0 3
1 0 3
1 0 3
1 0 3
1 0 3
1 0 3
1 0 3
1 0 3
1 0 3
1 0 3
1 0 3
1 0 3
1 0 3
1 0 3
1 0 3
1 0 3
1 0 3
1 0 3
1 0 3
1 0 3
1 0 3
1 0 3
1 0 3
1 0 3
1 0 3
1 0 3
1 0 3
1 0 3
1 0 3
1 0 3
1 0 3
1 0 3
1 0 3
1 0 3
1 0 3
1 0 3
1 0 3
1 0 3
1 0 3
1 0 3
1 0 3
1 0 3
1 1 2
1 1 1
1 1 2
1 1 2
0 2 2
1 3 2
1 4 1
1 4 1
0 5 1
0 6 5
0 6 5
0 4 5
0 4 9
4 17 26
31 43 53
55 79 91
81 106 120
95 118 134
93 116 131
90 113 128
85 116 133
82 115 132
77 117 133
75 118 134
73 118 135
73 118 135
73 118 135
73 118 135
73 118 135
75 118 137
74 118 139
74 118 139
74 118 139
74 118 139
74 118 139
75 118 138
75 118 138
75 118 138
75 117 141
75 117 141
76 115 140
75 116 141
75 116 139
77 115 139
76 115 140
76 115 138
76 115 138
77 113 139
77 114 140
77 114 140
77 114 140
77 114 140
79 114 138
79 114 138
78 115 139
79 114 138
79 114 138
78 116 138
78 116 137
78 116 137
78 116 135
78 116 135
78 116 135
78 116 135
78 116 135
78 116 135
78 116 135
78 116 135
78 116 135
78 116 135
78 116 135
78 116 135
77 117 137
77 117 137
77 117 137
77 117 137
77 117 137
77 117 137
77 117 137
77 117 137
77 117 137
77 117 137
77 117 137
77 117 137
77 117 137
77 117 137
76 117 136
76 116 136
76 116 136
77 115 136
76 114 136
76 114 136
76 114 136
77 115 136
77 115 136
77 115 136
77 115 136
77 115 136
77 115 136
77 115 136
77 115 136
78 116 137
78 116 137
78 116 137
78 116 137
77 117 137
77 117 137
77 117 137
77 117 137
77 117 137
77 117 137
77 117 137
77 117 137
77 117 137
77 117 137
77 117 137
77 117 135
77 116 137
78 116 135
79 115 135
82 115 132
82 113 130
77 107 124
84 109 126
81 106 120
55 79 91
23 41 52
4 17 26
0 1 6
2 0 1
0 1 1
0 3 5
1 4 5
1 4 10
5 6 9
3 4 6
1 4 5
2 2 2
1 1 1
2 1 0
3 1 0
3 0 0
3 0 0
3 0 1
3 0 1
3 0 1
3 0 1
3 0 1
3 0 1
3 0 1
2 0 1
1 1 1
1 1 1
0 0 12
14 29 40
62 77 90
97 121 136
95 118 134
81 110 128
85 116 133
86 121 140
82 120 140
77 117 137
75 117 139
75 118 142
75 118 142
75 118 142
75 118 142
75 117 141
75 116 141
76 115 138
76 114 136
76 113 137
76 113 137
76 113 137
76 113 137
76 113 137
76 113 137
77 114 138
77 114 138
77 114 138
77 114 138
77 114 138
77 114 138
78 115 137
79 114 136
80 115 137
80 115 137
80 115 137
80 115 137
80 115 137
80 115 137
79 114 138
78 115 139
78 115 139
78 115 139
78 115 139
78 115 139
78 115 139
78 115 139
78 115 139
80 115 137
79 114 134
79 113 132
82 113 130
85 113 132
97 124 139
99 127 141
79 97 109
23 41 52
0 8 14
0 8 14
4 17 26
6 12 17
1 6 12
0 1 1
0 0 0
1 4 5
5 6 9
3 4 6
0 0 2
0 0 1
0 0 2
0 0 2
0 0 2
0 0 2
0 0 2
0 0 2
0 0 2
0 0 2
0 0 2
0 0 2
0 0 0
0 0 0
0 0 0
0 0 0
0 0 0
0 0 0
0 0 0
0 0 0
0 0 0
0 0 0
0 0 0
0 0 0
0 0 0
0 0 0
0 0 0
0 0 0
0 0 0
0 0 0
0 0 0
0 0 0
0 0 0
0 0 0
0 0 0
0 0 0
0 0 0
0 0 0
0 0 0
0 0 0
0 0 0
0 0 0
0 0 0
0 0 0
0 0 0
0 0 0
0 0 0
1 0 0
1 1 1
1 3 2
1 4 5
0 1 3
0 1 4
0 4 9
0 8 14
2 10 15
0 6 13
0 1 6
1 1 5
0 0 7
4 17 26
47 64 75
88 109 125
99 127 141
93 116 131
81 106 120
77 107 124
77 111 130
77 111 130
77 115 131
77 115 131
78 117 135
82 117 137
82 117 137
80 117 140
82 117 137
79 115 135
78 116 135
78 117 135
82 117 137
78 117 135
78 116 135
77 116 134
77 115 136
77 115 136
76 114 136
76 114 136
76 114 136
76 114 136
76 114 136
76 114 136
77 115 137
77 114 138
77 114 138
77 114 138
77 114 138
77 114 138
79 113 135
79 114 136
79 114 134
89 120 137
96 123 138
81 101 115
39 51 61
0 1 5
0 0 0
0 1 0
3 4 2
0 4 1
0 4 1
0 4 1
0 4 1
0 3 2
0 4 5
0 3 5
0 3 5
0 2 3
0 2 3
0 2 3
0 2 3
0 2 3
0 2 3
0 2 3
0 2 3
0 2 3
0 2 3
0 2 3
0 2 3
0 2 3
0 2 3
0 2 3
1 1 3
2 0 1
2 0 0
3 0 0
3 0 0
3 0 0
3 0 0
3 0 0
3 0 0
3 0 0
3 0 0
3 0 0
3 0 0
3 0 0
3 0 0
3 0 0
3 0 0
3 0 0
3 0 0
2 0 0
1 0 0
0 0 0
0 0 0
0 0 0
0 0 0
0 0 0
0 0 1
0 0 2
0 0 2
0 0 2
0 0 2
1 1 3
1 1 3
1 1 3
1 1 3
2 1 3
1 1 5
2 1 7
2 1 7
3 4 6
3 4 6
3 4 6
3 4 6
2 1 7
2 1 7
2 1 7
2 1 7
2 1 7
2 1 7
1 1 5
2 1 3
1 1 3
1 1 3
1 1 2
1 1 1
1 1 1
1 1 1
1 1 1
1 1 1
1 1 1
1 1 1
1 1 1
1 1 1
1 1 1
1 1 1
1 1 1
1 1 1
1 1 1
0 0 2
0 0 2
0 0 2
0 0 2
0 0 2
0 0 2
0 0 2
0 0 2
0 0 3
0 0 4
0 0 4
0 0 4
0 0 4
0 0 4
0 0 4
0 0 4
0 0 4
0 0 4
0 0 4
0 0 4
0 0 4
0 0 4
0 0 4
0 0 4
0 0 4
0 0 4
0 0 4
0 0 4
0 0 4
0 0 4
0 0 4
0 0 4
0 0 4
0 0 4
0 0 4
0 0 4
0 0 4
0 0 4
0 0 4
0 0 4
0 0 4
0 0 4
0 0 4
0 0 4
0 0 4
0 0 4
0 0 4
0 0 4
0 0 4
0 0 4
0 0 4
0 0 4
0 0 4
0 0 4
0 0 4
0 0 4
0 0 4
0 0 4
0 0 4
0 0 4
0 0 4
0 0 4
0 1 3
0 2 3
0 2 3
0 2 3
0 3 2
0 4 1
0 4 1
0 4 5
0 6 5
0 4 9
0 4 5
0 4 9
4 17 26
31 43 53
55 79 91
81 106 120
95 118 134
93 116 131
83 113 128
83 113 128
82 113 130
79 115 132
77 117 133
75 118 134
73 118 135
73 118 135
73 118 135
73 118 135
73 118 135
75 118 137
75 118 137
75 118 137
75 118 137
75 118 137
77 117 137
77 117 137
77 117 137
77 117 139
77 116 139
77 116 139
77 116 139
77 116 139
78 115 139
78 115 139
78 115 139
78 115 139
80 115 140
80 115 140
80 115 140
80 115 140
80 115 140
80 115 140
80 115 140
80 115 140
80 115 137
80 115 137
78 116 137
78 116 137
78 116 135
78 116 135
78 116 135
78 116 135
78 116 135
78 116 135
78 116 135
78 116 135
78 116 135
78 116 135
78 116 135
78 116 135
78 116 135
77 117 137
77 117 137
77 117 137
77 117 137
77 117 137
77 117 137
77 117 137
77 117 137
77 117 137
77 117 137
77 117 137
77 117 137
77 117 137
77 117 137
76 117 136
76 116 136
76 116 136
77 115 136
76 114 136
76 114 136
76 114 136
77 115 136
77 115 136
77 115 136
77 115 136
77 115 136
77 115 136
77 115 136
77 115 136
78 116 137
78 116 137
78 116 137
78 116 137
77 117 137
77 117 137
77 117 137
77 117 137
77 117 137
77 117 137
77 117 137
77 117 137
77 117 137
77 117 137
77 117 137
77 117 137
77 116 137
78 116 135
78 117 135
82 115 132
77 111 130
70 105 125
83 113 128
95 118 134
81 106 120
53 72 83
14 29 40
0 12 19
0 0 6
0 0 2
1 1 5
0 1 5
0 4 9
1 4 10
5 6 9
3 4 6
2 2 2
1 1 1
1 1 1
2 1 1
3 0 1
3 0 1
3 0 1
3 0 1
3 0 1
3 0 1
3 0 1
3 0 1
3 0 1
2 0 1
1 1 1
1 1 1
0 0 12
14 29 40
62 77 90
97 121 136
95 118 134
81 110 128
85 116 133
86 121 140
82 120 140
77 117 137
75 117 139
75 118 142
75 119 142
75 119 142
75 118 142
75 117 141
75 116 141
76 115 138
76 114 136
76 113 137
76 113 137
76 113 137
76 113 137
76 113 137
76 113 137
77 114 138
77 114 138
77 114 138
77 114 138
77 114 138
77 114 138
77 114 138
79 114 138
78 115 139
78 115 139
78 115 139
78 115 139
78 115 139
78 115 139
78 115 139
77 114 140
77 115 139
78 115 139
77 113 139
76 112 136
76 112 136
76 114 136
79 113 135
79 113 132
82 113 130
85 113 132
96 123 138
99 127 141
93 116 131
62 77 90
31 43 53
0 12 19
0 0 9
0 4 12
6 12 17
2 10 15
0 4 9
0 1 1
0 0 0
1 1 1
1 4 5
1 4 5
0 1 3
0 1 1
0 1 1
0 1 1
0 0 2
0 0 2
0 0 2
0 0 2
0 0 2
0 0 2
0 0 2
0 0 2
0 0 0
0 0 0
0 0 0
0 0 0
0 0 0
0 0 0
0 0 0
0 0 0
0 0 0
0 0 0
0 0 0
0 0 0
0 0 0
1 0 0
1 0 0
1 0 0
1 0 0
1 0 0
1 0 0
1 0 0
0 0 0
0 0 0
0 0 0
0 0 0
0 0 0
0 0 0
0 0 0
0 0 0
0 0 0
0 0 0
0 0 0
0 0 0
0 0 0
0 0 1
0 0 1
1 1 2
1 1 1
0 2 1
0 1 1
0 0 1
0 0 3
0 1 5
1 4 10
2 10 15
0 12 19
0 1 10
0 1 10
12 20 29
39 51 61
70 92 106
95 118 134
99 127 141
91 117 133
77 107 124
77 107 124
77 111 130
76 113 132
76 113 132
77 115 134
77 116 134
82 117 137
82 117 137
82 118 141
80 117 140
78 116 137
78 116 135
78 116 137
78 116 137
78 116 135
78 116 135
77 116 137
77 115 136
77 115 136
76 115 135
76 115 135
76 115 135
76 115 135
77 115 136
77 115 137
77 115 137
77 114 138
77 114 138
77 114 138
77 114 138
77 114 138
79 113 135
79 114 136
79 114 134
89 120 137
96 123 138
81 101 115
39 51 61
0 1 5
0 0 0
0 1 0
3 4 2
0 5 1
0 5 1
0 4 1
0 5 1
0 4 1
0 3 2
0 3 5
0 3 5
0 2 4
0 2 4
0 2 4
0 2 4
0 2 4
0 2 4
0 2 4
0 2 4
0 2 4
0 2 4
0 2 4
0 2 4
0 2 4
0 2 4
0 2 3
1 1 3
2 0 1
2 0 0
3 0 0
3 0 0
3 0 0
3 0 0
3 0 0
3 0 0
3 0 0
3 0 0
3 0 0
3 0 0
3 0 0
3 0 0
3 0 0
3 0 0
3 0 0
3 0 0
2 0 0
1 0 0
0 0 0
0 0 0
0 0 0
0 0 0
0 0 0
0 0 1
0 0 2
0 0 2
0 0 2
0 0 2
1 1 2
1 1 2
1 1 2
0 0 2
1 1 5
0 1 6
2 1 7
2 1 7
2 4 11
6 8 13
6 8 13
5 6 9
2 1 7
0 0 4
0 0 4
1 1 5
1 1 5
1 1 5
0 0 4
1 1 2
0 0 2
0 0 2
0 0 1
0 0 0
0 0 0
0 0 0
0 0 0
0 0 0
0 0 0
0 0 1
0 0 1
0 0 0
0 0 0
0 0 0
0 0 0
0 0 0
0 0 1
0 0 2
0 0 3
0 0 3
0 0 3
0 0 3
0 0 3
0 0 3
0 0 3
0 0 4
0 0 5
0 0 5
0 0 5
0 0 5
0 0 5
0 0 5
0 0 5
0 0 5
0 0 5
0 0 5
0 0 5
0 0 5
0 0 5
0 0 5
0 0 5
0 0 5
0 0 5
0 0 5
0 0 5
0 0 5
0 0 5
0 0 5
0 0 5
0 0 5
0 0 5
0 0 5
0 0 5
0 0 5
0 0 5
0 0 5
0 0 5
0 0 5
0 0 5
0 0 5
0 0 5
0 0 5
0 0 5
0 0 5
0 0 5
0 0 5
0 0 5
0 0 5
0 0 5
0 0 5
0 0 5
0 0 5
0 0 5
0 0 5
0 0 5
0 0 5
0 0 5
0 0 5
0 0 5
0 0 5
0 0 4
0 0 3
0 1 3
0 2 1
0 3 2
0 3 2
0 3 2
1 4 5
0 6 5
0 3 2
0 4 5
4 17 26
31 43 53
55 79 91
81 106 120
93 116 131
93 116 131
84 109 126
77 107 124
77 107 124
79 113 127
77 115 131
77 117 133
75 117 131
75 118 134
75 118 134
75 118 134
75 118 134
75 116 134
75 116 134
75 116 134
75 116 134
77 116 134
78 116 135
77 115 134
77 115 134
77 115 134
78 115 137
78 116 138
80 117 140
82 120 140
82 118 141
82 118 141
86 121 140
86 121 140
86 121 140
86 121 140
82 118 141
82 118 141
82 118 141
82 118 141
82 116 140
82 116 140
80 115 140
80 115 137
79 115 135
77 115 136
78 116 135
77 116 134
77 116 134
77 116 134
77 116 134
78 116 135
78 116 135
78 116 135
78 116 135
78 116 135
78 116 135
78 116 135
78 116 135
77 117 137
77 117 137
77 117 137
77 117 137
77 117 137
77 117 137
77 117 137
77 117 137
77 117 137
77 117 137
77 117 137
77 117 137
77 117 137
77 117 137
76 117 136
76 117 136
75 116 137
76 115 135
76 115 135
76 115 135
76 115 135
76 116 136
76 116 136
76 116 136
76 116 136
77 116 137
77 116 137
77 116 137
77 116 137
77 117 137
77 117 137
77 117 137
77 117 137
77 117 137
77 117 137
77 117 137
77 117 137
77 117 137
77 117 137
77 117 137
77 117 137
77 117 137
77 117 137
77 117 137
77 117 137
77 116 137
78 116 135
82 117 137
82 115 136
77 111 130
77 107 124
82 113 130
93 121 136
93 121 136
81 101 115
47 64 75
14 29 40
0 6 13
0 0 6
2 1 7
1 1 8
0 4 9
1 4 10
3 4 6
1 2 3
1 1 2
0 1 1
0 0 1
1 1 2
1 1 2
2 0 2
3 0 2
3 0 2
2 0 2
2 0 2
3 0 1
3 0 1
3 0 1
3 0 1
2 0 1
2 0 1
0 0 12
14 29 40
62 77 90
97 121 136
95 118 134
81 110 128
85 116 133
86 121 140
82 120 140
77 117 137
75 117 139
75 118 142
75 119 142
75 119 142
75 118 142
75 117 141
75 116 141
76 115 138
76 114 136
76 113 137
76 113 137
76 113 137
76 113 137
76 113 137
76 113 137
77 114 138
77 114 138
77 114 138
77 114 138
77 114 138
77 114 138
76 115 140
76 115 140
77 116 142
77 116 142
77 116 142
77 116 142
77 116 142
77 116 142
77 116 140
77 114 138
76 113 137
76 112 136
75 113 134
71 110 131
77 111 130
77 111 130
79 113 132
85 113 132
85 116 133
90 116 132
99 127 141
99 127 141
70 92 106
23 29 39
0 0 6
0 0 9
0 12 19
0 8 14
0 4 9
0 4 5
0 4 5
0 3 2
1 3 2
2 2 2
2 2 2
1 2 3
0 2 3
0 2 3
0 2 3
0 1 3
0 0 2
0 0 2
0 0 2
0 0 2
0 0 2
0 0 2
0 0 2
0 0 2
0 0 0
0 0 0
0 0 0
0 0 0
0 0 0
0 0 0
0 0 0
0 0 0
0 0 0
0 0 0
0 0 0
0 0 0
1 0 0
2 0 0
2 0 0
2 0 0
2 0 0
2 0 0
2 0 0
2 0 0
1 0 0
0 0 0
0 0 0
0 0 0
0 0 0
0 0 0
0 0 0
0 0 0
0 0 0
0 0 0
0 0 0
0 0 0
0 0 0
0 0 1
0 0 2
0 0 3
0 0 2
0 0 0
0 0 0
0 0 3
0 0 6
0 0 5
0 0 7
2 6 12
4 17 26
4 17 26
12 20 29
39 51 61
71 97 112
93 116 131
85 113 132
84 109 126
81 110 128
82 113 130
79 113 132
77 115 131
76 113 132
76 113 132
75 113 134
77 115 134
79 115 135
82 117 137
80 117 140
80 117 140
78 116 138
78 116 137
78 116 137
78 116 137
78 116 137
78 116 137
78 116 137
77 115 136
77 115 136
77 115 136
77 115 136
77 115 136
77 115 136
77 115 136
77 115 137
77 114 138
77 114 138
77 114 138
77 114 138
77 114 138
77 114 138
79 113 135
79 114 136
79 114 134
89 120 137
96 123 138
81 101 115
39 51 61
0 1 5
0 0 0
0 1 0
3 4 2
0 5 1
0 5 1
0 5 1
0 5 1
0 4 1
0 4 1
0 3 2
0 3 5
0 2 4
0 2 4
0 1 5
0 1 5
0 1 5
0 1 5
0 1 5
0 1 5
0 1 5
0 1 5
0 1 5
0 1 5
0 1 5
0 1 5
0 1 4
1 1 3
2 0 1
2 0 0
3 0 0
3 0 0
3 0 0
3 0 0
3 0 0
3 0 0
3 0 0
3 0 0
3 0 0
3 0 0
3 0 0
3 0 0
3 0 0
3 0 0
3 0 0
3 0 0
2 0 0
1 0 0
0 0 0
0 0 0
0 0 0
0 0 0
0 0 0
0 0 1
0 0 2
0 0 2
0 0 2
0 0 2
0 0 2
0 0 1
0 0 1
0 0 1
0 0 3
0 1 6
1 1 8
2 4 11
2 6 12
6 8 13
6 8 13
6 8 13
2 1 7
0 0 4
0 0 4
0 0 5
0 0 5
0 0 5
0 0 4
0 0 3
0 0 2
0 0 2
0 0 1
0 0 0
0 0 0
0 0 0
0 0 0
0 0 0
0 0 1
0 0 2
0 0 2
0 0 2
0 0 2
0 0 2
0 0 2
0 0 2
0 0 3
0 0 4
0 0 5
0 0 5
0 0 5
0 0 5
0 0 5
0 0 5
0 0 5
0 0 6
0 0 7
0 0 7
0 0 7
0 0 7
0 0 7
0 0 7
0 0 7
0 0 7
0 0 7
0 0 7
0 0 7
0 0 7
0 0 7
0 0 7
0 0 7
0 0 7
0 0 7
0 0 7
0 0 7
0 0 7
0 0 7
0 0 7
0 0 7
0 0 7
0 0 7
0 0 7
0 0 7
0 0 7
0 0 7
0 0 7
0 0 7
0 0 7
0 0 7
0 0 7
0 0 7
0 0 7
0 0 7
0 0 7
0 0 7
0 0 7
0 0 7
0 0 7
0 0 7
0 0 7
0 0 7
0 0 7
0 0 7
0 0 7
0 0 7
0 0 7
0 0 7
0 0 7
0 0 7
0 0 7
0 0 6
0 0 5
0 1 4
0 2 3
0 3 2
0 3 2
0 3 2
0 6 5
0 6 5
0 3 2
0 4 5
4 17 26
31 43 53
55 79 91
81 101 115
93 116 131
93 116 131
84 109 126
81 106 120
70 105 125
77 107 124
79 113 127
77 115 131
77 115 131
77 115 131
76 113 132
76 113 132
76 113 132
76 113 132
76 113 132
76 113 132
76 113 132
76 113 132
79 113 132
79 113 132
79 113 132
79 113 132
79 115 135
82 117 137
82 117 137
82 120 140
86 121 140
86 121 140
87 124 142
87 124 142
87 124 142
87 124 142
87 124 142
86 121 140
86 121 140
82 118 141
82 116 140
82 116 140
80 115 137
80 115 137
79 114 134
79 114 134
79 114 134
77 115 134
77 115 134
77 115 134
77 115 134
78 116 135
78 116 135
78 116 135
78 116 135
78 116 135
78 116 135
78 116 135
78 116 135
77 117 137
77 117 137
77 117 137
77 117 137
77 117 137
77 117 137
77 117 137
77 117 137
77 117 137
77 117 137
77 117 137
77 117 137
77 117 137
77 117 137
77 117 137
77 117 137
77 117 137
76 116 136
76 116 136
76 116 136
76 116 136
76 116 136
76 116 136
76 116 136
76 116 136
77 117 137
77 117 137
77 117 137
77 117 137
77 117 137
77 117 137
77 117 137
77 117 137
77 117 137
77 117 137
77 117 137
77 117 137
77 117 137
77 117 137
77 117 137
77 117 137
77 117 137
77 117 137
77 117 137
77 117 137
77 117 137
78 116 137
78 116 137
80 115 137
79 113 132
77 111 130
82 113 130
85 113 132
93 121 136
97 121 136
71 97 112
31 51 61
12 20 29
0 4 16
0 1 13
0 1 10
0 4 12
0 4 9
0 1 6
0 1 4
0 1 4
0 1 3
0 0 2
0 0 2
0 0 2
1 1 2
2 0 2
2 0 2
2 0 2
2 0 2
3 0 1
3 0 1
3 0 1
3 0 1
3 0 1
3 0 1
0 0 12
14 29 40
62 77 90
97 121 136
95 118 134
81 110 128
85 116 133
86 121 140
82 120 140
77 117 137
75 117 139
75 118 142
75 119 142
75 119 142
75 118 142
75 117 141
75 116 141
76 115 138
76 114 136
76 113 137
76 113 137
76 113 137
76 113 137
76 113 137
76 113 137
77 114 138
77 114 138
77 114 138
77 114 138
77 114 138
77 114 140
76 115 140
75 116 141
75 116 141
77 116 142
77 116 142
77 116 142
75 116 141
75 117 141
77 116 142
77 114 138
75 113 134
70 105 125
70 105 125
77 111 130
77 111 130
79 113 132
85 113 132
90 116 132
97 121 136
95 118 134
88 109 125
68 87 100
31 51 61
0 8 14
0 0 0
1 4 10
6 12 17
2 10 15
0 4 5
0 3 5
1 4 5
1 3 2
3 4 2
3 2 1
3 2 1
2 1 1
0 2 2
0 2 3
0 2 3
0 1 3
0 0 2
0 0 2
0 0 2
0 0 2
0 0 2
0 0 2
0 0 2
0 0 2
0 0 0
0 0 0
0 0 0
0 0 0
0 0 0
0 0 0
0 0 0
0 0 0
0 0 0
0 0 0
0 0 0
0 0 0
1 0 0
2 0 0
2 0 0
2 0 0
2 0 0
2 0 0
2 0 0
2 0 0
1 0 0
0 0 0
0 0 0
0 0 0
0 0 0
0 0 0
0 0 0
0 0 0
0 0 0
0 0 0
0 0 0
0 0 0
0 0 0
0 0 1
0 0 2
0 0 3
0 0 3
2 1 3
3 1 6
2 1 7
1 1 8
2 6 12
6 8 13
0 4 16
0 12 19
14 29 40
47 64 75
81 101 115
96 123 138
96 123 138
77 107 124
71 97 112
70 105 125
77 111 130
78 115 132
78 115 132
77 115 134
76 113 132
77 115 134
77 115 134
78 116 135
78 116 135
78 116 137
78 116 138
78 116 137
78 116 137
78 116 137
78 116 137
78 116 137
78 116 137
78 116 137
77 115 136
77 115 136
77 115 136
77 115 136
77 115 136
77 115 136
77 115 136
77 115 137
77 114 138
77 114 138
77 114 138
77 114 138
77 114 138
77 114 138
76 113 137
79 115 135
79 115 132
83 118 136
96 123 138
81 101 115
39 51 61
0 1 5
0 0 0
0 1 0
3 4 2
0 5 1
0 5 1
0 5 1
0 5 1
0 4 1
0 4 1
0 3 2
0 3 5
0 1 5
0 1 5
0 1 5
0 1 5
0 1 5
0 1 5
0 1 5
0 1 5
0 1 5
0 1 5
0 1 5
0 1 5
0 1 5
0 1 5
0 1 4
1 1 3
2 0 1
2 0 0
3 0 0
3 0 0
3 0 0
3 0 0
3 0 0
3 0 0
3 0 0
3 0 0
3 0 0
3 0 0
3 0 0
3 0 0
3 0 0
3 0 0
3 0 0
3 0 0
2 0 0
1 0 0
0 0 0
0 0 0
0 0 0
0 0 0
0 0 0
0 0 1
0 0 2
0 0 2
0 0 2
0 0 2
0 0 2
0 0 2
0 0 2
0 0 1
0 0 1
0 1 5
2 4 11
6 8 13
6 8 13
6 8 13
6 8 13
5 6 9
2 4 11
1 4 10
1 4 10
1 4 10
1 4 10
1 4 10
1 4 10
1 4 10
0 4 9
0 4 9
1 4 5
1 4 5
1 4 5
1 4 5
1 4 5
1 4 5
1 4 5
0 4 9
0 4 9
1 4 10
1 4 10
1 4 10
1 4 10
1 4 10
1 4 10
2 4 11
2 4 11
2 4 11
2 4 11
2 4 11
2 4 11
2 4 11
2 4 11
2 4 11
2 4 11
2 6 12
2 6 12
2 6 12
2 6 12
2 6 12
2 6 12
2 6 12
2 6 12
2 6 12
2 6 12
2 6 12
2 6 12
2 6 12
2 6 12
2 6 12
2 6 12
2 6 12
2 6 12
2 6 12
2 6 12
2 6 12
2 6 12
2 6 12
2 6 12
2 6 12
2 6 12
2 6 12
2 6 12
2 6 12
2 6 12
2 6 12
2 6 12
2 6 12
2 6 12
2 6 12
2 6 12
2 6 12
2 6 12
2 6 12
2 6 12
2 6 12
2 6 12
2 6 12
2 6 12
2 6 12
2 6 12
2 6 12
2 6 12
2 6 12
2 6 12
2 6 12
2 4 11
2 6 12
2 6 12
2 4 11
2 6 12
5 6 9
5 6 9
5 6 9
5 6 9
2 10 15
2 10 15
2 6 12
2 10 15
12 20 29
31 43 53
53 72 83
81 101 115
93 116 131
93 116 131
84 109 126
71 97 112
71 97 112
77 107 124
77 107 124
79 113 127
77 107 124
77 107 124
77 107 124
77 107 124
77 107 124
77 107 124
77 107 124
77 107 124
77 107 124
77 111 130
77 111 130
77 111 130
77 111 130
77 111 130
82 113 130
82 115 132
82 115 132
82 115 136
82 115 136
83 113 135
82 115 136
82 115 136
82 117 137
82 117 137
82 117 137
82 117 137
82 117 137
82 115 136
82 113 136
82 113 136
79 113 135
79 113 135
79 113 135
79 114 134
79 114 134
77 115 134
77 115 134
77 115 134
77 115 134
78 116 135
78 116 135
78 116 135
78 116 135
78 116 135
78 116 135
78 116 135
78 116 135
77 117 137
77 117 137
77 117 137
77 117 137
77 117 137
77 117 137
77 117 137
77 117 137
77 117 137
77 117 137
77 117 137
77 117 137
77 117 137
77 117 137
77 117 137
77 117 137
77 117 137
76 116 136
76 116 136
76 116 136
76 116 136
76 116 136
76 116 136
76 116 136
76 116 136
77 117 137
77 117 137
77 117 137
77 117 137
77 117 137
77 117 137
77 117 137
77 117 137
77 117 137
77 117 137
77 117 137
77 117 137
77 117 137
77 117 137
77 117 137
77 117 137
77 117 137
77 117 137
77 117 137
77 117 137
77 117 137
77 117 137
78 116 137
80 115 137
79 114 136
79 113 132
81 110 128
77 107 124
85 113 132
96 123 138
90 116 132
68 87 100
31 51 61
12 20 29
0 1 13
0 1 13
2 6 12
1 4 10
0 0 6
0 1 6
0 4 9
0 1 6
0 0 3
0 0 2
0 0 2
0 0 2
1 1 2
2 0 2
2 0 2
3 0 2
3 0 1
3 0 1
3 0 1
3 0 1
3 0 1
3 0 1
0 0 12
14 29 40
62 77 90
97 121 136
95 118 134
81 110 128
85 116 133
86 121 140
82 120 140
77 117 137
75 117 139
75 118 142
75 119 142
75 119 142
75 118 142
75 117 141
75 116 141
76 115 138
76 114 136
76 113 137
76 113 137
76 113 137
76 113 137
76 113 137
76 113 137
77 114 138
77 114 138
77 114 138
77 114 138
77 115 139
76 115 140
74 114 140
75 116 141
75 116 141
75 116 141
75 116 141
75 116 141
75 116 141
75 117 141
78 117 140
78 115 139
71 110 131
70 105 125
70 105 125
77 111 130
85 113 132
85 116 133
89 118 136
95 118 134
95 118 134
81 106 120
55 79 91
23 41 52
4 17 26
0 6 13
0 8 14
2 10 15
2 10 15
1 6 12
0 4 5
1 4 5
2 3 2
3 2 1
4 2 0
4 2 0
4 2 0
3 1 0
1 1 1
0 2 2
0 2 3
0 1 3
0 0 2
0 0 2
0 0 2
0 0 2
0 0 2
0 0 2
0 0 2
0 0 2
0 0 0
0 0 0
0 0 0
0 0 0
0 0 0
0 0 0
0 0 0
0 0 0
0 0 0
0 0 0
0 0 0
0 0 0
1 0 0
2 0 0
2 0 0
2 0 0
2 0 0
2 0 0
2 0 0
2 0 0
1 0 0
0 0 0
0 0 0
0 0 0
0 0 0
0 0 0
0 0 0
0 0 0
0 0 0
0 0 0
0 0 0
0 0 0
0 0 0
0 0 1
0 0 2
0 0 3
0 0 4
2 4 11
2 4 11
0 0 9
0 0 12
6 12 17
12 20 29
4 17 26
12 20 29
47 64 75
81 106 120
99 127 141
99 127 141
85 116 133
81 110 128
70 105 125
70 105 125
70 105 125
76 113 132
77 115 134
77 115 134
76 113 132
77 115 134
77 115 134
77 115 134
77 115 134
77 115 134
77 115 136
77 115 136
77 115 136
78 116 135
78 116 137
78 116 137
78 116 137
78 116 137
77 115 136
77 115 136
77 115 136
77 115 136
77 115 136
77 115 136
77 115 136
77 115 137
77 114 138
77 114 138
77 114 138
77 114 138
77 114 138
77 114 138
76 114 136
77 116 137
78 115 132
83 118 136
96 123 138
81 101 115
39 51 61
0 0 5
0 0 0
0 0 0
3 4 2
0 5 1
0 5 1
0 5 1
0 5 1
0 4 1
0 3 2
0 2 3
0 2 4
0 1 5
0 1 5
0 1 5
0 1 5
0 1 5
0 1 5
0 1 5
0 1 5
0 1 5
0 1 5
0 1 5
0 1 5
0 1 5
0 1 5
0 1 4
1 1 3
2 0 1
2 0 0
3 0 0
3 0 0
3 0 0
3 0 0
3 0 0
3 0 0
3 0 0
3 0 0
3 0 0
3 0 0
3 0 0
3 0 0
3 0 0
3 0 0
3 0 0
3 0 0
2 0 0
1 0 0
0 0 0
0 0 0
0 0 0
0 0 0
0 0 0
0 0 1
0 0 2
0 0 2
0 0 2
0 0 2
0 0 2
0 0 3
0 0 4
0 0 2
0 0 1
0 2 4
2 6 12
2 10 15
2 10 15
2 6 12
1 1 5
1 1 5
1 4 10
0 8 14
0 8 14
1 6 12
1 6 12
1 6 12
1 6 12
1 6 12
1 6 12
1 6 12
1 6 12
1 6 12
1 6 12
1 6 12
1 6 12
1 6 12
1 6 12
1 6 12
1 6 12
1 6 12
1 6 12
1 6 12
1 6 12
1 6 12
1 6 12
0 8 14
0 8 14
0 6 13
0 6 13
0 6 13
0 6 13
0 6 13
0 6 13
0 4 16
0 4 16
0 4 16
0 4 16
0 4 16
0 4 16
0 4 16
0 4 16
0 4 16
0 4 16
0 4 16
0 4 16
0 4 16
0 4 16
0 4 16
0 4 16
0 4 16
0 4 16
0 4 16
0 4 16
0 4 16
0 4 16
0 4 16
0 4 16
0 4 16
0 4 16
0 4 16
0 4 16
0 4 16
0 4 16
0 4 16
0 4 16
0 4 16
0 4 16
0 4 16
0 4 16
0 4 16
0 4 16
0 4 16
0 4 16
0 4 16
0 4 16
0 4 16
0 4 16
0 4 16
0 4 16
0 4 16
0 4 16
0 4 16
0 4 16
0 4 16
0 4 16
0 4 16
0 4 16
0 8 14
2 10 15
0 8 14
0 8 14
2 10 15
2 10 15
2 10 15
2 10 15
2 10 15
2 10 15
2 10 15
2 10 15
4 17 26
31 43 53
53 72 83
81 101 115
95 118 134
97 121 136
90 113 128
81 106 120
81 106 120
77 107 124
79 113 127
79 113 127
79 113 127
79 113 127
79 113 127
79 113 127
79 113 127
79 113 127
79 113 127
79 113 127
79 113 127
81 110 128
81 110 128
81 110 128
83 113 128
82 113 130
85 113 132
85 113 132
85 113 132
85 113 132
85 113 132
82 113 130
81 110 128
81 110 128
81 110 128
81 110 128
79 113 132
83 113 135
83 113 135
83 113 135
83 113 135
79 113 132
79 113 132
79 113 132
79 113 135
79 114 134
77 115 134
77 115 134
77 115 134
77 115 134
77 115 134
78 116 135
78 116 135
78 116 135
78 116 135
78 116 135
78 116 135
78 116 135
78 116 135
77 117 137
77 117 137
77 117 137
77 117 137
77 117 137
77 117 137
77 117 137
77 117 137
77 117 137
77 117 137
77 117 137
77 117 137
77 117 137
77 117 137
77 117 137
77 117 137
77 117 137
76 116 136
76 116 136
76 116 136
76 116 136
76 116 136
76 116 136
76 116 136
76 116 136
77 117 137
77 117 137
77 117 137
77 117 137
77 117 137
77 117 137
77 117 137
77 117 137
77 117 137
77 117 137
77 117 137
77 117 137
77 117 137
77 117 137
77 117 137
77 117 137
77 117 137
77 117 137
77 117 137
77 117 137
77 117 137
77 117 137
77 117 137
78 116 137
80 115 137
79 113 135
77 111 130
77 107 124
77 107 124
81 110 128
91 117 133
90 113 128
68 87 100
23 41 52
0 12 19
0 1 13
0 4 16
0 4 12
0 4 9
0 4 12
0 4 12
0 2 9
0 0 4
0 0 2
0 0 2
0 0 2
0 0 2
1 1 2
2 0 2
3 0 2
3 0 1
3 0 1
3 0 1
3 0 1
3 0 1
3 0 1
0 0 12
14 29 40
62 77 90
97 121 136
95 118 134
81 110 128
85 116 133
86 121 140
82 120 140
77 117 137
75 117 139
75 118 142
75 119 142
75 119 142
75 118 142
75 117 141
75 116 141
76 115 138
76 114 136
76 113 137
76 113 137
76 113 137
76 113 137
76 113 137
76 113 137
77 114 138
77 114 138
77 114 138
77 114 138
77 115 139
76 115 140
74 114 140
75 116 141
75 118 142
75 118 142
75 118 142
75 118 142
75 116 141
75 117 141
78 117 140
78 115 139
70 105 125
70 105 125
70 105 125
81 110 128
85 116 133
89 118 136
97 121 136
93 116 131
79 97 109
53 72 83
23 41 52
4 17 26
0 12 19
0 12 19
6 12 17
2 10 15
2 6 12
1 4 5
0 3 2
2 3 2
3 4 2
4 2 0
4 2 0
4 2 0
4 2 0
3 1 0
1 1 1
0 1 1
0 2 2
0 1 1
0 0 1
0 0 1
0 0 1
0 0 2
0 0 2
0 0 2
0 0 2
0 0 2
0 0 0
0 0 0
0 0 0
0 0 0
0 0 0
0 0 0
0 0 0
0 0 0
0 0 0
0 0 0
0 0 0
0 0 0
1 0 0
1 0 0
1 0 0
1 0 0
1 0 0
1 0 0
1 0 0
1 0 0
1 0 0
0 0 0
0 0 0
0 0 0
0 0 0
0 0 0
0 0 0
0 0 0
0 0 0
0 0 0
0 1 0
0 1 0
0 1 0
0 0 1
0 0 2
0 0 4
0 0 5
3 4 6
2 1 7
0 0 9
0 1 10
0 4 16
12 20 29
23 41 52
47 64 75
79 97 109
97 121 136
96 123 138
81 110 128
79 113 132
87 124 142
86 122 140
71 110 131
70 105 125
71 110 131
76 115 135
75 116 134
75 113 134
77 115 134
77 115 134
77 115 134
77 115 134
77 115 134
77 115 136
77 115 136
77 115 136
78 116 135
78 116 137
78 116 137
78 116 137
78 116 137
77 115 136
77 115 136
77 115 136
77 115 136
77 115 136
77 115 136
77 115 136
77 115 137
77 114 138
77 114 138
77 114 138
77 114 138
77 114 138
77 114 138
76 114 136
77 116 137
78 115 132
83 118 136
96 123 138
81 101 115
39 51 61
0 0 5
0 0 0
0 0 0
3 4 2
0 5 1
0 5 1
0 5 1
0 5 1
0 4 1
0 3 2
0 2 3
0 2 4
0 1 4
0 1 4
0 1 4
0 1 4
0 1 4
0 1 4
0 1 4
0 1 4
0 1 4
0 1 4
0 1 4
0 1 4
0 1 4
0 1 4
0 1 4
1 1 3
2 0 1
2 0 0
3 0 0
3 0 0
3 0 0
3 0 0
3 0 0
3 0 0
3 0 0
3 0 0
3 0 0
3 0 0
3 0 0
3 0 0
3 0 0
3 0 0
3 0 0
3 0 0
2 0 0
1 0 0
0 0 0
0 0 0
0 0 0
0 0 0
0 0 0
0 0 1
0 0 2
0 0 2
0 0 2
0 0 2
0 1 1
0 1 3
0 0 4
0 0 3
0 0 3
1 1 5
2 4 11
2 6 12
1 6 12
0 0 6
0 0 0
0 0 0
0 0 0
0 0 3
0 0 3
0 0 2
0 0 3
0 0 3
0 0 3
0 0 3
0 0 2
0 0 2
0 0 2
0 0 3
0 0 3
0 0 3
0 0 3
0 0 3
0 0 2
0 0 2
0 0 3
0 0 5
0 0 5
0 0 5
0 0 5
0 0 5
0 0 4
0 0 5
0 0 5
0 0 9
0 0 9
0 0 9
0 0 9
0 0 9
0 0 9
0 0 7
0 0 7
0 0 9
0 1 10
0 1 10
0 1 10
0 1 10
0 1 10
0 1 10
0 1 10
0 1 10
0 1 10
0 1 10
0 1 10
0 1 10
0 1 10
0 1 10
0 1 10
0 1 10
0 1 10
0 1 10
0 1 10
0 1 10
0 1 10
0 1 10
0 1 10
0 1 10
0 1 10
0 1 10
0 1 10
0 1 10
0 1 10
0 1 10
0 1 10
0 1 10
0 1 10
0 1 10
0 1 10
0 1 10
0 1 10
0 1 10
0 1 10
0 1 10
0 1 10
0 1 10
0 1 10
0 1 10
0 1 10
0 1 10
0 1 10
0 1 10
0 1 10
0 0 9
0 0 7
0 0 6
0 0 6
0 0 5
0 0 4
0 0 4
0 1 3
0 2 2
0 2 1
0 3 2
0 4 5
0 2 0
0 3 2
4 17 26
31 43 53
62 77 90
81 106 120
97 121 136
99 127 141
97 124 139
93 121 136
93 121 136
96 123 138
97 124 139
97 124 139
96 123 138
97 124 139
97 124 139
97 124 139
97 124 139
97 124 139
97 124 139
97 124 139
97 124 139
97 124 139
97 124 139
97 124 139
97 124 139
97 124 139
97 124 139
97 124 139
96 123 138
96 123 138
93 121 136
89 118 136
89 118 136
90 116 132
85 113 132
85 113 132
85 113 132
85 113 132
85 113 132
85 113 132
83 113 135
83 113 135
79 113 132
79 113 132
79 113 135
79 114 134
77 115 134
77 115 134
77 115 134
77 115 134
77 115 134
78 116 135
78 116 135
78 116 135
78 116 135
78 116 135
78 116 135
78 116 135
77 116 134
77 117 135
77 117 135
77 117 135
77 117 135
77 117 135
77 117 137
77 117 137
77 117 137
77 117 139
77 117 139
77 117 139
77 117 139
77 117 139
76 117 138
76 117 138
76 117 138
77 116 138
77 115 137
75 116 137
75 116 137
76 116 136
76 116 136
76 116 136
76 116 136
76 116 136
77 117 137
77 117 137
77 117 137
77 117 137
77 117 137
77 117 137
77 117 137
77 117 137
77 117 137
77 117 137
77 117 137
77 117 137
77 117 137
77 117 137
77 117 137
77 117 137
77 117 137
77 117 137
77 117 137
77 117 137
77 116 137
77 117 139
77 117 137
77 117 137
78 116 137
79 115 135
77 111 130
70 105 125
70 105 125
70 105 125
85 113 132
99 127 141
90 113 128
53 72 83
24 35 46
0 12 19
0 1 13
0 4 16
0 12 19
0 4 16
0 1 10
0 0 6
0 0 4
0 0 2
0 0 1
0 0 1
0 0 2
0 0 2
1 1 2
2 0 2
3 0 1
3 0 1
3 0 1
3 0 1
3 0 1
3 0 1
0 0 12
14 29 40
62 77 90
97 121 136
95 118 134
81 110 128
85 116 133
86 121 140
82 120 140
77 117 137
74 118 139
75 119 142
75 119 142
75 119 142
75 118 142
75 117 141
75 116 139
76 115 138
77 114 138
77 114 138
77 114 138
77 114 138
77 114 138
77 114 138
77 114 138
77 114 138
77 114 138
77 114 138
77 114 138
76 115 140
76 115 140
75 116 141
75 116 141
75 118 142
75 118 142
75 118 142
75 118 142
73 117 141
75 117 141
78 117 140
78 115 139
71 110 131
70 105 125
70 105 125
82 113 130
93 121 136
95 118 134
93 116 131
79 97 109
47 64 75
14 29 40
4 17 26
4 17 26
4 17 26
0 12 19
0 8 14
0 4 9
0 3 5
0 1 1
0 2 1
1 4 1
3 4 2
4 2 0
4 2 0
4 2 0
4 2 0
2 1 1
1 1 1
1 1 1
1 1 1
1 1 1
0 0 0
0 0 0
0 0 0
0 0 1
0 0 2
0 0 2
0 0 2
0 0 1
0 0 0
0 0 0
0 0 0
0 0 0
0 0 0
0 0 0
0 0 0
0 0 0
0 0 0
0 0 0
0 0 0
0 0 0
0 0 0
0 0 0
0 0 0
0 0 0
0 0 0
0 0 0
0 0 0
0 0 0
0 0 0
0 0 0
0 0 0
0 0 0
0 0 0
0 0 0
0 0 0
0 0 0
0 0 0
0 1 0
0 1 0
0 1 0
0 1 0
0 0 1
0 0 3
0 0 5
0 0 6
0 1 5
1 1 5
0 0 9
0 1 13
0 4 16
23 29 39
53 72 83
90 113 128
99 127 141
90 116 132
71 97 112
71 97 112
76 113 132
99 127 141
99 127 141
78 118 139
71 110 131
72 113 134
75 116 136
73 115 135
73 115 135
76 115 135
77 115 134
77 115 134
77 115 134
77 115 134
77 115 136
77 115 136
77 115 136
77 116 137
78 116 137
78 116 137
78 116 137
77 116 137
76 116 136
76 116 136
76 116 136
76 116 136
76 116 136
76 116 136
76 116 136
75 116 137
76 115 138
76 115 138
76 115 138
76 115 138
76 115 138
76 115 138
76 114 136
77 116 137
78 115 132
83 118 136
96 123 138
81 101 115
39 51 61
0 0 5
0 0 0
0 0 0
3 4 2
0 5 1
0 5 1
0 5 1
0 5 1
0 4 1
0 3 2
0 2 3
0 2 3
0 2 3
0 2 3
0 2 3
0 2 3
0 2 3
0 2 3
0 2 3
0 2 3
0 2 3
0 2 3
0 2 3
0 2 3
0 2 3
0 2 3
0 2 3
1 1 3
2 0 1
2 0 0
3 0 0
3 0 0
3 0 0
3 0 0
3 0 0
3 0 0
3 0 0
3 0 0
3 0 0
3 0 0
3 0 0
3 0 0
3 0 0
3 0 0
3 0 0
3 0 0
2 0 0
1 0 0
0 0 0
0 1 0
0 1 0
0 1 0
0 1 0
0 0 1
0 0 2
0 0 2
0 0 2
0 0 2
0 1 1
0 1 3
0 1 4
0 0 5
0 0 6
0 1 6
0 4 9
0 4 9
0 4 9
1 1 8
0 0 5
0 0 3
0 0 3
0 0 3
0 0 4
0 0 4
0 0 4
0 0 4
0 0 4
0 0 4
0 0 3
0 0 3
0 0 4
0 0 5
0 0 5
0 0 5
0 0 5
0 0 5
0 0 5
0 0 5
0 0 6
0 0 7
0 0 7
0 0 7
0 0 7
0 0 7
0 0 7
0 0 9
0 0 9
0 1 10
0 1 10
0 1 10
0 1 10
0 1 10
0 1 10
0 1 10
0 1 10
0 0 12
0 0 12
0 0 12
0 0 12
0 0 12
0 0 12
0 0 12
0 0 12
0 0 12
0 0 12
0 0 12
0 0 12
0 0 12
0 0 12
0 0 12
0 0 12
0 0 12
0 0 12
0 0 12
0 0 12
0 0 12
0 0 12
0 0 12
0 0 12
0 0 12
0 0 12
0 0 12
0 0 12
0 0 12
0 0 12
0 0 12
0 0 12
0 0 12
0 0 12
0 0 12
0 0 12
0 0 12
0 0 12
0 0 12
0 0 12
0 0 12
0 0 12
0 0 12
0 0 12
0 0 12
0 0 12
0 0 12
0 0 12
0 0 12
0 0 12
0 0 12
0 1 10
0 0 9
0 2 9
1 1 8
0 1 6
0 1 6
0 3 5
0 3 5
0 3 2
0 6 5
0 6 5
0 4 1
0 6 5
12 20 29
31 51 61
62 77 90
79 97 109
88 109 125
90 113 128
90 113 128
93 116 131
95 118 134
97 121 136
97 121 136
97 121 136
97 121 136
97 121 136
97 121 136
97 121 136
97 121 136
97 121 136
97 121 136
97 121 136
97 121 136
97 121 136
97 121 136
97 121 136
95 118 134
95 118 134
93 116 131
93 116 131
93 116 131
93 116 131
95 118 134
95 118 134
95 118 134
91 117 133
90 116 132
90 116 132
90 113 128
85 113 132
90 116 132
90 116 132
90 116 132
90 116 132
83 113 135
79 114 134
79 114 134
77 115 134
77 115 134
77 115 134
77 115 134
77 115 134
77 115 134
78 116 135
78 116 135
78 116 135
78 116 135
78 116 135
78 116 135
78 116 135
78 116 135
77 117 135
77 117 135
77 117 135
77 117 135
77 117 135
77 117 137
77 117 137
77 117 137
77 116 138
77 116 139
77 116 139
77 116 139
75 117 139
75 117 139
75 117 139
75 117 139
75 116 139
76 115 138
76 115 138
76 115 138
77 115 137
76 116 136
76 116 136
76 116 136
76 116 136
77 117 137
77 117 137
77 117 137
77 117 137
77 117 137
77 117 137
77 117 137
77 117 137
77 117 137
77 117 137
77 117 137
77 117 137
77 117 137
77 117 137
77 117 137
77 117 137
77 117 137
77 117 137
77 117 137
77 117 137
77 116 138
77 116 139
77 116 138
77 117 137
77 117 137
77 117 137
79 113 135
77 111 130
70 105 125
70 105 125
81 110 128
96 123 138
96 123 138
81 101 115
47 64 75
14 29 40
0 4 16
0 4 16
0 12 19
0 4 16
0 0 12
0 0 6
0 0 4
0 0 1
0 0 0
0 0 1
0 0 2
0 0 2
0 0 2
1 1 2
3 0 1
3 0 1
3 0 1
3 0 1
3 0 1
3 0 1
0 0 12
14 29 40
62 77 90
97 121 136
95 118 134
81 110 128
85 116 133
86 121 140
82 120 140
77 117 137
74 118 139
75 119 142
75 119 142
75 119 142
75 118 142
75 117 141
75 116 139
76 115 138
77 114 138
77 114 138
77 114 138
77 114 138
77 114 138
77 114 138
77 114 138
77 114 138
77 114 138
77 114 138
77 114 138
76 115 140
76 115 140
75 116 141
75 116 141
73 117 141
73 117 141
73 117 141
73 117 141
73 117 141
75 118 142
75 119 142
78 115 139
71 110 131
70 105 125
82 113 130
96 123 138
99 127 141
97 121 136
79 97 109
47 64 75
14 29 40
0 8 14
0 6 13
0 12 19
4 17 26
2 10 15
0 4 9
0 1 4
0 1 1
0 0 0
0 2 0
1 4 1
3 4 2
4 2 0
4 2 0
4 2 0
4 2 0
2 1 1
1 1 1
1 1 1
1 1 1
1 1 1
0 0 0
0 0 0
0 0 0
0 0 1
0 0 2
0 0 2
0 0 2
0 0 1
0 0 0
0 0 0
0 0 0
0 0 0
0 0 0
0 0 0
0 0 0
0 0 0
0 0 0
0 0 0
0 0 0
0 0 0
0 0 0
0 0 0
0 0 0
0 0 0
0 0 0
0 0 0
0 0 0
0 0 0
0 0 0
0 0 0
0 0 0
0 0 0
0 0 0
0 0 0
0 0 0
0 0 0
0 0 0
0 1 0
0 1 0
0 0 0
0 0 0
0 0 1
0 1 3
0 1 6
1 1 8
0 0 6
0 0 7
0 4 16
12 20 29
24 35 46
47 64 75
81 101 115
99 127 141
99 127 141
82 113 130
71 97 112
70 105 125
76 115 135
87 124 142
87 124 142
75 119 142
72 113 134
72 113 134
74 116 136
73 115 135
73 115 135
76 115 135
77 115 134
77 115 134
77 115 134
77 115 134
77 115 136
77 115 136
77 115 136
77 116 137
78 116 137
78 116 137
78 116 137
77 116 137
76 116 136
76 116 136
76 116 136
76 116 136
76 116 136
76 116 136
76 116 136
75 116 137
76 115 138
76 115 138
76 115 138
76 115 138
76 115 138
76 115 138
76 114 136
77 116 137
78 115 132
83 118 136
96 123 138
81 101 115
39 51 61
0 0 5
0 0 0
0 0 0
3 4 2
0 5 1
0 5 1
0 5 1
0 5 1
0 4 1
0 3 2
0 2 3
0 2 3
0 2 3
0 2 3
0 2 3
0 2 3
0 2 3
0 2 3
0 2 3
0 2 3
0 2 3
0 2 3
0 2 3
0 2 3
0 2 3
0 2 3
0 2 3
1 1 3
2 0 1
2 0 0
3 0 0
3 0 0
3 0 0
3 0 0
3 0 0
3 0 0
3 0 0
3 0 0
3 0 0
3 0 0
3 0 0
3 0 0
3 0 0
3 0 0
3 0 0
2 0 0
1 0 0
1 0 0
0 0 0
0 1 0
0 1 0
0 1 0
0 1 0
0 0 1
0 0 2
0 0 2
0 0 2
0 0 2
0 1 1
0 1 1
0 1 4
0 1 6
0 1 6
0 1 6
0 4 9
1 6 12
6 12 17
12 20 29
12 20 29
23 29 39
23 29 39
23 29 39
23 29 39
23 29 39
23 29 39
23 29 39
23 29 39
23 29 39
23 29 39
23 29 39
23 29 39
23 29 39
23 29 39
23 29 39
23 29 39
23 29 39
23 29 39
23 29 39
23 29 39
23 29 39
23 29 39
23 29 39
23 29 39
23 29 39
23 29 39
23 29 39
23 29 39
23 29 39
23 29 39
23 29 39
23 29 39
23 29 39
23 29 39
23 29 39
23 29 39
23 29 39
23 29 39
23 29 39
23 29 39
23 29 39
23 29 39
23 29 39
23 29 39
23 29 39
23 29 39
23 29 39
23 29 39
23 29 39
23 29 39
23 29 39
23 29 39
23 29 39
23 29 39
23 29 39
23 29 39
23 29 39
23 29 39
23 29 39
23 29 39
23 29 39
23 29 39
23 29 39
23 29 39
23 29 39
23 29 39
23 29 39
23 29 39
23 29 39
23 29 39
23 29 39
23 29 39
23 29 39
23 29 39
23 29 39
23 29 39
23 29 39
23 29 39
23 29 39
23 29 39
23 29 39
23 29 39
23 29 39
23 29 39
23 29 39
23 29 39
23 29 39
23 29 39
23 29 39
23 29 39
23 29 39
23 29 39
23 29 39
23 29 39
23 29 39
23 29 39
23 29 39
23 29 39
23 29 39
23 29 39
24 35 46
31 51 61
47 64 75
53 72 83
53 72 83
53 72 83
53 72 83
55 79 91
55 79 91
55 79 91
55 79 91
55 79 91
62 77 90
62 77 90
62 77 90
62 77 90
62 77 90
62 77 90
62 77 90
62 77 90
62 77 90
62 77 90
62 77 90
62 77 90
55 79 91
55 79 91
55 79 91
55 79 91
62 77 90
68 87 100
70 92 106
70 92 106
71 97 112
71 97 112
81 106 120
84 109 126
88 109 125
90 113 128
95 118 134
95 118 134
95 118 134
93 121 136
89 118 136
83 118 136
82 117 137
77 115 134
76 113 132
76 113 132
76 113 132
77 115 134
78 115 132
79 115 135
79 115 135
78 115 132
78 115 132
78 115 132
79 115 135
82 117 137
82 117 137
78 117 135
77 117 133
77 117 135
77 117 135
77 117 135
77 116 137
77 117 137
77 117 137
77 116 138
77 115 139
77 116 139
77 116 139
75 117 141
75 117 139
75 117 139
75 117 139
75 116 139
77 115 139
77 115 139
76 115 138
77 115 137
76 116 136
76 116 136
76 116 136
76 116 136
77 117 137
77 117 137
77 117 137
77 117 137
77 117 137
77 117 137
77 117 137
77 117 137
77 117 137
77 117 137
77 117 137
77 117 137
77 117 137
77 117 137
77 117 137
77 117 137
77 117 137
77 117 137
77 117 137
77 117 137
77 116 138
75 116 139
75 116 139
76 117 138
76 117 136
78 118 139
82 118 141
82 118 141
79 113 132
70 105 125
77 107 124
85 113 132
93 121 136
93 116 131
70 92 106
39 51 61
12 20 29
0 4 16
0 4 16
0 12 19
0 12 19
2 6 12
0 0 5
0 0 1
0 0 1
0 1 1
0 1 1
0 0 2
0 0 2
0 0 2
2 0 2
3 0 2
3 0 1
3 0 1
3 0 1
3 0 1
0 0 12
14 29 40
62 77 90
97 121 136
95 118 134
81 110 128
85 116 133
86 121 140
82 120 140
77 117 137
74 118 139
75 119 142
75 119 142
75 119 142
75 118 142
75 117 141
75 116 139
76 115 138
77 114 138
77 114 138
77 114 138
77 114 138
77 114 138
77 114 138
77 114 138
77 114 138
77 114 138
77 114 138
77 114 138
76 115 140
76 115 140
75 116 141
75 116 141
73 117 141
72 118 141
73 117 141
73 117 141
75 117 141
75 118 142
78 117 140
78 116 138
77 111 130
81 110 128
93 121 136
99 127 141
99 127 141
88 109 125
53 72 83
14 29 40
0 4 16
0 2 9
1 6 12
0 6 13
0 8 14
0 4 9
0 1 6
0 1 1
0 1 1
0 1 1
0 2 1
0 3 0
3 2 0
3 2 0
3 1 0
3 1 0
3 1 0
2 1 0
1 2 0
1 2 1
1 1 1
1 0 1
0 0 0
0 0 0
0 0 0
0 0 1
0 0 2
0 0 2
0 0 2
0 0 1
0 0 0
0 0 0
0 0 0
0 0 0
0 0 0
0 0 0
0 0 0
0 0 0
0 0 0
0 0 0
0 0 0
0 0 0
0 0 0
0 0 0
0 0 0
0 0 0
0 0 0
0 0 0
0 0 0
0 0 0
0 0 0
0 0 0
0 0 0
0 0 0
0 0 0
0 0 0
0 0 0
0 1 0
0 1 0
0 1 0
0 1 0
0 0 0
0 0 1
0 1 1
0 2 4
1 1 8
0 2 9
0 1 10
0 4 16
12 20 29
31 43 53
53 72 83
81 101 115
95 118 134
99 127 141
93 121 136
79 113 132
71 110 131
75 113 134
75 118 137
75 119 142
74 118 139
74 118 139
72 117 138
73 117 138
73 115 135
73 115 135
75 113 134
76 115 135
77 115 136
77 115 134
77 115 134
77 115 134
77 115 136
77 115 136
77 115 136
77 116 137
78 116 137
78 116 137
78 116 137
77 116 137
76 116 136
76 116 136
76 116 136
76 116 136
76 116 136
76 116 136
76 116 136
75 116 137
76 115 138
76 115 138
76 115 138
76 115 138
76 115 138
76 115 138
76 114 136
77 116 137
78 115 132
83 118 136
96 123 138
81 101 115
39 51 61
0 0 5
0 0 0
0 0 0
3 4 2
0 5 1
0 5 1
0 5 1
0 5 1
0 4 1
0 3 2
0 2 3
0 2 3
0 2 3
0 2 3
0 2 3
0 2 3
0 2 3
0 2 3
0 2 3
0 2 3
0 2 3
0 2 3
0 2 3
0 2 3
0 2 3
0 2 3
0 2 3
1 1 3
2 0 1
2 0 0
3 0 0
3 0 0
3 0 0
3 0 0
3 0 0
3 0 0
3 0 0
3 0 0
3 0 0
3 0 0
3 0 0
3 0 0
3 0 0
2 0 0
2 0 0
0 0 0
0 0 0
0 0 0
0 0 0
0 1 0
0 1 0
0 1 0
0 1 0
0 0 1
0 0 2
0 0 2
0 0 2
0 0 2
0 0 2
0 0 2
0 1 4
0 3 5
0 4 9
0 3 5
0 4 9
6 12 17
14 29 40
31 43 53
47 64 75
53 72 83
53 72 83
53 72 83
53 72 83
53 72 83
53 72 83
53 72 83
53 72 83
53 72 83
53 72 83
53 72 83
53 72 83
53 72 83
53 72 83
53 72 83
53 72 83
53 72 83
53 72 83
53 72 83
53 72 83
53 72 83
53 72 83
53 72 83
53 72 83
53 72 83
53 72 83
53 72 83
53 72 83
53 72 83
53 72 83
53 72 83
53 72 83
53 72 83
53 72 83
53 72 83
53 72 83
62 77 90
62 77 90
62 77 90
62 77 90
62 77 90
62 77 90
62 77 90
62 77 90
62 77 90
62 77 90
62 77 90
62 77 90
62 77 90
62 77 90
62 77 90
62 77 90
62 77 90
62 77 90
62 77 90
62 77 90
62 77 90
62 77 90
62 77 90
62 77 90
62 77 90
62 77 90
62 77 90
62 77 90
62 77 90
62 77 90
62 77 90
62 77 90
62 77 90
62 77 90
62 77 90
62 77 90
62 77 90
62 77 90
62 77 90
62 77 90
62 77 90
62 77 90
62 77 90
62 77 90
62 77 90
62 77 90
62 77 90
62 77 90
62 77 90
62 77 90
62 77 90
62 77 90
62 77 90
62 77 90
62 77 90
62 77 90
62 77 90
62 77 90
53 72 83
53 72 83
53 72 83
53 72 83
62 77 90
62 77 90
47 64 75
31 51 61
31 43 53
23 41 52
14 29 40
12 20 29
4 17 26
12 20 29
14 29 40
14 29 40
12 20 29
12 20 29
12 20 29
12 20 29
12 20 29
12 20 29
12 20 29
12 20 29
12 20 29
12 20 29
12 20 29
12 20 29
12 20 29
12 20 29
12 20 29
14 29 40
14 29 40
14 29 40
24 35 46
23 41 52
31 51 61
39 51 61
47 64 75
47 64 75
55 79 91
68 87 100
70 92 106
79 97 109
81 106 120
88 109 125
88 109 125
88 109 125
84 109 126
85 113 132
82 115 132
79 113 132
79 113 127
77 111 130
79 113 127
79 113 132
79 113 132
82 115 132
82 115 132
82 115 132
79 113 132
82 113 130
82 115 132
82 115 132
82 115 132
83 118 136
79 115 132
77 116 134
78 116 135
78 116 137
78 116 137
77 117 137
77 117 137
77 116 138
77 116 139
77 116 139
77 116 139
75 117 139
75 117 139
75 117 139
75 117 139
75 117 139
77 116 139
77 115 139
76 115 138
77 115 137
76 116 136
76 116 136
76 116 136
76 116 136
77 117 137
77 117 137
77 117 137
77 117 137
77 117 137
77 117 137
77 117 137
77 117 137
77 117 137
77 117 137
77 117 137
77 117 137
77 117 137
77 117 137
77 117 137
77 117 137
77 117 137
77 117 137
77 117 137
77 117 137
76 117 138
75 117 139
75 117 139
75 117 139
76 117 138
78 118 139
82 120 140
87 124 142
82 118 141
77 111 130
70 105 125
77 107 124
89 118 136
96 123 138
90 116 132
68 87 100
31 51 61
12 20 29
0 1 13
0 12 19
12 20 29
6 12 17
0 0 7
0 0 3
0 1 4
0 2 4
0 2 2
0 1 1
0 0 1
0 0 2
1 1 3
2 1 3
3 0 1
3 0 1
3 0 1
3 0 1
0 0 12
14 29 40
62 77 90
97 121 136
95 118 134
81 110 128
85 116 133
86 121 140
82 120 140
77 117 137
74 118 139
75 119 142
75 119 142
75 119 142
75 118 142
75 117 141
76 115 140
76 115 138
77 114 138
77 114 138
77 114 138
77 114 138
77 114 138
77 114 138
77 114 138
77 114 138
77 114 138
77 114 138
77 114 138
77 115 139
76 115 140
76 115 140
75 116 141
75 119 142
75 119 142
87 124 142
75 119 142
75 117 141
72 113 134
71 110 131
75 113 134
83 118 136
93 121 136
99 127 141
95 118 134
81 101 115
53 72 83
24 35 46
0 4 16
0 0 5
1 1 8
2 6 12
0 4 9
0 2 9
0 1 5
0 0 4
0 1 1
0 1 1
0 2 2
0 2 2
1 3 2
2 1 0
2 1 0
3 1 0
3 1 0
3 1 0
2 1 0
1 2 0
1 2 1
1 2 1
1 0 1
0 0 0
0 0 0
0 0 0
0 0 1
1 0 1
1 0 1
1 0 1
0 0 1
0 0 0
0 0 0
0 0 0
0 0 0
0 0 0
0 0 0
0 0 0
0 0 0
0 0 0
0 0 0
0 0 0
0 0 0
0 0 0
0 0 0
0 0 0
0 0 0
0 0 0
1 0 0
1 0 0
1 0 0
0 0 0
0 0 0
0 0 0
0 0 0
0 0 0
0 0 0
0 0 0
0 1 0
0 1 0
0 2 1
0 3 2
1 4 5
1 4 5
1 4 5
0 3 5
0 0 5
0 0 6
0 4 16
4 17 26
23 41 52
53 72 83
81 101 115
97 121 136
99 127 141
93 121 136
85 113 132
79 113 135
78 116 135
78 118 139
74 118 139
70 117 136
70 117 136
71 117 138
72 118 141
73 117 138
74 116 136
73 115 135
76 114 136
77 115 137
77 115 136
77 115 134
77 115 134
77 115 136
77 115 136
77 115 136
77 115 136
77 116 137
78 116 137
78 116 137
78 116 137
77 116 137
75 116 137
75 116 137
75 116 137
75 116 137
75 116 137
75 116 137
75 116 137
75 116 138
75 116 138
75 116 138
75 116 138
75 116 138
75 116 138
75 116 138
76 115 135
77 116 137
78 115 132
83 118 136
96 123 138
81 101 115
39 51 61
0 1 5
0 0 0
0 1 0
3 4 2
0 5 1
0 5 1
0 5 1
0 5 1
0 4 1
0 3 2
0 2 3
0 2 3
0 2 2
0 2 2
0 2 2
0 2 2
0 2 2
0 2 2
0 2 2
0 2 2
0 2 2
0 2 2
0 2 2
0 2 2
0 2 2
0 2 2
0 2 2
1 1 2
1 0 1
1 0 0
2 0 0
3 0 0
3 0 0
3 0 0
3 0 0
3 0 0
3 0 0
3 0 0
3 0 0
3 0 0
3 0 0
3 0 0
3 0 0
1 0 0
1 0 0
0 0 0
0 0 1
0 0 1
0 0 1
0 1 1
0 1 1
0 1 1
0 1 1
0 0 1
0 0 2
0 0 2
0 0 2
0 0 2
0 0 3
0 0 2
0 1 4
0 3 5
1 4 10
0 3 5
0 4 5
6 12 17
23 29 39
47 64 75
68 87 100
79 97 109
81 101 115
79 97 109
79 97 109
81 101 115
81 101 115
81 101 115
81 101 115
81 101 115
81 101 115
81 101 115
81 101 115
81 101 115
81 101 115
81 101 115
81 101 115
81 101 115
81 101 115
81 101 115
81 101 115
81 101 115
81 101 115
81 101 115
81 101 115
81 101 115
81 101 115
81 101 115
81 101 115
81 101 115
81 101 115
81 101 115
81 101 115
81 101 115
81 101 115
81 101 115
81 101 115
81 101 115
81 101 115
81 101 115
81 101 115
81 101 115
81 101 115
81 101 115
81 101 115
81 101 115
81 101 115
81 101 115
81 101 115
81 101 115
81 101 115
81 101 115
81 101 115
81 101 115
81 101 115
81 101 115
81 101 115
81 101 115
81 101 115
81 101 115
81 101 115
81 101 115
81 101 115
81 101 115
81 101 115
81 101 115
81 101 115
81 101 115
81 101 115
81 101 115
81 101 115
81 101 115
81 101 115
81 101 115
81 101 115
81 101 115
81 101 115
81 101 115
81 101 115
81 101 115
81 101 115
81 101 115
81 101 115
81 101 115
81 101 115
81 101 115
81 101 115
81 101 115
81 101 115
81 101 115
81 101 115
81 101 115
81 101 115
81 101 115
81 101 115
81 101 115
81 101 115
81 101 115
81 101 115
81 106 120
81 106 120
68 87 100
47 64 75
23 41 52
12 20 29
0 8 14
0 0 4
0 0 2
0 0 6
0 1 10
0 0 9
0 0 6
0 0 6
0 0 6
0 0 6
0 0 6
0 0 7
0 0 7
0 0 7
0 0 7
0 0 7
0 0 7
0 0 7
0 0 9
0 0 9
0 0 9
0 0 9
0 1 10
0 4 16
0 12 19
0 12 19
12 20 29
12 20 29
14 29 40
23 29 39
31 43 53
31 51 61
39 51 61
47 64 75
53 72 83
62 77 90
62 77 90
62 77 90
70 92 106
81 106 120
79 113 127
83 113 128
89 120 137
93 121 136
89 118 136
83 113 128
83 113 128
81 110 128
83 113 128
85 116 133
91 117 133
90 116 132
85 113 132
81 110 128
79 113 127
82 113 130
82 115 132
79 115 135
79 115 135
79 115 135
78 116 137
77 117 137
78 116 138
78 118 139
78 117 140
77 116 139
75 116 138
74 116 136
74 115 139
75 117 141
75 118 142
78 117 140
75 116 139
75 116 139
75 116 138
75 116 137
76 116 136
76 116 136
76 116 136
76 116 136
77 117 137
77 117 137
77 117 137
77 117 137
77 117 137
77 117 137
77 117 137
77 117 137
77 117 137
77 117 137
77 117 137
77 117 137
77 117 137
77 117 137
77 117 137
77 117 137
77 117 137
77 117 137
77 117 137
77 117 137
76 117 138
76 117 138
76 117 138
75 117 139
76 117 138
78 118 139
82 120 140
87 124 142
82 120 140
76 113 132
70 105 125
70 105 125
85 113 132
93 121 136
97 124 139
84 109 126
55 79 91
24 35 46
0 4 16
0 4 16
4 17 26
0 12 19
0 1 10
0 2 9
0 2 9
0 4 9
0 3 5
0 2 3
0 0 1
0 0 2
1 1 3
2 1 3
2 0 1
3 0 1
3 0 1
3 0 1
0 0 12
14 29 40
62 77 90
97 121 136
95 118 134
81 110 128
85 116 133
86 121 140
82 120 140
77 117 137
74 118 139
75 119 142
75 119 142
75 119 142
75 119 142
75 118 142
78 117 140
77 116 139
77 116 138
77 114 138
77 114 138
77 114 138
77 114 138
77 114 138
77 114 138
78 115 139
78 115 139
78 115 139
78 115 139
78 115 139
77 115 139
74 115 139
75 119 142
87 124 142
87 124 142
87 124 142
87 124 142
75 118 142
71 110 131
70 105 125
77 111 130
89 120 137
97 124 139
93 116 131
70 92 106
47 64 75
14 29 40
2 10 15
0 0 12
0 0 9
0 0 7
1 1 8
0 0 6
0 0 5
0 0 3
0 0 3
0 1 4
0 1 4
0 2 4
0 2 3
0 2 2
1 1 1
2 0 1
3 0 1
3 0 0
3 1 0
2 1 0
1 2 0
1 2 0
1 2 0
1 1 0
0 0 0
0 0 0
0 0 0
1 0 0
2 0 0
2 0 0
2 0 0
1 0 0
0 0 0
0 0 0
0 0 0
0 0 0
0 0 0
0 0 0
0 0 0
0 0 0
0 1 0
0 1 0
0 1 0
0 1 0
0 0 0
0 0 0
0 0 0
0 0 0
1 0 0
2 0 0
2 0 0
2 0 0
1 0 0
0 1 0
0 1 0
0 1 0
0 1 0
0 1 0
0 1 0
0 1 0
0 2 1
0 3 2
0 6 5
2 6 12
2 10 15
0 8 14
1 4 10
0 1 6
0 4 9
4 17 26
24 35 46
47 64 75
70 92 106
93 116 131
99 127 141
96 123 138
89 118 136
79 113 132
77 115 136
75 116 137
74 118 139
72 117 138
71 117 138
71 117 138
72 118 141
72 118 141
73 116 139
74 116 138
76 115 138
76 115 138
77 115 137
77 115 136
77 115 136
77 115 136
78 116 137
78 116 137
78 116 137
78 116 137
77 116 137
77 117 137
77 117 137
77 117 137
77 117 139
77 116 139
77 116 139
77 116 139
75 116 139
75 117 139
75 117 139
75 117 139
75 117 139
75 117 139
75 117 139
75 117 139
75 117 139
75 117 139
75 117 139
75 116 137
77 117 137
78 117 135
86 122 140
97 124 139
81 101 115
39 51 61
0 1 6
0 0 0
1 2 0
3 4 2
0 4 1
0 5 1
0 5 1
0 4 1
0 3 2
0 2 2
0 2 3
0 2 3
0 2 1
0 2 1
0 2 1
0 2 1
0 2 1
0 2 1
0 2 1
0 2 1
0 2 1
0 2 1
0 2 1
0 2 1
0 2 1
0 2 1
0 2 1
0 2 1
0 1 0
0 0 0
1 0 0
2 0 0
2 0 0
2 0 0
2 0 0
2 0 0
2 0 0
2 0 0
2 0 0
2 0 0
2 0 0
2 0 0
2 0 0
0 0 0
0 0 0
0 0 1
0 0 2
0 0 2
0 0 2
0 0 2
0 0 2
0 0 2
0 0 2
0 0 2
0 0 2
0 0 2
0 0 2
0 0 3
0 0 4
0 0 3
0 0 4
0 4 9
2 6 12
0 2 9
0 1 6
6 12 17
23 29 39
47 64 75
79 97 109
90 113 128
90 113 128
88 109 125
88 109 125
88 109 125
83 113 128
83 113 128
83 113 128
83 113 128
83 113 128
83 113 128
83 113 128
83 113 128
83 113 128
83 113 128
83 113 128
83 113 128
83 113 128
83 113 128
83 113 128
82 113 130
82 113 130
82 113 130
82 113 130
82 113 130
82 113 130
85 113 132
85 113 132
85 113 132
85 113 132
85 113 132
85 113 132
85 113 132
85 113 132
85 113 132
85 113 132
85 113 132
85 113 132
85 113 132
85 113 132
85 113 132
85 113 132
85 113 132
85 113 132
85 113 132
85 113 132
85 113 132
88 109 125
88 109 125
88 109 125
88 109 125
88 109 125
88 109 125
88 109 125
88 109 125
88 109 125
88 109 125
88 109 125
88 109 125
88 109 125
88 109 125
88 109 125
88 109 125
88 109 125
88 109 125
88 109 125
88 109 125
88 109 125
88 109 125
88 109 125
88 109 125
88 109 125
88 109 125
88 109 125
88 109 125
88 109 125
88 109 125
88 109 125
88 109 125
88 109 125
88 109 125
88 109 125
88 109 125
88 109 125
88 109 125
88 109 125
88 109 125
88 109 125
90 113 128
90 113 128
90 113 128
90 113 128
90 113 128
90 113 128
90 113 128
90 113 128
83 113 128
90 113 128
95 118 134
93 116 131
81 101 115
53 72 83
23 41 52
4 17 26
0 1 13
0 0 7
0 0 9
0 1 10
0 1 13
0 0 9
0 0 6
0 0 7
0 0 7
0 0 7
0 0 7
0 0 7
0 0 7
0 0 7
0 0 7
0 0 7
0 0 7
0 0 7
0 0 9
0 0 9
0 0 9
0 0 9
0 1 6
0 2 9
0 4 9
0 4 9
0 6 13
0 6 13
0 8 14
2 10 15
2 10 15
6 12 17
4 17 26
12 20 29
23 29 39
23 29 39
23 29 39
23 41 52
47 64 75
62 77 90
70 92 106
81 106 120
93 116 131
97 121 136
95 118 134
90 113 128
81 106 120
81 106 120
88 109 125
95 118 134
97 121 136
97 121 136
90 113 128
81 106 120
77 107 124
81 110 128
85 113 132
82 115 132
82 115 132
79 115 135
80 117 140
80 117 140
80 117 140
82 118 141
78 117 140
76 115 140
74 114 140
72 113 134
74 115 139
75 116 141
75 119 142
75 118 142
75 117 139
75 117 139
75 117 139
76 117 138
77 117 137
77 117 137
77 117 137
77 117 137
77 117 137
77 117 137
77 117 137
77 117 137
77 117 137
77 117 137
77 117 137
77 117 137
77 117 137
77 117 137
77 117 137
77 117 137
77 117 137
77 117 137
77 117 137
77 117 137
77 117 137
77 117 137
77 117 137
77 117 137
76 117 136
75 118 137
75 118 137
75 118 137
75 118 138
75 118 138
78 118 139
78 118 139
77 116 137
75 113 134
75 113 134
77 111 130
85 116 133
89 118 136
97 124 139
97 124 139
81 101 115
47 64 75
4 17 26
0 4 16
0 4 16
0 4 16
0 4 16
0 4 16
0 4 12
0 4 12
0 4 9
0 1 6
0 0 1
0 0 1
1 1 3
1 1 3
1 1 1
2 1 1
3 0 1
3 0 1
0 0 12
14 29 40
62 77 90
97 121 136
95 118 134
81 110 128
85 116 133
86 121 140
82 120 140
77 117 137
74 118 139
75 119 142
75 119 142
75 119 142
75 119 142
75 118 142
78 117 140
77 116 139
77 116 138
77 114 138
77 114 138
77 114 138
77 114 138
77 114 138
77 114 138
78 115 139
78 115 139
78 115 139
78 115 139
78 115 139
77 115 139
75 116 138
75 119 142
87 124 142
87 124 142
87 124 142
75 119 142
75 118 138
78 116 135
76 113 132
82 113 130
91 117 133
93 116 131
70 92 106
47 64 75
14 29 40
0 4 16
0 0 12
2 4 11
2 4 11
0 1 6
0 0 6
0 0 4
0 0 3
0 0 3
0 0 3
0 1 4
0 1 4
0 2 4
0 1 3
0 1 1
1 1 1
2 0 1
3 0 1
4 0 0
3 1 0
2 1 0
1 1 0
1 1 0
1 2 0
1 1 0
0 0 0
0 0 0
0 0 0
1 0 0
2 0 0
2 0 0
2 0 0
1 0 0
0 0 0
0 0 0
0 0 0
0 0 0
0 0 0
0 0 0
0 0 0
0 0 0
0 1 0
0 1 0
0 1 0
0 1 0
0 0 0
0 0 0
0 0 0
0 0 0
1 0 0
2 0 0
2 0 0
2 0 0
1 0 0
0 1 0
0 1 0
0 1 0
0 1 0
0 1 0
0 1 0
0 1 0
0 3 2
0 6 5
1 6 12
2 10 15
2 6 12
1 6 12
1 6 12
2 10 15
12 20 29
24 35 46
47 64 75
68 87 100
88 109 125
97 121 136
93 121 136
85 116 133
77 111 130
77 111 130
76 115 135
73 117 136
71 117 138
71 117 138
72 118 141
72 118 141
72 118 141
72 118 141
73 116 139
74 116 138
76 115 138
76 115 138
77 115 137
77 115 136
77 115 136
77 115 136
78 116 137
78 116 137
78 116 137
78 116 137
77 116 137
77 117 137
77 117 137
77 117 137
77 117 139
77 116 139
77 116 139
77 116 139
75 116 139
75 117 139
75 117 139
75 117 139
75 117 139
75 117 139
75 117 139
75 117 139
75 117 139
75 117 139
75 117 139
75 116 137
77 117 137
78 117 135
86 122 140
97 124 139
81 101 115
39 51 61
0 1 6
0 0 0
1 2 0
3 4 2
0 4 1
0 5 1
0 5 1
0 4 1
0 3 2
0 2 2
0 2 3
0 2 3
0 2 1
0 2 1
0 2 1
0 2 1
0 2 1
0 2 1
0 2 1
0 2 1
0 2 1
0 2 1
0 2 1
0 2 1
0 2 1
0 2 1
0 2 1
0 2 1
0 1 0
0 0 0
0 0 0
1 0 0
1 0 0
1 0 0
1 0 0
1 0 0
1 0 0
1 0 0
1 0 0
1 0 0
1 0 0
1 0 0
1 0 0
0 0 0
0 0 0
0 0 1
0 0 2
0 0 2
0 0 2
0 0 2
0 0 2
0 0 2
0 0 2
0 0 2
0 0 2
0 0 2
0 0 2
0 0 3
0 0 4
0 0 3
0 0 4
0 4 9
2 6 12
0 2 9
0 1 6
6 8 13
23 29 39
47 64 75
79 97 109
93 116 131
93 116 131
90 113 128
83 113 128
83 113 128
82 115 132
82 115 132
82 115 132
82 115 132
82 115 132
82 115 132
82 115 132
82 115 132
82 115 132
82 115 132
82 115 132
82 115 132
82 115 132
82 115 132
82 115 132
83 113 135
83 113 135
83 113 135
83 113 135
83 113 135
83 113 135
83 113 135
83 113 135
83 113 135
83 113 135
83 113 135
83 113 135
83 113 135
83 113 135
83 113 135
82 113 136
83 113 135
83 113 135
83 113 135
83 113 135
83 113 135
83 113 135
83 113 135
83 113 135
83 113 135
83 113 135
85 113 132
85 113 132
85 113 132
85 113 132
85 113 132
85 113 132
85 113 132
85 113 132
85 113 132
85 113 132
85 113 132
85 113 132
85 113 132
85 113 132
85 113 132
85 113 132
85 113 132
85 113 132
85 113 132
85 113 132
85 113 132
85 113 132
85 113 132
85 113 132
85 113 132
85 113 132
85 113 132
85 113 132
85 113 132
85 113 132
85 113 132
85 113 132
85 113 132
85 113 132
85 113 132
85 113 132
85 113 132
85 113 132
85 113 132
85 113 132
85 113 132
85 113 132
85 113 132
85 113 132
85 116 133
83 113 135
85 116 133
85 116 133
85 116 133
85 116 133
85 116 133
90 116 132
97 121 136
95 118 134
81 106 120
55 79 91
31 43 53
4 17 26
0 1 10
0 2 9
2 6 12
2 6 12
2 6 12
2 4 11
2 1 7
2 4 11
2 4 11
2 4 11
2 4 11
2 1 7
2 1 7
2 1 7
2 1 7
2 1 7
2 1 7
5 6 9
5 6 9
5 6 9
2 4 11
1 4 10
3 4 6
3 4 6
3 4 6
1 1 5
0 1 5
0 1 6
0 0 6
0 0 4
0 0 0
0 0 0
0 0 3
0 0 7
2 4 11
6 8 13
6 12 17
4 17 26
23 29 39
31 43 53
39 51 61
47 64 75
62 77 90
70 92 106
79 97 109
81 101 115
88 109 125
90 113 128
93 116 131
97 121 136
97 121 136
95 118 134
90 113 128
81 106 120
81 106 120
77 107 124
81 110 128
82 113 130
85 113 132
82 115 136
82 116 140
82 118 141
82 118 141
78 117 140
77 116 139
76 115 140
75 117 141
77 116 142
77 116 142
75 116 141
75 116 141
75 116 141
75 117 139
74 118 139
75 117 139
76 117 138
77 117 137
77 117 137
77 117 137
77 117 137
77 117 137
77 117 137
77 117 137
77 117 137
77 117 137
77 117 137
77 117 137
77 117 137
77 117 137
77 117 137
77 117 137
77 117 137
77 117 137
77 117 137
77 117 137
77 117 137
77 117 137
77 117 137
77 117 137
77 117 137
76 117 136
75 118 137
75 118 137
75 118 137
75 118 138
75 118 138
75 118 138
76 117 136
76 115 135
75 113 134
79 114 136
80 115 137
82 117 137
83 113 135
89 118 136
97 124 139
85 113 132
55 79 91
23 41 52
4 17 26
0 1 13
0 0 12
0 4 16
0 12 19
0 8 14
0 6 13
0 4 12
0 1 6
0 0 1
0 0 1
1 1 3
1 0 3
1 1 2
2 1 2
3 0 1
3 0 1
0 0 12
14 29 40
62 77 90
97 121 136
95 118 134
81 110 128
85 116 133
86 121 140
82 120 140
77 117 137
74 118 139
75 119 142
75 119 142
75 119 142
75 119 142
75 118 142
78 117 140
77 116 139
77 116 138
77 114 138
77 114 138
77 114 138
77 114 138
77 114 138
77 114 138
78 115 139
78 115 139
78 115 139
78 115 139
78 115 139
78 115 139
76 115 138
78 117 140
82 120 140
82 120 140
72 113 134
71 110 131
77 117 135
87 124 142
86 122 140
83 113 128
81 106 120
70 92 106
47 64 75
14 29 40
2 10 15
0 4 16
6 8 13
2 4 11
0 2 9
0 0 6
0 0 4
0 0 3
0 0 3
0 1 4
0 1 4
0 0 4
0 0 4
0 0 3
0 0 2
0 0 2
0 0 2
2 0 1
3 0 1
4 0 0
3 0 1
1 0 1
0 0 0
0 0 0
0 0 0
0 0 0
0 0 0
0 0 0
0 0 0
1 0 0
2 0 0
2 0 0
2 0 0
1 0 0
0 0 0
0 0 0
0 0 0
0 0 0
0 0 0
0 0 0
0 0 0
0 0 0
0 1 0
0 1 0
0 1 0
0 1 0
0 0 0
0 0 0
0 0 0
0 0 0
0 0 0
0 0 0
0 0 0
0 1 0
0 1 0
0 1 0
0 1 0
0 1 0
0 1 0
0 1 0
0 1 0
0 1 0
0 3 2
0 6 5
1 6 12
2 6 12
1 4 5
0 4 9
2 10 15
12 20 29
31 43 53
53 72 83
70 92 106
84 109 126
93 121 136
93 121 136
85 116 133
79 113 127
70 105 125
71 110 131
73 115 135
75 118 138
72 117 138
71 117 138
72 118 141
72 118 141
72 118 141
72 117 138
73 116 139
75 116 138
76 115 138
76 115 138
77 115 137
77 115 136
77 115 136
77 115 136
78 116 137
78 116 137
78 116 137
78 116 137
77 116 137
77 117 137
77 117 137
77 117 137
77 117 139
77 116 139
77 116 139
77 116 139
75 116 139
75 117 139
75 117 139
75 117 139
75 117 139
75 117 139
75 117 139
75 117 139
75 117 139
75 117 139
75 117 139
75 116 137
77 117 137
78 117 135
86 122 140
97 124 139
81 101 115
39 51 61
0 1 6
0 0 0
1 2 0
3 4 2
0 4 1
0 5 1
0 5 1
0 4 1
0 3 2
0 2 2
0 2 3
0 2 3
0 2 1
0 2 1
0 2 1
0 2 1
0 2 1
0 2 1
0 2 1
0 2 1
0 2 1
0 2 1
0 2 1
0 2 1
0 2 1
0 2 1
0 2 1
0 2 1
0 1 0
0 0 0
0 0 0
0 0 0
0 0 0
0 0 0
0 0 0
0 0 0
0 0 0
0 0 0
0 0 0
0 0 0
0 0 0
0 0 0
0 0 0
0 0 0
0 0 0
0 0 1
0 0 2
0 0 2
0 0 2
0 0 2
0 0 2
0 0 2
0 0 2
0 0 2
0 0 2
0 0 2
0 0 2
0 0 3
0 0 4
0 0 3
0 0 4
0 4 9
2 6 12
0 2 9
0 1 6
6 8 13
23 29 39
47 64 75
79 97 109
93 116 131
93 116 131
83 113 128
82 115 132
82 115 132
77 117 133
78 117 135
78 117 135
78 117 135
78 117 135
78 116 135
79 115 135
79 115 135
79 115 135
79 115 135
79 115 135
79 115 135
80 115 137
80 115 137
80 115 137
80 115 137
80 115 137
80 115 137
80 115 137
80 115 137
80 115 137
80 115 137
80 115 137
80 115 140
80 115 140
80 115 140
80 115 140
80 115 140
80 115 140
80 115 140
80 115 140
80 115 140
82 116 140
82 116 140
82 113 136
82 113 136
82 113 136
82 113 136
83 113 135
83 113 135
83 113 135
83 113 135
83 113 135
83 113 135
83 113 135
83 113 135
83 113 135
83 113 135
83 113 135
83 113 135
83 113 135
83 113 135
83 113 135
83 113 135
83 113 135
83 113 135
83 113 135
83 113 135
83 113 135
83 113 135
83 113 135
83 113 135
83 113 135
83 113 135
83 113 135
83 113 135
83 113 135
83 113 135
83 113 135
83 113 135
83 113 135
83 113 135
83 113 135
83 113 135
83 113 135
83 113 135
83 113 135
83 113 135
83 113 135
83 113 135
83 113 135
83 113 135
83 113 135
83 113 135
82 115 136
82 117 137
82 117 137
82 117 137
82 117 137
82 117 137
82 117 137
83 118 136
89 118 136
93 121 136
95 118 134
81 106 120
55 79 91
31 43 53
4 17 26
0 1 10
0 0 7
0 1 10
2 4 11
2 4 11
2 1 7
3 1 6
3 1 6
3 1 6
3 1 6
3 1 6
3 1 6
3 1 6
3 1 6
3 1 6
3 1 6
3 1 6
3 1 6
3 1 6
3 1 6
3 1 6
2 1 3
1 1 3
1 1 3
1 1 3
0 0 2
0 0 2
0 0 2
0 0 2
0 0 1
0 0 0
0 0 0
0 0 0
0 0 3
2 1 7
5 6 9
6 8 13
6 12 17
6 12 17
6 12 17
6 12 17
12 20 29
14 29 40
31 43 53
47 64 75
62 77 90
81 101 115
90 113 128
93 116 131
90 113 128
88 109 125
88 109 125
88 109 125
88 109 125
81 106 120
84 109 126
84 109 126
83 113 128
85 113 132
83 113 135
82 116 140
82 118 141
80 117 140
76 113 137
75 113 134
77 116 140
82 118 141
87 124 142
82 118 141
75 116 141
72 113 134
72 113 134
75 117 139
75 117 141
75 117 139
76 117 138
77 117 137
77 117 137
77 117 137
77 117 137
77 117 137
77 117 137
77 117 137
77 117 137
77 117 137
77 117 137
77 117 137
77 117 137
77 117 137
77 117 137
77 117 137
77 117 137
77 117 137
77 117 137
77 117 137
77 117 137
77 117 137
77 117 137
77 117 137
77 117 137
76 117 136
75 118 137
75 118 137
75 118 137
75 118 137
75 118 137
75 118 137
75 118 137
76 117 136
77 116 137
78 116 137
80 115 137
82 115 136
79 113 132
83 113 135
89 118 136
89 118 136
70 105 125
53 72 83
24 35 46
0 12 19
0 4 16
0 12 19
0 12 19
0 12 19
0 8 14
0 4 12
0 1 6
0 0 3
0 0 2
0 0 2
0 0 3
1 1 3
2 1 3
3 0 1
3 0 1
0 0 12
14 29 40
62 77 90
97 121 136
95 118 134
81 110 128
85 116 133
86 121 140
82 120 140
77 117 137
74 118 139
75 119 142
75 119 142
75 119 142
75 119 142
75 118 142
78 117 140
77 116 139
77 116 138
77 114 138
77 114 138
77 114 138
77 114 138
77 114 138
77 114 138
78 115 139
78 115 139
78 115 139
78 115 139
78 115 137
78 115 139
78 116 138
75 116 138
77 115 137
72 113 134
70 105 125
71 110 131
78 117 135
87 124 142
93 121 136
84 109 126
68 87 100
47 64 75
14 29 40
0 12 19
0 4 12
6 8 13
6 8 13
2 6 12
0 1 10
0 0 6
0 0 3
0 0 3
0 0 3
0 1 4
0 1 4
0 0 4
0 0 4
0 0 3
0 0 2
0 0 2
0 0 2
2 0 1
2 0 1
3 0 2
2 0 2
1 0 1
0 0 0
0 0 0
0 0 0
0 0 0
0 0 0
0 0 0
0 0 0
1 0 0
2 0 0
2 0 0
2 0 0
1 0 0
0 0 0
0 0 0
0 0 0
0 0 0
0 0 0
0 0 0
0 0 0
0 0 0
0 1 0
0 1 0
0 1 0
0 1 0
0 0 0
0 0 0
0 0 0
0 0 0
0 0 0
0 0 0
0 0 0
0 1 0
0 1 0
0 1 0
0 1 0
0 1 0
0 1 0
0 1 0
0 1 0
0 1 0
0 4 5
1 6 12
1 6 12
0 4 5
0 1 4
1 6 12
12 20 29
31 51 61
53 72 83
79 97 109
90 113 128
93 121 136
93 121 136
85 116 133
79 113 127
70 105 125
70 105 125
71 110 131
73 115 135
75 118 138
72 117 138
71 117 138
72 118 141
72 118 141
72 118 141
72 117 138
73 116 139
75 116 138
76 115 138
76 115 138
77 115 137
77 115 136
77 115 136
77 115 136
78 116 137
78 116 137
78 116 137
78 116 137
77 116 137
77 117 137
77 117 137
77 117 137
77 117 139
75 116 139
75 116 139
75 116 139
75 116 139
75 117 139
75 117 139
75 117 139
75 117 139
75 117 139
75 117 139
75 117 139
75 117 139
75 117 139
75 117 139
75 116 137
77 117 137
78 117 135
86 122 140
97 124 139
81 101 115
39 51 61
0 1 6
0 0 0
1 2 0
3 4 2
0 4 1
0 5 1
0 5 1
0 4 1
0 3 2
0 2 2
0 2 3
0 2 3
0 2 1
0 2 1
0 2 1
0 2 1
0 2 1
0 2 1
0 2 1
0 2 1
0 2 1
0 2 1
0 2 1
0 2 1
0 2 1
0 2 1
0 2 1
0 2 1
0 1 0
0 0 0
0 0 0
0 0 0
0 0 0
0 0 0
0 0 0
0 0 0
0 0 0
0 0 0
0 0 0
0 0 0
0 0 0
0 0 0
0 0 0
0 0 0
0 0 0
0 0 1
0 0 2
0 0 2
0 0 2
0 0 2
0 0 2
0 0 2
0 0 2
0 0 2
0 0 2
0 0 2
0 0 2
0 0 3
0 0 4
0 0 3
0 0 4
0 4 9
2 6 12
0 2 9
0 1 6
6 8 13
23 29 39
47 64 75
79 97 109
90 113 128
90 113 128
83 113 128
82 113 130
79 113 132
77 115 134
77 117 133
77 117 133
77 117 133
77 115 134
76 113 132
76 113 132
79 113 132
79 113 132
79 113 132
79 113 132
79 113 132
79 113 135
79 113 135
79 113 135
79 113 135
79 113 135
79 113 135
79 113 135
79 113 135
79 113 135
79 114 136
79 114 136
79 114 136
79 114 136
79 114 136
79 114 136
79 114 136
79 114 136
79 114 138
77 113 139
79 114 138
82 113 136
82 113 136
82 113 136
82 113 136
82 113 136
79 113 135
79 113 135
83 113 135
83 113 135
83 113 135
83 113 135
83 113 135
83 113 135
83 113 135
83 113 135
83 113 135
83 113 135
83 113 135
83 113 135
83 113 135
83 113 135
79 113 132
79 113 132
79 113 132
79 113 132
79 113 132
79 113 132
79 113 132
79 113 132
79 113 132
79 113 132
79 113 132
79 113 132
79 113 132
79 113 132
79 113 132
79 113 132
79 113 132
79 113 132
79 113 132
83 113 135
83 113 135
83 113 135
83 113 135
83 113 135
83 113 135
83 113 135
83 113 135
83 113 135
83 113 135
83 113 135
82 113 136
82 113 136
80 115 137
79 114 136
79 115 135
78 116 137
78 116 137
80 115 137
82 115 136
85 113 132
89 118 136
91 117 133
81 101 115
53 72 83
31 43 53
4 17 26
0 1 10
0 0 6
1 1 8
2 4 11
2 4 11
2 1 7
3 1 6
3 1 6
3 1 6
3 1 6
3 1 6
3 1 6
3 1 6
3 1 6
3 1 6
3 1 6
3 1 6
3 1 6
3 0 3
3 0 3
3 0 3
2 1 3
1 1 3
1 1 3
1 1 3
2 1 3
2 1 3
2 1 3
2 1 3
2 1 3
1 2 3
2 2 2
1 1 2
1 1 5
5 6 9
6 8 13
6 12 17
6 8 13
0 1 5
0 0 0
0 0 0
0 1 6
0 8 14
4 17 26
14 29 40
39 51 61
53 72 83
68 87 100
79 97 109
79 97 109
81 101 115
88 109 125
90 113 128
90 113 128
90 113 128
90 113 128
90 113 128
90 116 132
90 116 132
85 113 132
83 113 135
79 113 135
76 112 136
75 113 134
76 113 137
77 116 140
77 116 142
82 118 141
77 116 142
77 116 142
74 114 140
74 115 139
75 117 139
75 117 141
75 117 139
76 117 138
77 117 137
77 117 137
77 117 137
77 117 137
77 117 137
77 117 137
77 117 137
77 117 137
77 117 137
77 117 137
77 117 137
77 117 137
77 117 137
77 117 137
77 117 137
77 117 137
77 117 137
77 117 137
77 117 137
77 117 137
77 117 137
77 117 137
77 117 137
77 117 137
76 117 136
75 118 137
75 118 137
75 118 137
75 118 137
75 118 137
75 118 137
75 118 137
77 117 137
77 116 137
78 116 137
80 115 137
79 113 135
77 111 130
77 111 130
83 113 135
89 120 137
89 118 136
71 97 112
31 51 61
4 17 26
0 4 16
0 12 19
0 12 19
0 12 19
0 8 14
0 2 9
0 0 5
0 1 4
0 1 3
0 0 2
0 0 3
1 1 3
2 1 3
3 0 1
3 0 1
0 0 12
14 29 40
62 77 90
97 121 136
95 118 134
81 110 128
85 116 133
86 121 140
82 120 140
77 117 137
74 118 139
75 119 142
75 119 142
75 119 142
75 119 142
75 118 142
75 117 141
77 116 139
77 115 139
78 115 139
78 115 139
78 115 139
78 115 139
78 115 139
78 115 139
78 115 139
78 115 139
78 115 139
78 115 139
78 115 137
78 116 138
80 117 140
76 114 136
71 110 131
70 105 125
76 113 132
83 118 136
82 115 132
81 110 128
77 107 124
70 92 106
47 64 75
14 29 40
0 12 19
0 8 14
0 4 12
1 1 5
3 1 6
2 4 11
2 4 11
0 1 5
0 0 3
0 0 4
0 0 4
0 0 4
0 0 4
0 0 4
0 0 4
0 0 3
0 0 2
0 0 2
0 0 2
1 1 3
1 1 3
2 1 3
1 1 3
0 0 1
0 0 0
0 0 0
0 0 0
0 0 0
0 0 0
0 0 0
0 0 0
1 0 0
2 0 0
2 0 0
2 0 0
1 0 0
0 0 0
0 0 0
0 0 0
0 0 0
0 0 0
0 0 0
0 0 0
0 0 0
0 1 0
0 1 0
0 1 0
0 1 0
0 1 0
0 1 0
0 1 0
0 1 0
0 1 0
0 1 0
0 1 0
0 1 0
0 1 0
0 1 0
0 1 0
0 1 0
0 1 0
0 2 0
0 2 0
0 2 0
0 4 5
2 6 12
1 6 12
1 6 12
0 8 14
12 20 29
23 41 52
53 72 83
79 97 109
93 116 131
96 123 138
93 121 136
85 116 133
79 113 127
77 107 124
70 105 125
71 110 131
72 113 134
73 117 136
73 117 138
72 117 138
72 117 138
73 116 139
73 116 139
73 116 139
73 116 139
73 116 139
75 116 138
76 115 138
76 115 138
77 115 137
77 115 136
77 115 136
77 115 136
78 116 137
78 116 137
78 116 137
78 116 137
77 117 137
77 117 137
77 117 137
77 117 137
76 117 138
75 117 139
75 117 139
75 117 139
75 117 139
75 117 139
75 117 139
74 118 139
74 118 139
74 118 139
74 118 139
74 118 139
74 118 139
74 118 139
74 118 139
75 118 137
77 117 137
78 117 135
86 122 140
97 124 139
81 101 115
39 51 61
0 1 6
0 0 0
1 2 0
3 4 2
0 3 0
0 4 1
0 4 1
0 4 1
0 3 2
0 3 2
0 2 3
0 2 3
0 2 1
0 2 0
0 2 0
0 2 0
0 2 0
0 2 0
0 2 0
0 2 0
0 2 0
0 2 0
0 2 0
0 2 0
0 2 0
0 2 0
0 2 0
0 2 0
0 1 0
0 0 0
0 0 0
0 0 0
0 0 0
0 0 0
0 0 0
0 0 0
0 0 0
0 0 0
0 0 0
0 0 0
0 0 0
0 0 0
0 0 0
0 0 0
0 0 0
0 0 1
0 0 2
0 0 2
0 0 2
0 0 2
0 0 2
0 0 2
0 0 2
0 0 2
0 0 2
0 0 2
0 0 2
0 0 3
0 0 4
0 0 3
0 0 4
0 4 9
2 6 12
0 2 9
0 1 6
2 10 15
23 29 39
47 64 75
79 97 109
90 113 128
93 116 131
83 113 128
82 113 130
82 115 132
78 115 132
77 117 133
77 117 133
77 117 133
77 116 134
77 115 134
79 114 134
79 114 134
79 114 134
79 114 134
79 114 134
79 114 134
79 114 134
79 114 136
79 114 136
79 114 136
79 114 136
79 114 136
79 114 136
79 114 136
79 114 136
79 114 138
79 114 138
79 114 138
79 114 138
79 114 138
79 114 138
79 114 138
79 114 138
79 114 138
79 114 138
79 114 138
79 114 138
79 114 138
79 114 138
79 114 138
79 114 138
79 114 136
79 113 135
82 113 136
82 113 136
83 113 135
83 113 135
83 113 135
83 113 135
83 113 135
83 113 135
83 113 135
83 113 135
83 113 135
83 113 135
83 113 135
82 113 136
79 113 135
79 113 135
79 113 135
79 113 135
79 113 135
79 113 135
79 113 135
79 113 135
79 113 135
79 113 135
79 113 135
79 113 135
79 113 135
79 113 135
79 113 135
79 113 135
79 113 135
79 113 135
79 113 135
82 113 136
83 113 135
83 113 135
83 113 135
83 113 135
83 113 135
83 113 135
83 113 135
83 113 135
83 113 135
83 113 135
82 113 136
82 113 136
80 115 137
80 115 137
80 115 137
82 117 137
82 117 137
82 117 137
82 115 136
85 116 133
93 121 136
91 117 133
81 106 120
53 72 83
31 43 53
4 17 26
0 1 10
0 0 5
2 1 7
2 1 7
2 4 11
2 1 7
3 1 6
3 1 6
3 1 6
3 1 6
3 1 6
3 0 3
3 0 3
3 0 3
3 0 3
3 0 3
3 0 3
3 0 3
3 0 3
3 0 3
3 0 3
2 1 3
1 1 3
1 1 3
1 1 3
1 1 3
1 1 3
1 1 3
0 0 2
0 0 2
0 0 3
0 0 3
0 0 3
0 0 3
1 1 5
3 4 6
2 6 12
1 4 10
0 0 0
0 0 0
0 3 5
2 10 15
0 12 19
2 10 15
2 10 15
6 12 17
12 20 29
23 41 52
39 51 61
53 72 83
70 92 106
81 101 115
88 109 125
88 109 125
90 113 128
93 116 131
95 118 134
95 118 134
91 117 133
85 113 132
77 107 124
70 105 125
70 105 125
79 113 135
82 118 141
80 115 140
76 112 136
72 113 134
74 114 140
77 116 142
82 118 141
78 117 140
77 116 139
75 116 138
77 116 139
77 117 139
77 117 137
77 117 137
77 117 137
77 117 137
77 117 137
77 117 137
77 117 137
77 117 137
77 117 137
77 117 137
77 117 137
77 117 137
77 117 137
77 117 137
77 117 137
77 117 137
77 117 137
77 117 137
77 117 137
77 117 137
77 117 137
77 117 137
77 117 137
77 117 137
77 117 137
77 117 137
77 117 137
77 117 137
77 117 137
77 117 137
77 117 137
77 117 137
77 117 137
77 116 137
78 116 138
82 117 137
79 113 135
77 107 124
77 111 130
83 113 135
99 127 141
99 127 141
85 113 132
55 79 91
24 35 46
4 17 26
0 12 19
0 12 19
0 12 19
0 6 13
0 0 7
0 0 5
0 2 4
0 2 4
0 2 2
0 2 3
1 1 3
2 1 2
3 0 1
3 0 1
0 0 12
14 29 40
62 77 90
97 121 136
95 118 134
81 110 128
85 116 133
86 121 140
82 120 140
77 117 137
74 118 139
75 119 142
75 119 142
75 119 142
75 119 142
75 118 142
75 117 141
77 116 139
77 115 139
78 115 139
78 115 139
78 115 139
78 115 139
78 115 139
78 115 139
78 115 139
78 115 139
78 115 139
78 115 139
78 115 137
78 117 135
82 117 137
76 114 136
71 110 131
77 111 130
83 118 136
89 120 137
83 113 128
71 97 112
55 79 91
47 64 75
24 35 46
0 12 19
0 4 12
0 12 19
2 10 15
0 2 4
0 0 3
1 1 8
2 1 7
0 1 4
0 0 4
0 0 4
0 0 4
0 0 4
0 0 4
0 0 4
0 0 4
0 0 3
0 0 2
0 0 2
0 0 2
1 1 3
1 1 3
1 1 3
1 1 3
0 0 1
0 0 0
0 0 0
0 0 0
0 0 0
0 0 0
0 0 0
0 0 0
1 0 0
2 0 0
2 0 0
2 0 0
1 0 0
0 0 0
0 0 0
0 0 0
0 0 0
0 0 0
0 0 0
0 0 0
0 0 0
0 1 0
0 1 0
0 1 0
0 1 0
0 1 0
0 1 0
0 1 0
0 1 0
0 1 0
0 1 0
0 1 0
0 1 0
0 1 0
0 1 0
0 1 0
0 1 0
0 1 0
0 2 0
0 3 2
0 4 1
0 3 5
0 4 5
0 4 9
0 12 19
12 20 29
31 43 53
53 72 83
79 97 109
90 113 128
96 123 138
93 121 136
85 116 133
79 113 127
77 107 124
77 107 124
76 113 132
82 117 137
78 118 139
75 116 136
73 117 136
72 117 136
72 117 138
73 116 139
73 116 139
73 116 139
73 116 139
73 116 139
75 116 138
76 115 138
76 115 138
77 115 137
77 115 136
77 115 136
77 115 136
78 116 137
78 116 137
78 116 137
78 116 137
77 117 137
77 117 137
77 117 137
77 117 137
76 117 138
75 117 139
75 117 139
75 117 139
75 117 139
75 117 139
75 117 139
74 118 139
74 118 139
74 118 139
74 118 139
74 118 139
74 118 139
74 118 139
74 118 139
75 118 137
77 117 137
78 117 135
89 120 137
97 124 139
81 101 115
39 51 61
0 1 6
0 0 0
1 2 0
3 4 2
0 3 0
0 4 1
0 4 1
0 4 1
0 3 2
0 3 2
0 2 3
0 2 3
0 2 1
0 2 0
0 2 0
0 2 0
0 2 0
0 2 0
0 2 0
0 2 0
0 2 0
0 2 0
0 2 0
0 2 0
0 2 0
0 2 0
0 2 0
0 2 0
0 1 0
0 0 0
0 0 0
0 0 0
0 0 0
0 0 0
0 0 0
0 0 0
0 0 0
0 0 0
0 0 0
0 0 0
0 0 0
0 0 0
0 0 0
0 0 0
0 0 0
0 0 1
0 0 2
0 0 2
0 0 2
0 0 2
0 0 2
0 0 2
0 0 2
0 0 2
0 0 2
0 0 2
0 0 2
0 0 3
0 0 4
0 0 3
0 0 4
0 4 9
2 6 12
0 2 9
0 1 6
2 10 15
23 29 39
47 64 75
79 97 109
90 113 128
93 116 131
83 113 128
82 113 130
82 115 132
78 115 132
77 117 133
77 117 133
77 117 133
77 116 134
77 115 134
79 114 134
79 114 134
79 114 134
79 114 134
79 114 134
79 114 134
79 114 134
79 114 136
79 114 136
79 114 136
79 114 136
79 114 136
79 114 136
79 114 136
79 114 136
79 114 138
79 114 138
79 114 138
79 114 138
79 114 138
79 114 138
79 114 138
79 114 138
79 114 138
79 114 138
77 113 139
77 113 139
79 114 138
79 114 138
79 114 138
79 114 138
79 114 136
79 113 135
82 113 136
82 113 136
82 113 136
82 113 136
82 113 136
82 113 136
82 113 136
82 113 136
82 113 136
82 113 136
82 113 136
82 113 136
82 113 136
82 113 136
79 113 135
79 113 135
79 113 135
79 113 135
79 113 135
79 113 135
79 113 135
79 113 135
79 113 135
79 113 135
79 113 135
79 113 135
79 113 135
79 113 135
79 113 135
79 113 135
79 113 135
79 113 135
79 113 135
82 113 136
82 113 136
82 113 136
82 113 136
82 113 136
82 113 136
82 113 136
83 113 135
83 113 135
83 113 135
83 113 135
82 113 136
82 113 136
80 115 137
80 115 137
80 115 137
82 117 137
82 117 137
82 117 137
82 115 136
85 116 133
93 121 136
91 117 133
81 106 120
53 72 83
31 43 53
4 17 26
0 1 10
0 0 5
2 1 7
2 1 7
2 4 11
2 1 7
3 1 6
3 1 6
3 1 6
3 1 6
3 1 6
3 0 3
3 0 3
3 0 3
3 0 3
3 0 3
3 0 3
3 0 3
3 0 3
3 0 3
3 0 3
2 1 3
1 1 3
1 1 3
1 1 3
1 1 3
1 1 3
1 1 3
0 0 2
0 0 3
1 1 5
1 1 5
1 1 5
1 1 5
2 1 7
2 1 7
0 4 9
0 4 9
3 4 6
5 6 9
6 12 17
4 17 26
4 17 26
2 10 15
0 4 9
0 0 6
0 2 9
0 12 19
12 20 29
31 43 53
47 64 75
62 77 90
68 87 100
79 97 109
88 109 125
93 116 131
97 121 136
95 118 134
90 116 132
83 113 128
81 110 128
77 107 124
77 111 130
82 115 136
86 121 140
80 115 140
76 112 136
72 113 134
76 112 136
77 116 142
82 118 141
78 117 140
77 116 139
76 115 138
77 116 139
77 116 138
77 117 137
77 117 137
77 117 137
77 117 137
77 117 137
77 117 137
77 117 137
77 117 137
77 117 137
77 117 137
77 117 137
77 117 137
77 117 137
77 117 137
77 117 137
77 117 137
77 117 137
77 117 137
77 117 137
77 117 137
77 117 137
77 117 137
77 117 137
77 117 137
77 117 137
77 117 137
77 117 137
77 117 137
77 117 137
77 117 137
77 116 137
77 116 137
77 116 137
78 116 137
80 115 137
82 117 137
79 113 135
77 111 130
77 111 130
83 113 135
99 127 141
99 127 141
96 123 138
71 97 112
47 64 75
14 29 40
0 12 19
0 4 16
0 4 16
0 4 12
0 0 6
0 1 6
0 4 9
0 4 5
0 2 4
0 2 3
1 1 3
2 1 2
3 0 1
3 0 1
0 0 12
14 29 40
62 77 90
97 121 136
95 118 134
81 110 128
85 116 133
86 121 140
82 120 140
77 117 137
74 118 139
75 119 142
75 119 142
75 119 142
75 119 142
75 118 142
75 117 141
77 116 139
77 115 139
78 115 139
78 115 139
78 115 139
78 115 139
78 115 139
78 115 139
78 115 139
78 115 139
78 115 139
78 115 139
78 115 137
78 116 135
77 115 136
79 115 135
82 115 132
85 116 133
85 116 133
83 113 128
81 106 120
55 79 91
31 51 61
14 29 40
2 10 15
0 4 12
0 4 9
0 6 13
1 6 12
0 4 9
0 2 4
0 1 1
1 1 2
0 0 3
0 0 5
0 0 4
0 0 4
0 0 4
0 0 4
0 0 4
0 0 4
0 0 3
0 0 2
0 0 2
0 0 2
1 1 3
1 1 3
1 1 3
1 1 3
0 0 1
0 0 0
0 0 0
0 0 0
0 0 0
0 0 0
0 0 0
0 0 0
1 0 0
2 0 0
2 0 0
2 0 0
1 0 0
0 0 0
0 0 0
0 0 0
0 0 0
0 0 0
0 0 0
0 0 0
0 0 0
0 1 0
0 1 0
0 1 0
0 1 0
0 1 0
0 1 0
0 1 0
0 1 0
0 1 0
0 1 0
0 1 0
0 1 0
0 1 0
0 2 0
0 1 0
0 1 0
0 1 0
0 2 0
0 3 2
3 4 6
1 4 5
0 1 5
1 6 12
12 20 29
31 51 61
55 79 91
79 97 109
90 113 128
97 121 136
93 121 136
85 116 133
79 113 127
70 105 125
70 105 125
77 111 130
82 120 140
87 124 142
87 124 142
76 117 136
72 113 134
73 117 136
73 116 139
73 116 139
73 116 139
73 116 139
73 116 139
74 115 139
76 115 138
77 114 138
77 114 138
77 115 137
77 115 136
77 115 136
77 115 136
78 116 137
78 116 137
78 116 137
78 116 137
77 117 137
77 117 137
77 117 137
77 117 137
76 117 138
75 117 139
75 117 139
75 117 139
75 117 139
74 118 139
74 118 139
74 118 139
74 118 139
74 118 139
74 118 139
74 118 139
74 118 139
74 118 139
74 118 139
75 118 137
77 117 137
79 115 135
89 120 137
97 124 139
81 101 115
39 51 61
0 1 6
0 0 0
1 2 0
3 4 2
0 3 0
0 4 1
0 4 1
0 4 1
0 3 2
0 3 2
0 2 3
0 2 3
0 2 1
0 2 0
0 2 0
0 2 0
0 2 0
0 2 0
0 2 0
0 2 0
0 2 0
0 2 0
0 2 0
0 2 0
0 2 0
0 2 0
0 2 0
0 2 0
0 1 0
0 0 0
0 0 0
0 0 0
0 0 0
0 0 0
0 0 0
0 0 0
0 0 0
0 0 0
0 0 0
0 0 0
0 0 0
0 0 0
0 0 0
0 0 0
0 0 0
0 0 1
0 0 2
0 0 2
0 0 2
0 0 2
0 0 2
0 0 2
0 0 2
0 0 2
0 0 2
0 0 2
0 0 2
0 0 3
0 0 4
0 0 3
0 0 4
0 4 9
2 6 12
0 2 9
0 1 6
2 10 15
23 29 39
47 64 75
79 97 109
93 116 131
93 116 131
83 113 128
83 113 128
82 115 132
78 115 132
77 117 133
77 117 135
77 117 135
77 116 134
77 115 134
79 114 134
79 114 134
79 114 134
79 114 134
79 114 134
79 114 134
79 114 134
79 114 136
79 114 136
79 114 136
79 114 136
79 114 136
79 114 136
77 115 136
77 115 136
79 114 138
79 114 138
79 114 138
79 114 138
77 114 138
77 114 138
77 114 138
77 114 138
77 114 140
77 114 140
77 114 140
77 114 140
78 115 139
79 114 138
79 114 138
79 114 138
79 114 138
79 114 136
79 114 136
79 113 135
79 113 135
79 114 134
79 114 134
79 114 134
79 114 134
79 114 134
79 114 134
79 114 134
79 114 134
79 114 134
79 114 134
79 114 134
79 114 134
79 114 134
79 114 134
79 114 134
79 114 134
79 114 134
79 114 134
79 114 134
79 114 134
79 114 134
79 114 134
79 114 134
79 114 134
79 114 134
79 114 134
79 114 134
79 114 134
79 114 134
79 114 134
79 114 134
79 114 134
79 114 134
79 114 134
79 114 134
79 114 134
79 114 134
82 113 136
82 113 136
82 113 136
82 113 136
82 113 136
80 115 137
80 115 137
78 116 137
78 116 137
78 118 139
78 118 139
82 117 137
82 115 136
85 116 133
93 121 136
91 117 133
81 106 120
53 72 83
31 43 53
4 17 26
0 1 10
0 0 5
2 1 7
2 1 7
2 4 11
2 1 7
1 1 5
1 1 5
3 1 6
3 0 3
3 0 3
3 0 3
3 0 3
3 0 3
3 0 3
3 0 3
3 0 3
3 0 3
3 0 3
3 0 3
3 0 3
2 1 3
1 1 3
1 1 3
1 1 3
1 1 3
1 1 3
1 1 3
1 1 3
1 1 5
1 1 5
2 1 7
2 1 7
2 1 7
2 1 7
1 1 5
0 0 3
0 1 6
6 8 13
6 12 17
6 12 17
2 10 15
1 4 10
0 4 5
0 4 9
1 6 12
0 4 9
0 4 9
1 6 12
6 12 17
12 20 29
24 35 46
39 51 61
53 72 83
70 92 106
88 109 125
90 113 128
88 109 125
84 109 126
84 109 126
85 113 132
89 118 136
89 118 136
85 116 133
82 113 136
80 115 137
82 116 140
80 117 140
78 117 140
77 116 140
76 115 140
75 116 138
76 115 138
77 116 138
76 115 138
77 115 137
76 116 136
76 116 136
76 116 136
76 116 136
77 117 137
77 117 137
77 117 137
77 117 137
77 117 137
77 117 137
77 117 137
77 117 137
77 117 137
77 117 137
77 117 137
77 117 137
77 117 137
77 117 137
77 117 137
77 117 137
77 117 137
77 117 137
77 117 137
77 117 137
77 117 137
77 117 137
77 117 137
78 116 137
78 116 137
77 116 137
77 115 136
77 115 136
77 116 137
78 116 138
82 117 137
82 117 137
79 113 135
77 111 130
79 113 135
82 115 136
87 124 142
87 124 142
87 124 142
89 118 136
70 92 106
31 51 61
4 17 26
0 1 13
0 4 16
1 4 10
0 1 6
1 4 10
1 4 10
1 4 10
0 2 4
0 1 4
1 1 3
2 1 2
3 0 1
3 0 1
0 0 12
14 29 40
62 77 90
97 121 136
95 118 134
81 110 128
85 116 133
86 121 140
82 120 140
77 117 137
74 118 139
75 119 142
75 119 142
75 119 142
75 119 142
75 118 142
75 117 141
77 116 139
77 115 139
78 115 139
78 115 139
78 115 139
78 115 139
80 115 140
78 115 139
77 114 138
77 114 138
78 115 139
77 116 140
78 117 140
78 116 137
79 114 134
82 117 137
87 124 142
97 124 139
90 116 132
81 101 115
55 79 91
39 51 61
14 29 40
0 4 12
0 0 6
1 4 10
2 6 12
0 4 9
0 4 9
0 4 9
0 4 5
0 1 1
0 0 0
0 0 3
0 0 5
0 0 4
0 0 4
0 0 4
0 0 4
0 0 4
0 0 4
0 0 3
0 0 2
0 0 2
0 0 2
1 1 3
1 1 3
1 1 3
1 1 3
0 0 1
0 0 0
0 0 0
0 0 0
0 0 0
0 0 0
0 0 0
0 0 0
1 0 0
2 0 0
2 0 0
2 0 0
1 0 0
0 0 0
0 0 0
0 0 0
0 0 0
0 0 0
0 0 0
0 0 0
0 0 0
0 1 0
0 1 0
0 1 0
0 1 0
0 1 0
0 1 0
0 1 0
0 1 0
0 1 0
0 1 0
0 1 0
0 1 0
0 1 0
0 2 1
0 3 2
0 3 2
1 3 2
0 3 2
0 3 2
0 3 5
0 1 5
2 6 12
12 20 29
31 43 53
53 72 83
71 97 112
90 113 128
97 121 136
93 121 136
85 116 133
79 113 127
71 110 131
70 105 125
70 105 125
76 113 132
82 120 140
87 124 142
87 124 142
77 117 137
75 113 134
75 116 134
75 116 137
75 116 137
75 116 137
75 116 137
75 116 137
76 115 138
76 115 138
77 114 138
77 114 138
77 115 137
77 115 137
77 115 137
77 115 137
78 116 137
78 116 137
78 116 137
78 116 137
77 117 137
77 117 137
77 117 137
77 117 137
76 117 138
75 117 139
75 117 139
75 117 139
75 117 139
74 118 139
74 118 139
74 118 139
74 118 139
74 118 139
74 118 139
74 118 139
74 118 139
74 118 139
74 118 139
75 118 137
77 117 137
79 115 135
89 120 137
97 124 139
81 101 115
39 51 61
0 1 6
0 0 0
1 2 0
3 4 2
0 3 0
0 4 1
0 4 1
0 4 1
0 3 2
0 3 2
0 2 3
0 2 3
0 2 1
0 2 0
0 2 0
0 2 0
0 2 0
0 2 0
0 2 0
0 2 0
0 2 0
0 2 0
0 2 0
0 2 0
0 2 0
0 2 0
0 2 0
0 2 0
0 1 0
0 0 0
0 0 0
0 0 0
0 0 0
0 0 0
0 0 0
0 0 0
0 0 0
0 0 0
0 0 0
0 0 0
0 0 0
0 0 0
0 0 0
0 0 0
0 0 0
0 0 1
0 0 2
0 0 2
0 0 2
0 0 2
0 0 2
0 0 2
0 0 2
0 0 2
0 0 2
0 0 2
0 0 2
0 0 3
0 0 4
0 0 3
0 0 4
0 4 9
2 6 12
0 2 9
0 1 6
2 10 15
23 29 39
47 64 75
79 97 109
93 116 131
93 116 131
83 113 128
83 113 128
82 115 132
78 115 132
77 117 133
77 117 135
77 117 135
77 116 134
77 115 134
79 114 134
79 114 134
79 114 134
79 114 134
79 114 134
79 114 134
79 114 134
79 114 136
79 114 136
79 114 136
79 114 136
79 114 136
79 114 136
77 115 136
77 115 136
77 114 138
77 114 138
77 114 138
77 114 138
77 114 138
77 114 138
77 114 138
77 114 138
77 114 140
77 114 140
77 114 140
77 114 140
77 114 140
77 114 138
77 114 138
77 114 138
78 115 137
79 114 136
79 114 136
77 115 136
78 116 135
79 114 134
79 114 134
79 114 134
79 114 134
79 114 134
79 114 134
79 114 134
79 114 134
79 114 134
79 114 134
79 114 134
79 114 134
77 115 134
76 115 135
76 115 135
76 115 135
76 115 135
76 115 135
76 115 135
76 115 135
76 115 135
76 115 135
76 115 135
76 115 135
76 115 135
76 115 135
76 115 135
76 115 135
77 115 134
79 114 134
79 114 134
79 114 134
79 114 134
79 114 134
79 114 134
79 114 134
79 114 134
79 113 135
79 113 135
79 113 135
79 113 135
79 114 136
80 115 137
78 116 137
78 116 137
77 117 137
77 117 137
77 117 137
82 117 137
82 115 136
85 116 133
93 121 136
91 117 133
81 106 120
53 72 83
31 43 53
4 17 26
0 1 10
0 0 4
2 1 7
2 1 7
2 1 7
2 1 7
1 1 5
1 1 5
1 1 5
2 1 3
2 1 3
2 1 3
2 1 3
3 0 3
3 0 3
3 0 3
3 0 3
3 0 3
3 0 3
3 0 3
3 0 3
2 1 3
1 1 3
1 1 3
1 1 3
1 1 3
1 1 3
1 1 3
1 1 3
1 1 5
1 1 5
2 1 7
2 1 7
2 1 7
2 1 7
0 0 4
0 0 2
1 1 5
6 12 17
6 12 17
6 12 17
0 4 9
0 1 3
0 3 5
1 6 12
2 10 15
2 10 15
1 4 10
0 0 5
0 0 6
0 2 9
0 12 19
12 20 29
31 43 53
47 64 75
62 77 90
70 92 106
81 101 115
88 109 125
93 116 131
97 121 136
96 123 138
89 118 136
85 116 133
79 113 132
79 113 135
80 115 140
80 117 140
82 118 141
80 117 140
78 118 139
77 117 139
76 115 138
75 116 137
76 115 138
77 115 137
76 116 136
76 116 136
76 116 136
76 116 136
77 117 137
77 117 137
77 117 137
77 117 137
77 117 137
77 117 137
77 117 137
77 117 137
77 117 137
77 117 137
77 117 137
77 117 137
77 117 137
77 117 137
77 117 137
77 117 137
77 117 137
77 117 137
77 117 137
77 117 137
77 117 137
77 117 137
77 117 137
78 116 137
78 115 137
76 114 136
78 115 137
80 117 140
80 117 140
79 114 136
79 113 135
82 113 136
82 113 136
82 113 136
82 115 136
82 116 140
82 116 140
79 113 135
82 113 136
87 124 142
85 113 132
55 79 91
14 29 40
0 12 19
0 4 16
1 4 10
0 2 9
1 4 10
1 4 10
1 4 10
0 1 6
0 1 4
1 1 3
2 1 2
3 0 1
3 0 1
0 0 12
14 29 40
62 77 90
97 121 136
95 118 134
81 110 128
85 116 133
86 121 140
82 120 140
77 117 137
74 118 139
75 119 142
75 119 142
75 119 142
75 119 142
75 118 142
77 116 142
78 117 140
77 116 140
80 115 140
80 115 140
80 115 140
80 115 140
80 117 140
78 115 139
76 112 136
76 113 137
78 115 139
80 117 140
82 118 141
80 117 140
79 114 134
83 118 136
97 124 139
97 124 139
88 109 125
62 77 90
31 51 61
12 20 29
0 4 12
0 0 5
0 0 6
0 4 9
1 6 12
0 6 5
0 6 5
0 4 5
0 5 1
0 3 2
0 3 2
0 1 3
0 1 4
0 0 3
0 0 2
0 1 4
0 1 5
0 1 5
0 1 5
1 1 5
1 1 3
1 1 3
1 1 3
1 1 3
1 1 3
1 1 3
1 1 3
0 0 1
0 0 0
0 0 0
0 0 0
0 0 0
0 0 0
0 0 0
0 0 0
0 0 0
1 0 0
1 0 0
1 0 0
0 0 0
0 0 0
0 0 0
0 0 0
0 0 0
0 0 0
0 0 0
0 0 0
0 0 0
0 1 0
0 1 0
0 1 0
0 1 0
0 0 1
0 0 1
0 0 1
0 0 1
0 1 1
0 1 1
0 1 1
0 1 1
0 1 1
0 3 2
0 6 5
2 6 12
2 10 15
2 6 12
1 4 5
0 1 4
1 6 12
12 20 29
31 51 61
53 72 83
70 92 106
84 109 126
91 117 133
89 120 137
85 116 133
82 115 132
78 115 132
76 113 132
75 113 134
75 113 134
77 116 134
78 118 139
82 120 140
82 120 140
77 117 135
76 115 135
77 116 134
77 116 137
77 116 137
77 116 137
77 116 137
77 116 137
77 116 138
77 116 137
78 116 137
78 116 137
78 115 137
78 115 137
78 115 137
78 115 137
78 115 137
78 115 137
78 115 137
78 115 137
77 116 138
77 116 138
77 116 138
77 116 138
75 116 139
75 117 139
75 117 139
75 117 139
75 117 139
74 118 139
74 118 139
74 118 139
74 118 139
74 118 139
74 118 139
74 118 139
74 118 139
74 118 139
74 118 139
75 118 137
77 117 137
79 115 135
89 120 137
97 124 139
81 101 115
39 51 61
0 1 6
0 0 0
2 1 1
3 4 2
0 3 0
0 4 1
0 4 1
0 3 2
0 2 2
0 2 3
0 2 3
0 2 2
0 2 1
0 2 1
0 2 0
0 2 0
0 2 0
0 2 0
0 2 0
0 2 0
0 2 0
0 2 0
0 2 0
0 2 0
0 2 0
0 2 0
0 2 0
0 2 0
0 1 0
0 0 0
0 0 0
0 0 0
0 0 0
0 0 0
0 0 0
0 0 0
0 0 0
0 0 0
0 0 0
0 0 0
0 0 0
0 0 0
0 0 0
0 0 0
0 0 0
0 0 1
0 0 2
0 0 2
0 0 2
0 0 2
0 0 2
0 0 2
0 0 2
0 0 2
0 0 2
0 0 2
0 0 2
0 0 3
0 0 4
0 0 4
0 0 4
1 1 8
2 6 12
1 1 8
0 0 9
2 10 15
24 35 46
47 64 75
79 97 109
93 116 131
93 116 131
83 113 128
82 113 130
82 115 132
78 115 132
77 117 133
77 117 133
77 117 135
77 116 137
77 115 134
77 115 134
78 116 135
78 116 135
78 116 135
78 116 135
78 116 135
77 115 136
77 115 136
77 115 136
77 115 136
77 115 136
77 115 136
77 115 136
76 116 136
76 116 136
77 115 137
77 115 137
77 115 137
77 115 137
77 115 137
77 115 137
77 115 137
76 115 138
76 115 138
76 115 140
76 115 140
76 115 140
76 115 138
76 115 138
77 115 137
75 116 137
77 116 137
77 116 137
77 116 137
77 116 137
77 116 134
77 115 134
77 115 134
77 115 134
78 116 135
77 116 134
77 116 134
77 116 134
77 116 134
77 116 134
77 116 134
77 116 134
77 116 134
76 115 135
75 116 134
75 116 134
75 116 134
75 116 134
75 116 134
75 116 134
75 116 134
75 116 134
75 116 134
75 116 134
75 116 134
75 116 134
75 116 134
75 116 134
75 116 134
76 115 135
77 116 134
77 116 134
77 116 134
77 116 134
77 116 134
77 116 134
77 116 134
77 116 134
79 114 134
79 114 134
79 114 134
79 114 134
78 115 137
78 116 137
77 117 137
77 117 137
77 117 137
77 117 137
77 117 135
78 116 135
79 115 135
85 116 133
89 120 137
91 117 133
81 101 115
53 72 83
31 43 53
4 17 26
0 0 9
0 0 3
1 1 5
2 1 7
2 1 7
1 1 5
0 0 4
0 0 4
0 0 4
1 0 3
1 1 2
1 1 2
1 1 2
2 1 3
2 1 3
2 1 3
2 1 3
2 1 3
2 1 3
2 1 3
2 1 3
1 1 3
1 1 3
1 1 3
1 1 3
1 1 3
1 1 3
1 1 3
1 1 3
1 1 3
1 1 5
1 1 5
1 1 5
1 1 5
0 2 4
0 1 3
0 0 3
0 1 5
1 4 10
2 6 12
1 4 10
0 3 5
0 3 5
0 4 5
0 4 9
1 6 12
1 6 12
0 4 9
0 1 6
0 0 5
0 1 6
0 4 12
0 8 14
4 17 26
14 29 40
31 43 53
47 64 75
68 87 100
81 106 120
95 118 134
95 118 134
90 113 128
84 109 126
85 113 132
83 118 136
79 113 132
77 111 130
71 110 131
79 113 135
87 124 142
87 124 142
87 124 142
75 116 137
72 113 134
75 116 137
77 117 137
76 116 136
76 116 136
76 116 136
76 116 136
76 116 136
76 116 136
76 116 136
76 116 136
76 116 136
76 116 136
76 116 136
76 116 136
77 117 137
77 117 137
77 117 137
77 117 137
77 117 137
77 117 137
77 117 137
77 117 137
77 117 137
77 117 137
77 117 137
77 117 137
77 117 137
77 116 137
78 116 137
80 115 137
79 114 136
79 113 135
82 117 137
86 121 140
82 118 141
76 112 136
77 111 130
79 113 135
82 115 136
82 116 140
82 116 140
86 121 140
82 117 137
70 105 125
70 105 125
86 121 140
96 123 138
71 97 112
47 64 75
14 29 40
0 12 19
0 4 12
0 4 12
1 4 10
0 4 9
0 3 5
0 1 6
1 1 5
2 1 3
2 1 3
4 1 2
4 1 2
0 0 12
14 29 40
62 77 90
97 121 136
95 118 134
81 110 128
85 116 133
86 121 140
82 120 140
77 117 137
74 118 139
75 119 142
75 119 142
75 119 142
75 119 142
75 118 142
77 116 142
78 117 140
78 117 140
80 117 140
80 117 140
80 117 140
80 117 140
82 118 141
78 115 139
76 112 136
77 114 138
80 117 140
82 120 140
87 124 142
82 120 140
82 117 137
89 118 136
89 118 136
88 109 125
68 87 100
39 51 61
12 20 29
0 4 16
0 0 9
1 1 8
2 4 11
1 6 12
0 6 5
0 6 5
0 6 5
0 5 1
0 5 1
0 4 1
0 4 1
0 2 3
0 1 1
0 0 2
0 0 2
0 1 4
0 1 5
0 1 5
0 1 5
1 1 5
1 1 3
1 1 3
1 1 3
1 1 3
1 1 3
1 1 3
1 1 3
0 0 1
0 0 0
0 0 0
0 0 0
0 0 0
0 0 0
0 0 0
0 0 0
0 0 0
0 0 0
0 0 0
0 0 0
0 0 0
0 0 0
0 0 0
0 0 0
0 0 0
0 0 0
0 0 0
0 0 0
0 0 0
0 1 0
0 1 0
0 1 0
0 1 0
0 0 1
0 0 2
0 0 2
0 0 2
0 1 1
0 1 1
0 1 1
0 1 1
0 3 5
0 6 5
1 6 12
2 10 15
2 6 12
1 6 12
0 4 5
1 6 12
12 20 29
31 51 61
53 72 83
70 92 106
81 106 120
85 116 133
85 116 133
82 115 132
79 113 132
77 115 134
78 117 135
78 118 139
78 118 139
78 118 139
77 117 139
76 116 136
75 116 136
76 115 135
77 117 135
77 117 135
78 116 135
78 116 135
79 115 135
79 115 135
79 115 135
79 115 135
78 116 137
78 116 137
78 116 137
78 116 137
78 115 137
78 115 139
78 115 139
78 115 139
78 115 139
78 115 139
78 115 139
78 115 139
77 116 139
77 116 139
77 116 139
77 116 139
75 116 139
75 117 139
75 117 139
75 117 139
75 117 139
74 118 139
74 118 139
74 118 139
74 118 139
74 118 139
74 118 139
74 118 139
74 118 139
74 118 139
74 118 139
75 118 137
77 117 137
79 115 135
89 120 137
97 124 139
81 101 115
39 51 61
0 1 6
0 0 0
3 0 1
3 4 2
0 3 0
0 4 1
0 4 1
0 3 2
0 2 3
0 2 4
0 2 3
0 2 2
0 2 1
0 2 1
0 2 0
0 2 0
0 2 0
0 2 0
0 2 0
0 2 0
0 2 0
0 2 0
0 2 0
0 2 0
0 2 0
0 2 0
0 2 0
0 2 0
0 1 0
0 0 0
0 0 0
0 0 0
0 0 0
0 0 0
0 0 0
0 0 0
0 0 0
0 0 0
0 0 0
0 0 0
0 0 0
0 0 0
0 0 0
0 0 0
0 0 0
0 0 1
0 0 2
0 0 2
0 0 2
0 0 2
0 0 2
0 0 2
0 0 2
0 0 2
0 0 2
0 0 2
0 0 2
0 0 3
0 0 4
0 0 4
0 0 4
1 1 8
2 6 12
1 1 8
0 0 9
2 10 15
24 35 46
47 64 75
79 97 109
93 116 131
90 116 132
83 113 128
82 113 130
82 115 132
78 115 132
77 117 133
77 117 133
77 117 135
77 116 137
77 115 136
77 115 136
77 115 136
77 115 136
77 115 136
77 115 136
77 115 136
77 115 136
77 115 136
77 115 136
77 115 136
77 115 136
77 115 136
77 115 136
76 116 136
76 116 136
76 116 136
76 116 136
76 116 136
76 116 136
76 116 136
76 116 136
77 115 137
76 115 138
76 115 138
76 115 138
76 115 138
76 115 138
76 115 138
76 115 138
77 115 137
76 116 136
76 116 136
76 116 136
76 116 136
76 116 136
76 115 135
77 115 134
77 115 134
77 115 134
77 115 134
76 116 136
76 116 136
76 116 136
76 116 136
76 116 136
76 116 136
76 116 136
76 116 136
75 116 136
74 116 136
74 116 136
74 116 136
74 116 136
74 116 136
74 116 136
74 116 136
74 116 136
74 116 136
74 116 136
74 116 136
74 116 136
74 116 136
74 116 136
74 116 136
75 116 136
76 116 136
76 116 136
76 116 136
76 116 136
76 116 136
76 116 136
76 116 136
76 116 136
76 115 135
76 115 135
76 115 135
76 115 135
77 116 137
77 117 137
77 117 137
77 117 137
77 117 137
77 117 137
77 117 135
78 116 135
79 115 135
83 113 135
89 118 136
90 116 132
81 101 115
53 72 83
31 43 53
4 17 26
0 0 9
0 0 2
2 1 3
1 1 5
2 1 7
1 1 5
0 0 4
0 0 4
0 0 4
0 0 3
0 0 2
0 0 2
0 0 2
1 1 3
1 1 3
1 1 3
1 1 3
1 1 3
1 1 3
1 1 3
1 1 3
1 1 3
1 1 3
1 1 3
1 1 3
1 1 3
1 1 3
1 1 3
1 1 3
1 1 3
1 1 3
1 1 3
1 1 3
1 1 3
0 2 3
0 2 3
0 1 4
0 1 5
0 1 4
0 1 3
0 2 4
0 3 5
0 4 5
0 4 5
0 4 5
0 3 5
0 3 5
0 4 9
1 4 10
1 4 10
2 6 12
2 6 12
0 4 9
1 1 8
0 4 12
4 17 26
24 35 46
47 64 75
68 87 100
81 106 120
88 109 125
81 106 120
81 106 120
85 113 132
89 118 136
83 113 135
77 107 124
70 105 125
79 113 135
87 124 142
87 124 142
87 124 142
75 116 136
72 113 134
75 116 136
77 117 137
76 116 136
76 116 136
76 116 136
76 116 136
76 116 136
76 116 136
76 116 136
76 116 136
76 116 136
76 116 136
76 116 136
76 116 136
77 117 137
77 117 137
77 117 137
77 117 137
77 117 137
77 117 137
77 117 137
77 117 137
77 117 137
77 117 137
77 117 137
77 117 137
77 117 137
78 116 137
78 116 137
80 115 137
79 114 136
79 113 135
82 116 140
86 121 140
82 116 140
79 113 135
77 111 130
82 113 136
82 113 136
82 113 136
82 116 140
86 121 140
82 118 141
71 110 131
70 105 125
79 113 135
89 120 137
84 109 126
68 87 100
31 51 61
4 17 26
0 4 12
0 4 12
1 6 12
0 4 9
0 4 9
0 1 6
1 1 5
2 1 3
2 1 3
4 1 2
4 1 2
0 0 12
14 29 40
62 77 90
97 121 136
95 118 134
81 110 128
85 116 133
86 122 140
82 120 140
75 118 137
74 118 139
75 119 142
75 119 142
75 119 142
75 119 142
75 118 142
77 116 142
77 116 142
78 117 140
80 117 140
80 117 140
80 117 140
80 117 140
82 118 141
80 115 140
78 115 139
80 115 140
86 121 140
87 124 142
87 124 142
86 122 140
82 117 137
82 113 130
81 106 120
68 87 100
39 51 61
12 20 29
0 4 16
0 4 16
1 6 12
1 6 12
0 4 9
0 4 9
0 6 5
0 6 5
0 5 1
0 5 1
0 5 1
0 4 1
0 3 2
0 2 2
0 1 1
0 0 2
0 0 2
0 1 4
0 1 5
0 1 5
0 1 5
1 1 5
1 1 3
1 1 3
1 1 3
1 1 3
1 1 3
1 1 3
1 1 3
0 0 1
0 0 0
0 0 0
0 0 0
0 0 0
0 0 0
0 0 0
0 0 0
0 0 0
0 0 0
0 0 0
0 0 0
0 0 0
0 0 0
0 0 0
0 0 0
0 0 0
0 0 0
0 0 0
0 0 0
0 0 0
0 0 0
0 0 0
0 1 0
0 1 0
0 1 1
0 0 2
0 0 2
0 0 2
0 1 1
0 1 1
0 1 1
0 1 3
0 4 5
1 6 12
1 6 12
1 4 10
1 1 8
1 6 12
0 12 19
14 29 40
31 51 61
53 72 83
70 92 106
81 106 120
85 116 133
89 118 136
82 115 132
77 111 130
71 110 131
75 113 134
76 117 138
75 119 142
75 118 138
75 118 138
75 117 139
75 118 137
76 117 136
76 117 136
77 117 135
77 117 133
78 117 135
78 117 135
79 115 135
79 115 135
79 115 132
79 115 132
79 115 135
79 115 135
79 115 135
80 115 137
78 115 139
78 115 139
78 115 139
78 115 139
78 115 139
78 115 139
78 115 139
78 115 139
77 116 139
77 116 139
77 116 139
77 116 139
75 116 139
75 117 139
75 117 139
75 117 139
75 117 139
74 118 139
74 118 139
74 118 139
74 118 139
74 118 139
74 118 139
74 118 139
74 118 139
74 118 139
74 118 139
75 118 137
77 117 137
79 115 135
89 120 137
97 124 139
81 101 115
39 51 61
0 0 7
0 0 0
3 0 1
3 4 2
0 3 0
0 4 1
0 4 1
0 3 2
0 2 3
0 2 4
0 2 3
0 2 2
0 2 1
0 2 1
0 2 0
0 2 0
0 2 0
0 2 0
0 2 0
0 2 0
0 2 0
0 2 0
0 2 0
0 2 0
0 2 0
0 2 0
0 2 0
0 2 0
0 1 0
0 0 0
0 0 0
0 0 0
0 0 0
0 0 0
0 0 0
0 0 0
0 0 0
0 0 0
0 0 0
0 0 0
0 0 0
0 0 0
0 0 0
0 0 0
0 0 0
0 0 1
0 0 2
0 0 2
0 0 2
0 0 2
0 0 2
0 0 2
0 0 2
0 0 2
0 0 2
0 0 2
0 0 2
0 0 3
0 0 4
0 0 4
0 0 5
1 4 10
2 6 12
0 2 9
0 0 9
2 10 15
24 35 46
47 64 75
79 97 109
93 116 131
90 116 132
83 113 128
82 113 130
82 115 132
77 116 134
77 117 133
77 117 135
77 117 135
77 116 137
77 115 136
77 115 136
77 115 136
77 116 137
76 116 136
76 116 136
76 116 136
76 116 136
77 115 136
77 115 136
77 115 136
77 115 136
76 116 136
76 116 136
76 116 136
76 116 136
76 116 136
76 116 136
76 116 136
76 116 136
75 116 136
75 116 136
75 116 136
75 116 137
75 116 137
75 116 138
75 116 138
75 116 138
75 116 137
75 116 137
75 116 136
75 116 136
75 116 136
75 116 136
75 116 136
75 116 136
75 116 134
75 116 134
75 116 134
75 116 134
75 116 134
75 116 136
75 116 136
75 116 136
75 116 136
75 116 136
75 116 136
75 116 136
75 116 136
73 117 136
72 117 136
73 117 136
73 117 136
73 117 136
73 117 136
73 117 136
73 117 136
73 117 136
73 117 136
73 117 136
73 117 136
73 117 136
73 117 136
73 117 136
72 117 136
73 117 136
75 116 136
75 116 136
75 116 136
75 116 136
75 116 136
75 116 136
75 116 136
75 116 136
75 116 136
75 116 136
75 116 136
75 116 136
76 117 136
75 118 137
75 118 137
75 118 137
75 118 137
77 117 137
77 116 137
78 116 135
79 115 135
83 113 135
89 118 136
90 116 132
81 101 115
53 72 83
31 43 53
4 17 26
0 0 9
0 0 2
2 1 3
1 1 5
2 1 7
1 1 5
0 0 4
0 0 4
0 0 4
0 0 3
0 0 2
0 0 2
0 0 2
1 1 3
1 1 3
1 1 3
1 1 3
1 1 3
1 1 3
1 1 3
1 1 3
1 1 3
1 1 3
1 1 3
1 1 3
1 1 3
1 1 3
1 1 3
1 1 3
1 1 3
1 1 3
1 1 3
1 1 3
1 1 3
0 2 3
0 2 3
0 2 4
0 2 4
0 1 3
0 1 1
0 1 3
0 2 4
0 3 5
0 3 5
0 3 5
0 2 4
0 2 4
0 3 5
0 3 5
1 4 5
1 4 5
1 4 5
0 2 4
0 0 5
0 0 5
0 4 12
6 12 17
14 29 40
31 43 53
53 72 83
70 92 106
81 106 120
88 109 125
90 113 128
85 113 132
85 116 133
85 116 133
83 118 136
82 117 137
82 116 140
80 115 137
78 115 137
76 114 136
75 113 134
73 115 135
75 116 136
76 115 135
76 115 135
75 113 134
76 115 135
76 116 136
76 116 136
76 116 136
76 116 136
76 116 136
76 116 136
76 116 136
76 116 136
77 117 137
77 117 137
77 117 137
77 117 137
77 117 137
77 117 137
77 117 137
77 117 137
77 117 137
77 117 137
77 117 137
78 116 137
78 116 137
80 115 137
80 115 137
80 115 137
82 115 136
82 116 140
82 113 136
82 113 136
82 113 136
83 113 135
82 116 140
82 113 136
79 113 135
77 111 130
79 113 135
82 118 141
87 124 142
77 116 138
71 110 131
76 113 132
85 116 133
91 117 133
81 101 115
47 64 75
12 20 29
0 4 16
0 6 13
0 6 13
2 6 12
2 4 11
1 1 8
0 2 4
2 1 3
4 1 2
4 1 2
4 1 2
0 0 12
14 29 40
62 77 90
97 121 136
95 118 134
81 110 128
85 116 133
86 122 140
82 120 140
75 118 137
74 118 139
75 119 142
75 119 142
75 119 142
75 119 142
75 118 142
77 116 142
77 116 142
78 117 140
80 117 140
80 117 140
80 117 140
80 117 140
80 117 140
80 117 140
82 118 141
82 118 141
87 124 142
87 124 142
86 122 140
80 117 140
77 111 130
71 97 112
55 79 91
39 51 61
12 20 29
0 1 13
0 1 13
2 10 15
6 12 17
6 12 17
2 6 12
0 6 5
0 5 1
0 5 1
0 5 1
0 5 1
0 5 1
0 4 1
0 3 0
0 2 1
0 1 1
0 0 2
0 0 3
0 1 4
0 1 5
0 1 5
0 1 5
1 1 5
1 1 3
1 1 3
1 1 3
1 1 3
1 1 3
1 1 3
1 1 3
0 0 1
0 0 0
0 0 0
0 0 0
0 0 0
0 0 0
0 0 0
0 0 0
0 0 0
0 0 0
0 0 0
0 0 0
0 0 0
0 0 0
0 0 0
0 0 0
0 0 0
0 0 0
0 0 0
0 0 0
0 0 0
0 0 0
0 0 0
0 1 0
0 1 0
0 1 1
0 0 2
0 0 2
0 0 2
0 1 1
0 1 1
0 1 1
0 1 3
0 4 9
0 8 14
0 6 5
0 2 4
0 0 4
0 8 14
14 29 40
31 51 61
53 72 83
70 92 106
81 106 120
85 113 132
85 116 133
85 116 133
79 113 132
77 111 130
71 110 131
73 115 135
75 117 139
75 117 141
75 117 139
75 117 139
75 117 139
75 118 138
75 118 137
76 117 136
77 117 135
77 117 133
77 117 133
77 117 133
79 115 132
79 115 132
79 115 132
79 115 132
79 115 135
79 115 135
80 115 137
80 115 137
78 115 139
78 115 139
78 115 139
78 115 139
78 115 139
78 115 139
78 115 139
78 115 139
77 116 139
77 116 139
77 116 139
77 116 139
75 116 139
75 117 139
75 117 139
75 117 139
75 117 139
74 118 139
74 118 139
74 118 139
74 118 139
74 118 139
74 118 139
74 118 139
74 118 139
74 118 139
74 118 139
75 118 137
77 117 137
79 115 135
89 120 137
97 124 139
81 101 115
39 51 61
0 0 9
0 0 0
3 0 1
3 4 2
0 3 0
0 4 1
0 4 1
0 3 2
0 2 3
0 2 4
0 2 3
0 2 2
0 2 1
0 2 1
0 2 0
0 2 0
0 2 0
0 2 0
0 2 0
0 2 0
0 2 0
0 2 0
0 2 0
0 2 0
0 2 0
0 2 0
0 2 0
0 2 0
0 1 0
0 0 0
0 0 0
0 0 0
0 0 0
0 0 0
0 0 0
0 0 0
0 0 0
0 0 0
0 0 0
0 0 0
0 0 0
0 0 0
0 0 0
0 0 0
0 0 0
0 0 1
0 0 2
0 0 2
0 0 2
0 0 2
0 0 2
0 0 2
0 0 2
0 0 2
0 0 2
0 0 2
0 0 2
0 0 3
0 0 4
0 0 4
0 0 6
1 4 10
2 6 12
0 1 10
0 0 9
2 10 15
24 35 46
47 64 75
79 97 109
93 116 131
90 116 132
83 113 128
82 113 130
82 115 132
78 116 135
77 117 135
77 117 135
77 117 135
77 116 137
77 115 136
77 115 136
77 115 136
77 116 137
76 116 136
76 116 136
76 116 136
76 116 136
77 115 136
77 115 136
77 115 136
77 115 136
76 116 136
76 116 136
76 116 136
76 116 136
76 116 136
76 116 136
76 116 136
76 116 136
75 116 136
74 116 136
74 116 136
74 116 136
75 116 137
74 116 138
74 116 138
74 116 138
75 116 137
74 116 136
74 116 136
74 116 136
74 116 136
74 116 136
74 116 136
74 116 136
74 117 135
74 117 135
74 117 135
74 117 135
74 117 135
74 116 136
74 116 136
74 116 136
74 116 136
74 116 136
74 116 136
74 116 136
74 116 136
73 117 136
72 117 136
72 117 136
72 117 136
72 117 136
72 117 136
72 117 136
72 117 136
72 117 136
72 117 136
72 117 136
72 117 136
72 117 136
72 117 136
72 117 136
72 117 136
73 117 136
74 116 136
74 116 136
74 116 136
74 116 136
74 116 136
74 116 136
74 116 136
74 116 136
74 116 136
74 116 136
74 116 136
74 116 136
75 118 137
75 118 137
75 118 137
75 118 137
75 118 137
77 117 137
77 116 137
78 116 135
79 115 135
83 113 135
89 118 136
90 116 132
81 101 115
53 72 83
31 43 53
4 17 26
0 0 9
0 0 2
2 1 3
1 1 5
2 1 7
1 1 5
0 0 4
0 0 4
0 0 4
0 0 3
0 0 2
0 0 2
0 0 2
1 1 3
1 1 3
1 1 3
1 1 3
1 1 3
1 1 3
1 1 3
1 1 3
1 1 3
1 1 3
1 1 3
1 1 3
1 1 3
1 1 3
1 1 3
1 1 3
1 1 3
1 1 3
1 1 3
1 1 3
1 1 3
0 2 3
0 2 3
0 2 3
0 2 3
0 2 3
0 2 3
0 2 3
0 2 3
0 2 3
0 2 3
0 2 3
0 2 3
0 2 3
0 2 2
0 2 3
0 3 5
0 3 5
0 3 5
0 4 5
0 4 9
0 4 9
1 4 10
0 2 9
0 4 12
0 12 19
24 35 46
47 64 75
70 92 106
81 106 120
88 109 125
90 113 128
90 116 132
89 120 137
89 120 137
82 117 137
76 112 136
71 110 131
71 110 131
76 114 136
76 115 135
73 115 135
73 115 135
73 115 135
73 115 135
73 115 135
76 115 135
76 116 136
76 116 136
76 116 136
76 116 136
76 116 136
76 116 136
76 116 136
76 116 136
77 117 137
77 117 137
77 117 137
77 117 137
77 117 137
77 117 137
77 117 137
77 117 137
77 117 137
77 117 137
77 117 137
78 116 137
78 116 137
80 115 137
80 115 137
80 115 137
82 116 140
86 121 140
83 113 135
77 111 130
81 110 128
89 120 137
96 123 138
89 118 136
77 111 130
70 105 125
75 113 134
82 118 141
87 124 142
87 124 142
78 118 139
72 113 134
77 111 130
90 116 132
88 109 125
62 77 90
24 35 46
4 17 26
2 10 15
1 6 12
2 4 11
2 4 11
1 1 8
0 2 4
2 1 3
4 2 0
7 1 0
7 1 0
0 0 12
14 29 40
62 77 90
97 121 136
95 118 134
81 110 128
85 116 133
86 122 140
82 120 140
75 118 138
74 118 139
75 119 142
75 119 142
75 119 142
75 118 142
75 118 142
75 118 142
77 116 142
78 117 140
80 117 140
80 117 140
80 117 140
80 115 140
80 115 140
82 118 141
82 118 141
87 124 142
87 124 142
82 118 141
76 114 136
70 105 125
71 97 112
55 79 91
31 51 61
14 29 40
0 12 19
0 0 12
0 0 7
1 4 10
6 12 17
6 12 17
6 12 17
0 4 5
0 4 1
0 5 1
0 5 1
0 5 1
0 5 1
0 5 1
0 4 1
0 3 2
0 2 1
0 1 3
0 1 3
0 1 5
0 1 5
0 1 5
0 1 5
1 1 5
1 1 3
1 1 3
1 1 3
1 1 3
1 1 3
1 1 3
1 1 3
0 0 1
0 0 0
0 0 0
0 0 0
0 0 0
0 0 0
0 0 0
0 0 0
0 0 0
0 0 0
0 0 0
0 0 0
0 0 0
0 0 0
0 0 0
0 0 0
0 0 0
1 0 0
1 0 0
1 0 0
1 0 0
1 0 0
0 0 0
0 0 0
0 0 0
0 0 1
0 0 2
0 0 2
0 0 2
0 1 3
0 1 4
0 1 3
0 1 3
0 6 5
2 10 15
1 6 12
0 4 9
0 8 14
12 20 29
31 51 61
55 79 91
71 97 112
84 109 126
90 113 128
89 118 136
85 116 133
79 113 132
77 111 130
76 113 132
75 113 134
73 116 139
73 117 141
75 118 142
73 117 141
73 117 141
74 118 139
74 118 139
75 118 138
75 118 137
77 117 135
78 117 135
77 117 133
79 115 132
79 115 132
79 115 132
79 115 132
82 115 132
82 115 132
82 115 132
82 115 136
79 115 135
78 116 137
78 116 138
78 115 137
78 115 139
78 115 139
78 115 139
78 115 139
78 115 139
77 116 139
77 116 139
77 116 139
77 116 139
75 116 139
75 117 139
75 117 139
75 117 139
75 117 139
74 118 139
74 118 139
74 118 139
74 118 139
74 118 139
74 118 139
74 118 139
74 118 139
74 118 139
74 118 139
75 118 137
77 117 137
79 115 135
89 120 137
97 124 139
81 101 115
39 51 61
0 0 9
0 0 0
3 0 1
3 4 2
0 3 0
0 4 1
0 4 1
0 3 2
0 2 3
0 2 4
0 2 3
0 2 2
0 2 1
0 2 1
0 2 0
0 2 0
0 2 0
0 2 0
0 2 0
0 2 0
0 2 0
0 2 0
0 2 0
0 2 0
0 2 0
0 2 0
0 2 0
0 2 0
0 1 0
0 0 0
0 0 0
0 0 0
0 0 0
0 0 0
0 0 0
0 0 0
0 0 0
0 0 0
0 0 0
0 0 0
0 0 0
0 0 0
0 0 0
0 0 0
0 0 0
0 0 1
0 0 2
0 0 2
0 0 2
0 0 2
0 0 2
0 0 2
0 0 2
0 0 2
0 0 2
0 0 2
0 0 2
0 0 3
0 0 4
0 0 4
0 0 6
1 4 10
2 6 12
0 1 10
0 0 9
2 10 15
24 35 46
47 64 75
79 97 109
93 116 131
90 116 132
83 113 128
82 113 130
82 115 132
78 116 135
77 117 135
77 117 135
77 117 135
77 116 137
77 115 136
77 115 136
77 115 136
77 116 137
76 116 136
76 116 136
76 116 136
76 116 136
76 116 136
76 116 136
76 116 136
77 116 137
76 116 136
75 116 136
75 116 136
75 116 136
75 116 136
75 116 136
75 116 136
75 116 136
74 116 136
74 116 136
73 117 136
72 117 136
72 117 136
72 117 138
72 117 138
73 117 138
73 117 136
73 117 136
73 117 136
73 117 136
73 117 136
73 117 136
73 117 136
73 117 136
72 117 135
73 118 135
73 118 135
73 118 135
73 118 135
73 117 136
73 117 136
73 117 136
73 117 136
73 117 136
73 117 136
73 117 136
73 117 136
72 117 136
72 117 136
72 117 136
72 117 136
72 117 136
72 117 136
72 117 136
72 117 136
72 117 136
72 117 136
72 117 136
72 117 136
72 117 136
72 117 136
72 117 136
72 117 136
72 117 136
73 117 136
73 117 136
73 117 136
73 117 136
73 117 136
73 117 136
73 117 136
73 117 136
72 117 136
72 117 136
72 117 136
72 117 136
75 118 137
75 118 137
75 118 137
75 118 137
75 118 137
77 117 137
77 116 137
78 116 135
79 115 135
83 113 135
89 118 136
90 116 132
81 101 115
53 72 83
31 43 53
4 17 26
0 0 7
0 0 3
1 1 5
1 1 5
1 1 5
0 0 4
0 0 4
0 0 4
0 0 4
0 0 3
0 0 2
0 0 2
0 0 2
1 1 3
1 1 3
1 1 3
1 1 3
1 1 3
1 1 3
1 1 3
1 1 3
1 1 3
1 1 3
1 1 3
1 1 3
1 1 3
1 1 3
1 1 3
1 1 3
1 1 3
1 1 3
1 1 3
1 1 3
1 1 3
1 1 2
1 1 2
1 1 2
1 1 1
0 2 2
0 2 2
0 2 2
0 2 2
0 2 2
0 2 2
0 2 2
0 2 1
0 2 1
0 2 1
0 2 2
0 3 2
0 3 2
0 2 3
0 3 5
1 4 5
0 4 9
1 6 12
0 4 9
0 4 12
0 4 12
6 12 17
23 29 39
47 64 75
68 87 100
81 106 120
88 109 125
90 113 128
85 113 132
83 113 128
81 110 128
77 111 130
77 111 130
76 113 132
76 114 136
76 115 135
73 115 135
73 115 135
73 115 135
73 115 135
74 116 136
75 116 136
75 116 136
76 116 136
76 116 136
76 116 136
76 115 135
76 115 135
76 115 135
76 115 135
77 117 135
77 117 137
77 117 137
77 117 137
77 117 137
77 117 137
77 117 137
77 117 137
77 117 137
77 117 137
77 117 137
78 116 137
78 116 137
80 115 137
80 115 137
80 115 137
82 116 140
86 121 140
83 113 135
77 107 124
81 110 128
86 121 140
97 124 139
82 116 140
77 111 130
71 110 131
76 113 132
80 117 140
87 124 142
87 124 142
82 120 140
72 113 134
71 110 131
85 113 132
90 113 128
79 97 109
47 64 75
24 35 46
4 17 26
2 4 11
1 1 3
2 1 3
2 1 7
3 4 6
5 4 5
4 1 2
7 1 0
7 1 0
0 0 12
14 29 40
62 77 90
97 121 136
95 118 134
81 110 128
85 116 133
86 122 140
82 120 140
74 118 139
72 118 141
75 119 142
75 119 142
75 119 142
75 118 142
75 118 142
75 118 142
77 116 142
78 117 140
80 117 140
80 117 140
80 117 140
80 115 140
80 115 140
82 116 140
82 118 141
87 124 142
87 124 142
82 116 140
70 105 125
70 92 106
53 72 83
31 51 61
14 29 40
0 12 19
0 4 16
0 4 12
0 0 5
0 0 2
5 6 9
6 12 17
6 12 17
0 4 5
0 4 1
0 5 1
0 5 1
0 5 1
0 5 1
0 5 1
0 5 1
0 4 1
0 3 2
0 2 3
0 2 3
0 1 5
0 1 5
0 1 5
0 1 5
1 1 5
1 1 3
1 1 3
1 1 3
1 1 3
1 1 3
1 1 3
1 1 3
0 0 1
0 0 0
0 0 0
0 0 0
0 0 0
0 0 0
0 0 0
0 0 0
0 0 0
0 0 0
0 0 0
0 0 0
0 0 0
0 0 0
0 0 0
0 0 0
0 0 0
1 0 0
2 0 0
2 0 0
2 0 0
1 0 0
0 0 0
0 0 0
0 0 0
0 0 1
0 0 2
0 0 2
0 0 2
0 0 3
0 1 4
0 1 4
0 2 4
1 4 5
0 4 5
0 4 9
0 12 19
12 20 29
31 43 53
53 72 83
71 97 112
90 113 128
91 117 133
85 116 133
85 113 132
79 113 132
77 111 130
71 110 131
75 113 134
77 116 140
75 117 141
75 118 142
75 118 142
75 118 142
75 118 142
75 118 142
74 118 139
74 118 139
75 118 137
77 117 135
78 117 135
77 117 133
79 115 132
79 115 132
79 115 132
79 115 132
82 115 132
82 115 132
82 115 132
82 115 132
79 115 135
78 116 135
78 116 137
78 115 137
78 115 139
78 115 139
78 115 139
78 115 139
78 115 139
77 116 139
77 116 139
77 116 139
77 116 139
75 116 139
75 117 139
75 117 139
75 117 139
75 117 139
74 118 139
74 118 139
74 118 139
74 118 139
74 118 139
74 118 139
74 118 139
74 118 139
74 118 139
74 118 139
75 118 137
77 117 137
79 115 135
89 120 137
97 124 139
81 101 115
39 51 61
0 0 9
0 0 0
3 0 1
3 4 2
0 3 0
0 4 1
0 4 1
0 3 2
0 2 3
0 2 4
0 2 3
0 2 2
0 2 1
0 2 1
0 2 0
0 2 0
0 2 0
0 2 0
0 2 0
0 2 0
0 2 0
0 2 0
0 2 0
0 2 0
0 2 0
0 2 0
0 2 0
0 2 0
0 1 0
0 0 0
0 0 0
0 0 0
0 0 0
0 0 0
0 0 0
0 0 0
0 0 0
0 0 0
0 0 0
0 0 0
0 0 0
0 0 0
0 0 0
0 0 0
0 0 0
0 0 1
0 0 2
0 0 2
0 0 2
0 0 2
0 0 2
0 0 2
0 0 2
0 0 2
0 0 2
0 0 2
0 0 2
0 0 3
0 0 4
0 0 4
0 0 6
1 4 10
2 6 12
0 1 10
0 0 9
2 10 15
24 35 46
47 64 75
79 97 109
93 116 131
90 116 132
83 113 128
82 113 130
82 115 132
78 116 135
77 117 135
77 117 135
77 117 135
77 116 137
77 115 136
77 115 136
77 115 136
77 116 137
76 116 136
76 116 136
76 116 136
76 116 136
76 116 136
76 116 136
76 116 136
76 116 136
76 116 136
75 116 136
74 116 136
74 116 136
74 116 136
74 116 136
74 116 136
74 116 136
74 116 136
74 116 136
73 117 136
72 117 136
72 117 136
72 117 138
72 117 138
72 117 138
72 117 136
72 117 136
72 117 136
72 117 136
72 117 136
72 117 136
72 117 136
72 117 136
72 117 135
73 118 135
73 118 135
73 118 135
73 118 135
72 117 136
72 117 136
72 117 136
72 117 136
72 117 136
72 117 136
72 117 136
72 117 136
72 117 136
72 117 136
72 117 136
72 117 136
72 117 136
72 117 136
72 117 136
72 117 136
72 117 136
72 117 136
72 117 136
72 117 136
72 117 136
72 117 136
72 117 136
72 117 136
72 117 136
72 117 136
72 117 136
72 117 136
72 117 136
72 117 136
72 117 136
72 117 136
72 117 136
72 117 136
72 117 136
72 117 136
72 117 136
73 117 136
75 118 137
75 118 137
75 118 137
75 118 137
77 117 137
77 116 137
78 116 135
79 115 135
83 113 135
89 118 136
90 116 132
81 101 115
53 72 83
31 43 53
6 12 17
0 0 6
0 0 3
1 1 5
1 1 3
1 1 3
0 0 4
0 0 4
0 0 4
0 0 4
0 0 3
0 0 2
0 0 2
0 0 2
1 1 3
1 1 3
1 1 3
1 1 3
1 1 3
1 1 3
1 1 3
1 1 3
1 1 3
1 1 3
1 1 3
1 1 3
1 1 3
1 1 3
1 1 3
1 1 3
1 1 3
1 1 3
1 1 3
1 1 3
1 1 3
1 1 2
1 1 1
1 1 1
1 1 1
0 2 1
0 2 1
0 2 1
0 2 1
0 2 1
0 2 1
0 2 1
0 2 1
0 2 1
0 2 1
0 2 1
0 3 2
0 3 2
0 2 3
0 2 3
0 2 4
0 4 5
1 6 12
0 8 14
2 10 15
1 4 10
0 2 9
2 10 15
23 29 39
47 64 75
68 87 100
81 101 115
81 106 120
81 106 120
84 109 126
81 110 128
82 113 130
79 113 132
79 113 135
76 114 136
75 113 134
73 115 135
73 115 135
76 114 136
73 115 135
74 116 136
74 116 136
75 116 136
76 116 136
76 116 136
76 116 136
76 115 135
75 116 134
75 116 134
75 116 134
77 117 135
77 117 137
77 117 137
77 117 137
77 117 137
77 117 137
77 117 137
77 117 137
77 117 137
77 117 137
77 117 137
78 116 137
78 116 137
80 115 137
80 115 137
80 115 137
82 116 140
82 116 140
83 113 135
81 110 128
83 113 135
89 118 136
89 120 137
83 113 135
79 113 135
79 113 135
79 114 134
76 114 136
77 117 139
82 120 140
87 124 142
75 118 137
77 111 130
81 110 128
90 113 128
88 109 125
68 87 100
39 51 61
4 17 26
0 1 6
0 1 1
1 2 3
3 4 6
3 4 6
5 4 5
4 1 2
7 1 0
7 1 0
0 0 12
14 29 40
62 77 90
97 121 136
91 117 133
81 110 128
85 116 133
86 121 140
82 120 140
75 117 141
72 118 141
75 119 142
75 119 142
75 119 142
75 118 142
75 118 142
75 118 142
77 116 142
77 116 142
80 117 140
80 117 140
80 117 140
80 115 140
79 115 135
82 113 136
82 117 137
86 121 140
86 121 140
79 113 135
71 97 112
53 72 83
23 41 52
14 29 40
0 12 19
0 4 16
1 4 10
1 1 5
0 0 1
0 0 1
3 4 6
5 6 9
3 4 6
1 4 1
1 4 1
0 5 1
0 5 1
0 5 1
0 5 1
1 4 1
1 4 1
1 4 1
1 4 1
0 2 2
0 2 2
0 2 3
0 2 4
0 2 4
0 2 4
1 1 5
1 1 3
1 1 3
1 1 3
1 1 3
1 1 3
1 1 3
1 1 3
0 0 1
0 0 0
0 0 0
0 0 0
0 0 0
0 0 0
0 0 0
0 0 0
0 0 0
0 0 0
0 0 0
0 0 0
0 0 0
0 0 0
0 0 0
0 0 0
0 0 0
1 0 0
2 0 0
2 0 0
2 0 0
1 1 0
1 1 0
1 0 0
1 0 0
0 1 1
0 1 1
0 1 3
0 0 3
0 0 2
0 0 2
1 4 5
1 4 10
0 0 4
0 0 3
0 8 14
14 29 40
31 51 61
55 79 91
71 97 112
90 116 132
96 123 138
89 120 137
85 113 132
81 110 128
77 111 130
71 110 131
75 113 134
77 115 139
77 116 142
75 119 142
75 119 142
75 119 142
72 118 141
72 118 141
72 118 141
74 118 139
74 118 139
75 118 137
77 117 135
78 117 135
77 117 133
79 115 132
79 115 132
79 115 132
79 115 132
82 115 132
82 115 132
82 115 132
82 115 132
79 115 135
79 115 135
78 116 137
78 115 137
78 115 139
78 115 139
78 115 139
78 115 139
78 115 139
77 116 139
77 116 139
77 116 139
77 116 139
75 116 139
75 117 139
75 117 139
75 117 139
75 117 139
74 118 139
74 118 139
74 118 139
74 118 139
74 118 139
74 118 139
74 118 139
74 118 139
74 118 139
74 118 139
75 118 137
77 117 137
79 115 135
89 120 137
97 124 139
81 101 115
39 51 61
0 0 9
0 0 0
3 0 1
3 4 2
0 3 0
0 4 1
0 3 0
0 3 2
0 2 3
0 2 4
0 2 3
0 2 2
0 2 1
0 2 1
0 2 0
0 2 0
0 2 0
0 2 0
0 2 0
0 2 0
0 2 0
0 2 0
0 2 0
0 2 0
0 2 0
0 2 0
0 2 0
0 2 0
0 1 0
0 0 0
0 0 0
0 0 0
0 0 0
0 0 0
0 0 0
0 0 0
0 0 0
0 0 0
0 0 0
0 0 0
0 0 0
0 0 0
0 0 0
0 0 0
0 0 0
0 0 1
0 0 2
0 0 2
0 0 2
0 0 2
0 0 2
0 0 2
0 0 2
0 0 2
0 0 2
0 0 2
0 0 2
0 0 3
0 0 4
0 0 3
0 0 5
1 4 10
2 6 12
0 1 10
0 0 9
2 10 15
24 35 46
47 64 75
79 97 109
93 116 131
90 116 132
83 113 128
82 113 130
82 115 132
79 115 135
77 117 135
75 118 134
75 118 134
76 117 136
76 116 136
77 115 136
77 115 136
77 115 136
76 116 136
76 116 136
76 116 136
76 116 136
76 116 136
76 116 136
76 116 136
75 116 136
75 116 136
74 116 136
74 116 136
74 116 136
74 116 136
74 116 136
74 116 136
74 116 136
74 116 136
74 116 136
73 117 136
73 117 136
73 117 138
73 116 139
72 117 138
72 117 138
72 117 136
72 117 136
72 117 136
72 117 136
72 117 136
72 117 136
72 117 136
72 117 136
72 117 135
73 118 135
73 118 135
73 118 135
73 118 135
72 117 136
72 117 136
72 117 136
72 117 136
72 117 136
72 117 136
72 117 136
72 117 136
72 117 136
72 117 136
72 117 136
72 117 136
72 117 136
72 117 136
72 117 136
72 117 136
72 117 136
72 117 136
72 117 136
72 117 136
72 117 136
72 117 136
72 117 136
72 117 136
72 117 136
72 117 136
72 117 136
72 117 136
72 117 136
72 117 136
72 117 136
72 117 136
72 117 136
72 117 136
72 117 136
72 117 136
72 117 136
73 117 136
75 118 137
75 118 137
75 118 137
75 118 137
77 117 137
77 116 137
78 116 135
79 115 135
83 113 135
89 118 136
90 116 132
81 101 115
53 72 83
31 43 53
6 12 17
0 0 5
0 0 2
2 1 3
1 1 3
1 1 5
0 0 4
0 0 4
0 0 4
0 0 4
0 0 3
0 0 2
0 0 2
0 0 2
1 1 3
1 1 3
1 1 3
1 1 3
1 1 3
1 1 3
1 1 3
1 1 3
1 1 3
1 1 3
1 1 3
1 1 3
1 1 3
1 1 3
1 1 3
1 1 3
1 1 3
1 1 3
1 1 3
1 1 3
1 1 3
1 1 2
1 1 1
1 1 1
1 1 1
0 2 1
0 2 1
0 2 1
0 2 1
0 2 0
0 2 0
0 2 0
0 2 0
0 2 0
0 2 0
0 2 0
0 3 0
0 3 2
0 2 2
0 2 3
0 2 4
0 2 4
0 3 5
1 4 5
1 4 10
1 4 10
1 6 12
0 6 13
6 12 17
14 29 40
39 51 61
55 79 91
79 97 109
81 106 120
90 113 128
90 116 132
85 113 132
82 113 130
79 113 132
75 113 134
75 113 134
72 113 134
73 115 135
74 115 139
73 115 135
72 113 134
73 115 135
75 116 136
77 117 135
76 115 135
76 115 135
76 115 135
75 116 134
75 116 134
75 116 134
77 117 135
77 117 137
77 117 137
77 117 137
77 117 137
77 117 137
77 117 137
77 117 137
77 117 137
77 117 137
77 117 137
77 117 137
77 117 137
78 116 137
80 115 137
80 115 137
82 113 136
83 113 135
83 113 135
89 118 136
89 118 136
83 113 135
82 113 136
82 113 136
82 118 141
87 124 142
82 120 140
72 113 134
71 110 131
75 118 138
82 120 140
82 120 140
77 115 131
77 107 124
88 109 125
97 121 136
90 113 128
47 64 75
4 17 26
0 0 5
1 6 12
6 8 13
1 4 10
1 4 5
2 1 3
4 1 2
4 2 0
4 2 0
0 1 13
14 29 40
62 77 90
97 121 136
89 118 136
81 110 128
82 115 136
86 121 140
82 120 140
75 118 142
72 118 141
75 119 142
75 119 142
75 119 142
75 119 142
75 118 142
75 118 142
77 116 142
78 117 140
80 117 140
80 117 140
82 117 137
82 117 137
82 117 137
83 118 136
85 116 133
83 113 135
81 110 128
71 97 112
55 79 91
31 51 61
4 17 26
0 4 16
0 4 16
6 12 17
1 4 10
0 0 0
0 0 0
0 0 2
0 0 1
0 0 0
1 1 0
2 3 2
3 4 2
1 4 1
1 4 1
1 4 1
1 4 1
1 4 1
1 4 1
1 3 2
1 3 2
0 2 1
0 2 1
0 2 2
0 2 3
0 2 3
0 2 3
1 1 3
1 1 3
1 1 3
1 1 3
1 1 3
1 1 3
1 1 3
1 1 3
0 0 1
0 0 0
0 0 0
0 0 0
0 0 0
0 0 0
0 0 0
0 0 0
0 0 0
0 0 0
0 0 0
0 0 0
0 0 0
0 0 0
0 0 0
0 0 0
0 0 0
1 0 0
2 0 0
2 0 0
2 0 0
1 1 0
1 2 0
1 1 0
1 1 1
0 2 2
0 2 3
0 2 4
0 1 4
0 2 4
0 3 5
1 4 5
0 3 5
1 1 8
2 6 12
12 20 29
31 51 61
55 79 91
71 97 112
85 116 133
93 121 136
89 120 137
85 116 133
79 113 132
77 111 130
77 111 130
75 113 134
76 115 138
77 116 142
75 119 142
75 119 142
75 119 142
75 119 142
72 118 141
72 118 141
72 118 141
72 118 141
74 118 139
75 118 137
77 117 135
78 117 135
77 117 133
77 117 133
77 117 133
77 117 133
79 115 132
79 115 132
79 115 132
79 115 132
79 115 135
79 115 135
79 115 135
78 116 137
78 115 137
78 115 139
78 115 139
78 115 139
77 116 139
77 116 139
77 116 139
77 116 139
77 116 139
77 116 139
75 116 139
75 117 139
75 117 139
75 117 139
75 117 139
74 118 139
74 118 139
74 118 139
74 118 139
74 118 139
74 118 139
74 118 139
74 118 139
74 118 139
74 118 139
75 118 137
77 117 137
79 115 135
89 120 137
97 124 139
81 101 115
39 51 61
0 0 9
0 0 0
3 0 1
3 4 2
0 3 0
0 4 1
0 3 0
0 3 2
0 2 3
0 2 4
0 2 3
0 2 2
0 2 1
0 2 1
0 2 0
0 2 0
0 2 0
0 2 0
0 2 0
0 2 0
0 2 0
0 2 0
0 2 0
0 2 0
0 2 0
0 2 0
0 2 0
0 2 0
0 1 0
0 0 0
0 0 0
0 0 0
0 0 0
0 0 0
0 0 0
0 0 0
0 0 0
0 0 0
0 0 0
0 0 0
0 0 0
0 0 0
0 0 0
0 0 0
0 0 0
0 0 1
0 0 2
0 0 2
0 0 2
0 0 2
0 0 2
0 0 2
0 0 2
0 0 2
0 0 2
0 0 2
0 0 2
0 0 3
0 0 4
0 0 3
0 0 4
0 4 9
2 6 12
0 1 10
0 0 9
2 10 15
24 35 46
47 64 75
79 97 109
93 116 131
90 116 132
83 113 128
82 113 130
82 115 132
79 115 135
77 117 135
75 118 134
75 118 134
76 117 136
76 116 136
77 115 136
77 115 136
77 115 136
76 116 136
76 116 136
76 116 136
76 116 136
76 116 136
76 116 136
76 116 136
75 116 136
74 116 136
74 116 136
74 116 136
74 116 136
74 116 136
74 116 136
74 116 136
74 116 136
74 116 136
74 116 136
74 116 136
74 116 136
75 116 137
74 116 138
73 117 138
72 117 138
72 117 136
72 117 136
72 117 136
72 117 136
72 117 136
72 117 136
72 117 136
72 117 136
72 117 135
73 118 135
73 118 135
73 118 135
73 118 135
72 117 136
72 117 136
72 117 136
72 117 136
72 117 136
72 117 136
72 117 136
72 117 136
72 117 136
72 117 136
72 117 136
72 117 136
72 117 136
72 117 136
72 117 136
72 117 136
72 117 136
72 117 136
72 117 136
72 117 136
72 117 136
72 117 136
72 117 136
72 117 136
72 117 136
72 117 136
72 117 136
72 117 136
72 117 136
72 117 136
72 117 136
72 117 136
72 117 136
72 117 136
72 117 136
72 117 136
72 117 136
73 117 136
75 118 137
75 118 137
75 118 137
75 118 137
77 117 137
77 116 137
78 116 135
79 115 135
83 113 135
89 118 136
90 116 132
81 101 115
53 72 83
31 43 53
6 12 17
0 0 4
0 0 1
2 1 3
1 1 3
1 1 5
0 0 4
0 0 4
0 0 4
0 0 4
0 0 3
0 0 2
0 0 2
0 0 2
1 1 3
1 1 3
1 1 3
1 1 3
1 1 3
1 1 3
1 1 3
1 1 3
1 1 3
1 1 3
1 1 3
1 1 3
1 1 3
1 1 3
1 1 3
1 1 3
1 1 3
1 1 3
1 1 3
1 1 3
1 1 3
1 1 2
1 1 1
1 1 1
1 1 1
0 2 1
0 2 1
0 2 1
0 2 1
0 2 0
0 2 0
0 2 0
0 2 0
0 2 0
0 2 0
0 2 0
0 2 0
0 2 0
0 2 1
0 2 2
0 2 3
0 1 3
0 0 2
0 0 2
0 1 4
0 4 9
2 10 15
2 10 15
0 4 9
0 4 12
12 20 29
31 43 53
53 72 83
79 97 109
90 113 128
95 118 134
93 116 131
85 113 132
79 113 132
79 113 135
76 113 137
74 115 139
75 116 141
75 116 141
73 115 135
72 113 134
72 113 134
75 116 136
77 117 135
76 115 135
75 116 134
75 116 134
75 116 134
75 116 134
75 116 134
77 117 135
77 117 137
77 117 137
77 117 137
77 117 137
77 117 137
77 117 137
77 117 137
77 117 137
77 117 137
77 117 137
77 117 137
77 117 137
78 116 137
78 116 137
80 115 137
79 113 135
79 113 135
83 113 135
86 121 140
89 118 136
83 113 135
77 111 130
82 113 136
86 121 140
87 124 142
86 122 140
71 110 131
70 105 125
72 113 134
75 119 142
82 120 140
78 117 135
77 107 124
84 109 126
97 121 136
97 121 136
62 77 90
14 29 40
2 10 15
0 12 19
6 12 17
1 4 10
0 3 5
1 2 3
3 2 1
4 2 0
4 2 0
0 1 13
14 29 40
62 77 90
96 123 138
89 118 136
81 110 128
82 115 136
86 121 140
82 118 141
75 117 141
75 118 142
75 118 142
75 118 142
75 119 142
75 119 142
75 118 142
74 114 140
76 112 136
77 113 139
82 118 141
80 115 140
79 113 135
82 115 136
86 121 140
96 123 138
85 113 132
81 101 115
68 87 100
47 64 75
23 41 52
14 29 40
0 12 19
0 1 13
0 1 13
2 4 11
1 4 5
0 0 1
0 0 2
0 0 2
0 0 1
0 0 0
0 0 0
1 1 2
1 1 2
1 2 0
1 2 0
1 2 0
1 2 0
1 2 0
1 2 0
1 1 1
1 1 1
0 1 0
0 1 0
0 1 1
0 1 1
0 1 1
0 1 1
0 0 1
0 0 1
0 0 1
0 0 1
0 0 1
0 0 1
0 0 1
0 0 1
0 1 0
0 1 0
0 1 0
0 1 0
0 1 0
0 1 0
0 1 0
0 1 0
0 1 0
0 0 0
0 0 0
0 0 0
0 0 0
1 0 0
1 0 0
1 0 0
1 0 0
1 0 0
2 0 0
2 0 0
2 0 0
1 1 0
1 2 0
1 3 2
1 3 2
0 3 2
0 3 5
0 3 5
1 4 5
2 6 12
2 10 15
0 4 9
0 1 6
0 12 19
24 35 46
31 51 61
55 79 91
71 97 112
85 116 133
89 120 137
89 120 137
85 116 133
82 115 132
79 113 132
79 113 132
79 113 135
76 113 137
77 114 140
77 116 142
75 119 142
75 119 142
75 119 142
72 118 141
73 117 141
72 118 141
72 118 141
73 117 141
73 117 138
73 117 136
76 116 136
76 115 135
77 117 133
77 116 134
77 117 133
77 117 133
78 115 132
78 115 132
78 115 132
78 115 132
77 116 134
78 116 135
78 116 135
77 116 137
77 116 137
77 116 137
77 116 137
77 116 137
75 116 137
75 116 137
75 116 137
75 116 137
75 116 137
75 116 137
75 116 137
75 116 137
75 116 137
75 116 137
75 116 137
73 117 136
73 117 136
73 117 136
73 117 136
73 117 136
73 117 136
73 117 136
73 117 136
73 117 136
73 117 136
75 116 134
77 116 134
79 115 132
89 120 137
97 124 139
81 101 115
39 51 61
0 0 7
0 0 0
2 0 2
3 4 2
0 2 0
0 3 0
0 3 0
0 2 2
0 1 4
0 1 5
0 1 4
0 1 3
0 2 2
0 2 0
0 2 0
0 2 0
0 2 0
0 2 0
0 2 0
0 2 0
0 2 0
0 2 0
0 2 0
0 2 0
0 2 0
0 2 0
0 2 0
0 2 0
0 1 0
0 0 0
0 0 0
0 0 1
0 0 1
0 0 1
0 0 1
0 0 1
0 0 1
0 0 1
0 0 1
0 0 1
0 0 1
0 0 1
0 0 1
0 0 1
0 0 1
0 0 1
0 0 1
0 0 1
0 0 1
0 0 1
0 0 1
0 0 1
0 0 1
0 0 1
0 0 1
0 0 2
0 0 2
0 0 3
0 0 3
0 0 2
0 0 3
0 4 9
2 6 12
0 1 10
0 1 10
2 10 15
24 35 46
47 64 75
79 97 109
93 116 131
90 116 132
83 113 128
82 113 130
82 115 132
79 115 135
77 117 135
75 118 134
75 118 134
76 117 136
76 116 136
76 116 136
76 116 136
76 115 135
76 116 136
76 116 136
76 116 136
76 116 136
76 116 136
76 116 136
76 116 136
75 116 136
75 116 136
75 116 136
75 116 136
75 116 136
75 116 136
75 116 136
75 116 136
75 116 136
75 116 136
75 116 136
75 116 136
75 116 136
75 116 136
75 116 137
75 116 137
73 117 138
73 117 136
73 117 136
73 117 136
73 117 136
73 117 136
73 117 136
73 117 136
73 117 136
73 117 136
72 117 135
72 117 135
72 117 135
73 117 136
73 117 136
73 117 136
73 117 136
73 117 136
73 117 136
73 117 136
73 117 136
73 117 136
73 117 136
73 117 136
73 117 136
73 117 136
73 117 136
73 117 136
73 117 136
73 117 136
73 117 136
73 117 136
73 117 136
73 117 136
73 117 136
73 117 136
73 117 136
73 117 136
73 117 136
73 117 136
73 117 136
73 117 136
73 117 136
72 117 136
72 117 136
72 117 136
72 117 136
72 117 136
72 117 136
72 117 136
72 117 136
73 117 136
73 117 138
73 117 138
73 117 138
76 117 138
77 117 137
77 117 135
78 116 135
79 115 132
82 115 132
89 118 136
93 116 131
81 101 115
53 72 83
31 43 53
6 12 17
0 0 4
0 0 1
1 2 3
0 0 2
0 0 3
0 0 3
0 0 3
0 0 3
0 0 3
0 0 2
0 0 2
0 0 2
0 0 2
0 1 3
0 2 3
0 2 3
0 2 3
0 2 3
0 2 3
0 2 3
0 2 3
0 1 1
0 0 1
0 0 1
0 0 1
0 0 1
0 0 1
0 0 1
0 0 1
0 0 1
0 0 1
0 0 1
0 0 1
0 0 1
0 0 1
0 0 0
0 0 0
0 0 0
0 1 0
0 1 0
0 1 0
0 1 0
0 1 0
0 1 0
0 1 0
0 1 0
0 1 0
0 1 0
0 1 0
0 1 0
0 1 0
0 1 0
0 1 1
0 2 1
0 1 1
0 0 1
0 0 2
0 1 3
0 4 5
2 10 15
1 6 12
0 4 5
0 0 2
0 4 5
12 20 29
31 43 53
62 77 90
79 97 109
88 109 125
90 113 128
90 113 128
82 113 130
79 114 138
77 116 142
75 119 142
75 119 142
75 118 142
72 113 134
71 110 131
71 110 131
73 115 135
76 117 136
74 117 135
75 118 134
75 117 131
75 117 131
75 116 134
75 116 134
76 116 136
76 116 136
75 116 138
75 116 138
75 116 138
75 116 138
75 116 138
75 116 138
75 116 138
75 116 138
75 116 138
75 116 138
75 116 138
75 116 138
77 116 138
78 116 138
76 114 136
79 113 135
80 115 137
82 116 140
82 116 140
79 113 135
77 111 130
79 113 135
82 118 141
82 120 140
80 117 140
72 113 134
71 110 131
72 113 134
75 118 138
78 118 139
79 115 135
82 113 130
90 113 128
95 118 134
93 116 131
79 97 109
47 64 75
24 35 46
4 17 26
2 6 12
0 4 9
1 4 5
1 3 2
2 3 2
4 2 0
4 2 0
0 1 13
14 29 40
62 77 90
96 123 138
89 118 136
81 110 128
82 117 137
87 124 142
82 118 141
77 116 142
75 118 142
75 118 142
75 118 142
75 118 142
75 119 142
75 118 142
74 114 140
76 112 136
76 112 136
79 114 136
79 113 132
77 111 130
85 116 133
99 127 141
97 124 139
81 106 120
55 79 91
31 51 61
14 29 40
4 17 26
0 4 16
0 4 16
0 8 14
0 1 10
0 0 5
0 0 4
0 0 4
0 0 3
0 0 2
0 0 2
0 0 2
0 0 2
0 0 2
0 0 1
0 0 0
0 0 0
0 0 0
0 0 0
0 0 0
0 0 0
0 0 0
0 0 0
0 0 0
0 0 0
0 0 0
0 0 0
0 0 0
0 0 0
0 0 0
0 0 0
0 0 0
0 0 0
0 0 0
0 0 0
0 0 0
0 0 0
0 1 0
0 1 0
0 1 0
0 1 0
0 1 0
0 1 0
0 1 0
0 1 0
0 1 0
0 0 0
0 0 0
0 0 0
0 0 0
2 0 0
2 0 0
2 0 0
2 0 0
2 0 0
2 0 0
2 0 0
2 0 0
1 1 0
1 2 0
1 3 2
1 3 2
0 4 5
0 4 5
0 4 9
1 6 12
2 10 15
0 12 19
0 4 12
0 8 14
14 29 40
47 64 75
70 92 106
70 105 125
85 113 132
89 120 137
89 120 137
82 115 132
81 110 128
79 113 132
79 114 134
79 114 136
79 114 136
78 115 137
77 114 140
75 116 141
75 118 142
75 119 142
75 118 142
73 117 141
73 116 139
73 116 139
72 118 141
71 117 138
72 117 138
73 117 136
74 116 136
75 116 134
75 116 134
75 116 134
75 116 134
75 116 134
75 116 134
75 116 134
75 116 134
75 116 134
76 115 135
76 116 136
76 116 136
76 116 136
76 116 136
76 116 136
76 116 136
76 116 136
75 116 136
74 116 136
74 116 136
74 116 136
74 116 136
74 116 136
74 116 136
74 116 136
74 116 136
74 116 136
74 116 136
74 116 136
74 116 136
74 116 136
74 116 136
74 116 136
74 116 136
74 116 136
74 116 136
74 116 136
74 116 136
75 116 134
77 116 134
79 114 134
89 120 137
97 124 139
81 101 115
39 51 61
0 0 7
0 0 0
2 0 2
3 4 2
0 2 0
0 3 0
0 3 0
0 2 2
0 1 5
0 1 6
0 1 5
0 1 4
0 2 2
0 2 0
0 2 0
0 2 0
0 2 0
0 2 0
0 2 0
0 2 0
0 2 0
0 2 0
0 2 0
0 2 0
0 2 0
0 2 0
0 2 0
0 2 0
0 1 0
0 0 0
0 0 1
0 0 2
0 0 2
0 0 2
0 0 2
0 0 2
0 0 2
0 0 2
0 0 2
0 0 2
0 0 2
0 0 2
0 0 2
0 0 2
0 0 2
0 0 1
0 0 0
0 0 0
0 0 0
0 0 0
0 0 0
0 0 0
0 0 0
0 0 0
0 0 0
0 0 1
0 0 2
0 0 2
0 0 2
0 0 2
0 0 3
0 4 9
2 6 12
0 1 10
0 0 12
2 10 15
24 35 46
47 64 75
79 97 109
93 116 131
90 116 132
83 113 128
82 113 130
82 115 132
79 115 135
77 117 135
75 118 134
75 118 134
76 117 136
76 116 136
76 116 136
76 116 136
76 116 136
76 116 136
76 116 136
76 116 136
76 116 136
76 116 136
76 116 136
76 116 136
76 116 136
76 116 136
76 116 136
76 116 136
76 116 136
76 116 136
76 116 136
76 116 136
76 116 136
76 116 136
76 116 136
76 116 136
76 116 136
76 116 136
76 116 136
75 116 136
74 116 136
74 116 136
74 116 136
74 116 136
74 116 136
74 116 136
74 116 136
74 116 136
74 116 136
74 116 136
74 116 136
74 116 136
74 116 136
74 116 136
74 116 136
74 116 136
74 116 136
74 116 136
74 116 136
74 116 136
74 116 136
74 116 136
74 116 136
74 116 136
74 116 136
74 116 136
74 116 136
74 116 136
74 116 136
74 116 136
74 116 136
74 116 136
74 116 136
74 116 136
74 116 136
74 116 136
74 116 136
74 116 136
74 116 136
74 116 136
74 116 136
74 116 136
74 116 136
72 117 136
72 117 136
72 117 136
72 117 136
72 117 136
72 117 136
72 117 136
72 117 136
72 117 136
72 117 138
73 116 139
74 116 138
75 116 138
77 117 137
77 117 135
78 116 135
79 115 132
82 113 130
90 116 132
90 113 128
81 101 115
53 72 83
31 43 53
6 12 17
0 0 4
0 0 1
0 2 4
0 0 2
0 0 2
0 0 2
0 0 2
0 0 2
0 0 2
0 0 2
0 0 2
0 0 2
0 0 2
0 1 3
0 2 3
0 2 3
0 2 3
0 2 3
0 2 3
0 2 3
0 2 3
0 1 1
0 0 0
0 0 0
0 0 0
0 0 0
0 0 0
0 0 0
0 0 0
0 0 0
0 0 0
0 0 0
0 0 0
0 0 0
0 0 0
0 0 0
0 0 0
0 0 0
0 0 0
0 0 0
0 0 0
0 0 0
0 0 0
0 0 0
0 0 0
0 0 0
0 0 0
0 0 0
0 0 0
0 0 0
0 0 0
0 0 0
0 0 0
0 1 0
0 1 1
0 2 2
0 2 3
0 3 2
0 3 2
0 4 5
0 4 5
0 6 5
0 2 3
0 0 0
0 1 1
12 20 29
31 43 53
53 72 83
79 97 109
81 101 115
88 109 125
90 116 132
82 118 141
77 116 142
75 119 142
75 119 142
77 116 142
74 114 140
71 110 131
71 110 131
72 113 134
75 118 137
74 117 135
75 118 134
75 117 131
75 117 131
75 117 131
75 116 134
75 116 134
74 116 136
74 116 138
74 116 138
74 116 138
74 116 138
74 116 138
74 116 138
74 116 138
74 116 138
74 116 138
74 116 138
74 116 138
74 116 138
75 116 138
76 115 138
77 115 137
77 115 136
77 115 136
79 114 136
79 114 136
79 114 136
79 114 136
77 115 136
77 115 136
76 116 136
76 116 136
76 116 136
76 116 136
75 116 136
74 116 136
75 113 134
77 115 134
83 118 136
93 121 136
90 113 128
81 106 120
88 109 125
79 97 109
47 64 75
4 17 26
0 0 3
0 3 5
5 6 9
1 3 2
2 3 2
4 2 0
4 2 0
0 1 13
14 29 40
68 87 100
97 124 139
89 118 136
81 110 128
82 115 136
86 121 140
82 118 141
77 116 142
77 116 142
77 116 142
75 118 142
75 118 142
75 118 142
77 116 142
82 118 141
82 118 141
79 113 135
70 105 125
70 105 125
77 107 124
91 117 133
97 124 139
93 116 131
68 87 100
31 51 61
14 29 40
4 17 26
0 4 12
0 4 12
2 10 15
6 12 17
1 4 10
0 0 3
0 0 2
0 0 4
0 0 3
0 0 2
0 0 2
0 0 3
0 0 2
0 0 2
0 0 1
0 0 1
0 0 1
0 0 1
0 0 1
0 0 1
0 0 0
0 0 0
0 0 0
0 0 0
0 0 0
0 0 0
0 0 0
0 0 0
0 0 0
0 0 0
0 0 0
0 0 0
0 0 0
0 0 0
0 0 0
0 0 0
0 0 0
0 1 0
0 1 0
0 1 0
0 1 0
0 1 0
0 1 0
0 1 0
0 1 0
0 1 0
0 0 0
0 0 0
0 0 0
0 0 0
2 0 0
2 0 0
2 0 0
2 0 0
2 0 0
2 0 0
2 0 0
1 0 0
0 0 0
0 1 0
0 2 1
0 2 1
1 4 5
2 6 12
2 10 15
2 10 15
1 6 12
0 6 13
0 12 19
14 29 40
39 51 61
68 87 100
77 107 124
82 115 136
86 121 140
87 124 142
86 121 140
79 113 132
77 111 130
79 113 132
79 114 136
80 115 137
78 115 137
77 116 138
77 114 138
76 115 140
75 116 141
75 117 141
73 117 141
73 116 139
73 116 139
71 117 138
71 117 138
71 117 138
72 117 138
72 117 136
73 117 136
74 117 135
75 116 134
75 116 134
75 116 134
75 116 134
74 117 135
74 117 135
75 116 134
75 116 134
75 116 136
74 116 136
75 116 136
75 116 136
75 116 136
75 116 136
75 116 136
75 116 136
74 116 136
74 116 136
74 116 136
74 116 136
74 116 136
74 116 136
74 116 136
74 116 136
74 116 136
74 116 136
74 116 136
74 116 136
74 116 136
74 116 136
74 116 136
74 116 136
74 116 136
74 116 136
74 116 136
74 116 136
74 116 136
75 116 134
77 116 134
79 114 134
89 120 137
97 124 139
81 101 115
39 51 61
0 0 9
0 0 0
2 0 2
3 4 2
0 2 0
0 3 0
0 3 0
0 2 2
0 1 5
0 1 6
0 1 5
0 1 4
0 2 2
0 2 0
0 2 0
0 2 0
0 2 0
0 2 0
0 2 0
0 2 0
0 2 0
0 2 0
0 2 0
0 2 0
0 2 0
0 2 0
0 2 0
0 2 1
0 1 1
0 0 1
0 0 2
0 0 2
0 0 2
0 0 2
0 0 2
0 0 2
0 0 2
0 0 2
0 0 2
0 0 2
0 0 2
0 0 2
0 0 2
0 0 2
0 0 2
0 0 1
0 0 0
0 0 0
0 0 0
0 0 0
0 0 0
0 0 0
0 0 0
0 0 0
0 0 0
0 0 0
0 0 1
0 0 1
0 0 2
0 0 2
0 0 3
0 4 9
2 6 12
0 1 10
0 0 12
2 10 15
24 35 46
47 64 75
79 97 109
93 116 131
90 116 132
83 113 128
82 113 130
82 115 132
79 115 135
77 117 135
75 118 134
75 118 134
76 117 136
76 116 136
76 116 136
76 116 136
76 116 136
76 116 136
76 116 136
76 116 136
76 116 136
76 116 136
76 116 136
76 116 136
76 116 136
76 116 136
76 116 136
76 116 136
76 116 136
76 116 136
76 116 136
76 116 136
76 116 136
76 116 136
76 116 136
76 116 136
76 116 136
76 116 136
76 116 136
76 116 136
75 116 136
75 116 136
75 116 136
75 116 136
74 116 136
74 116 136
74 116 136
74 116 136
74 116 136
74 116 136
74 116 136
74 116 136
74 116 136
74 116 136
74 116 136
74 116 136
74 116 136
74 116 136
75 116 136
75 116 136
75 116 136
75 116 136
75 116 136
75 116 136
75 116 136
75 116 136
75 116 136
75 116 136
75 116 136
75 116 136
75 116 136
75 116 136
75 116 136
75 116 136
75 116 136
75 116 136
74 116 136
74 116 136
74 116 136
74 116 136
74 116 136
74 116 136
74 116 136
73 117 136
73 117 136
72 117 136
72 117 136
72 117 136
72 117 136
72 117 136
72 117 136
72 117 136
72 117 138
73 116 139
74 116 138
75 116 138
77 117 137
78 117 135
79 115 135
79 113 132
82 113 130
90 116 132
90 113 128
81 101 115
53 72 83
31 43 53
6 12 17
0 0 4
0 0 1
0 2 4
1 1 2
1 1 2
1 1 2
0 0 2
0 0 2
0 0 2
0 0 2
0 0 2
0 0 2
0 0 2
0 1 3
0 2 3
0 2 3
0 2 3
0 2 3
0 2 3
0 2 3
0 2 3
0 1 1
0 0 0
0 0 0
0 0 0
0 0 0
0 0 0
0 0 0
0 0 0
0 0 0
0 0 0
0 0 0
0 0 0
0 0 0
0 0 0
0 0 0
0 0 0
0 0 0
0 0 0
0 0 0
0 0 0
0 0 0
0 0 0
0 0 0
0 0 0
0 0 0
0 0 0
0 0 0
0 0 0
0 0 0
0 0 0
0 0 0
0 0 0
0 0 0
0 1 0
0 2 2
0 2 2
0 4 1
0 3 2
0 2 2
0 2 3
1 4 5
1 3 2
0 0 0
0 0 0
3 4 6
12 20 29
31 43 53
47 64 75
68 87 100
88 109 125
95 118 134
87 124 142
82 118 141
75 118 142
75 118 142
75 119 142
75 118 142
72 113 134
71 110 131
73 115 135
74 117 135
72 117 135
75 117 131
75 117 131
75 117 131
75 117 131
75 117 131
73 115 135
73 117 136
73 116 139
73 116 139
73 116 139
73 116 139
73 116 139
73 116 139
73 116 139
73 116 139
73 116 139
73 116 139
73 116 139
73 117 138
74 116 138
75 116 138
75 116 137
76 116 136
76 116 136
76 114 136
76 115 135
77 116 137
78 116 137
77 116 137
76 115 135
73 115 135
76 115 135
77 117 137
77 117 137
76 116 136
76 115 135
75 113 134
77 115 134
86 121 140
89 120 137
83 113 128
81 101 115
88 109 125
81 106 120
47 64 75
12 20 29
0 1 4
0 3 5
5 6 9
1 4 5
2 3 2
4 2 0
4 2 0
0 1 13
14 29 40
68 87 100
97 124 139
89 118 136
81 110 128
82 115 136
86 121 140
82 118 141
78 115 142
78 115 142
77 116 142
77 116 142
75 118 142
75 116 141
77 116 142
87 124 142
87 124 142
80 115 137
70 105 125
70 105 125
81 110 128
90 116 132
88 109 125
70 92 106
47 64 75
14 29 40
4 17 26
0 12 19
0 4 12
0 8 14
6 12 17
6 12 17
5 6 9
0 0 3
0 0 1
0 0 2
0 0 2
0 0 2
0 0 2
0 0 2
0 0 2
0 0 2
0 0 2
0 0 2
0 0 2
0 0 2
0 0 2
0 0 2
0 0 1
0 0 0
0 0 0
0 0 0
0 0 0
0 0 0
0 0 0
0 0 0
0 0 0
0 0 0
0 0 0
0 0 0
0 0 0
0 0 0
0 0 0
0 0 0
0 0 0
0 1 0
0 1 0
0 1 0
0 1 0
0 1 0
0 1 0
0 1 0
0 1 0
0 1 0
0 0 0
0 0 0
0 0 0
0 0 0
2 0 0
2 0 0
2 0 0
2 0 0
2 0 0
2 0 0
1 0 0
0 0 0
0 0 0
0 0 0
0 0 0
0 1 0
3 4 6
2 10 15
6 12 17
0 12 19
0 4 12
0 8 14
14 29 40
47 64 75
68 87 100
70 105 125
83 113 135
86 121 140
87 124 142
87 124 142
87 124 142
80 115 137
75 113 134
79 113 135
79 114 138
79 114 138
77 114 138
76 115 138
76 115 138
76 115 140
76 115 140
75 116 141
75 116 141
73 116 139
73 116 139
73 116 139
72 117 138
72 117 138
72 117 138
72 117 136
72 117 136
73 117 136
74 116 136
74 116 136
74 116 136
74 116 136
74 116 136
74 116 136
74 116 136
74 116 136
74 116 136
74 116 136
74 116 136
74 116 136
74 116 136
74 116 136
74 116 136
74 116 136
74 116 136
74 116 136
74 116 136
74 116 136
74 116 136
74 116 136
74 116 136
74 116 136
74 116 136
74 116 136
74 116 136
74 116 136
74 116 136
74 116 136
74 116 136
74 116 136
74 116 136
74 116 136
74 116 136
74 116 136
74 116 136
75 116 134
77 116 134
79 115 132
89 120 137
97 124 139
81 101 115
39 51 61
0 0 9
0 0 0
2 0 2
3 4 2
0 2 0
0 3 0
0 3 0
0 2 2
0 1 5
0 1 6
0 1 5
0 1 4
0 2 2
0 2 0
0 2 0
0 2 0
0 2 0
0 2 0
0 2 0
0 2 0
0 2 0
0 2 0
0 2 0
0 2 0
0 2 0
0 2 0
0 2 0
0 2 1
0 1 1
0 0 2
0 0 2
0 0 2
0 0 2
0 0 2
0 0 2
0 0 2
0 0 2
0 0 2
0 0 2
0 0 2
0 0 2
0 0 2
0 0 2
0 0 2
0 0 2
0 0 1
0 0 0
0 0 0
0 0 0
0 0 0
0 0 0
0 0 0
0 0 0
0 0 0
0 0 0
0 0 0
0 0 0
0 0 1
0 0 2
0 0 2
0 0 3
0 4 9
2 6 12
0 1 10
0 0 12
2 10 15
24 35 46
47 64 75
79 97 109
93 116 131
90 116 132
83 113 128
82 113 130
82 115 132
79 115 135
77 117 135
75 118 134
75 118 134
76 117 136
76 116 136
76 116 136
76 116 136
76 116 136
76 116 136
76 116 136
76 116 136
76 116 136
76 116 136
76 116 136
76 116 136
76 116 136
76 116 136
76 116 136
76 116 136
76 116 136
76 116 136
76 116 136
76 116 136
76 116 136
76 116 136
76 116 136
76 116 136
76 116 136
76 116 136
76 116 136
76 116 136
76 116 136
76 116 136
76 116 136
75 116 136
74 116 136
74 116 136
74 116 136
74 116 136
74 116 136
74 116 136
74 116 136
74 116 136
74 116 136
74 116 136
74 116 136
74 116 136
74 116 136
74 116 136
75 116 136
76 116 136
76 116 136
76 116 136
76 116 136
76 116 136
76 116 136
76 116 136
76 116 136
76 116 136
76 116 136
76 116 136
76 116 136
76 116 136
76 116 136
76 116 136
76 116 136
76 116 136
75 116 136
74 116 136
74 116 136
74 116 136
74 116 136
74 116 136
74 116 136
74 116 136
74 116 136
73 117 136
72 117 136
72 117 136
72 117 136
72 117 136
72 117 136
72 117 136
72 117 138
73 116 139
74 116 138
76 117 138
77 117 137
78 116 135
79 115 135
82 115 132
85 113 132
91 117 133
90 113 128
81 101 115
53 72 83
31 43 53
6 8 13
0 0 3
0 0 1
2 1 3
2 1 2
2 0 2
1 1 2
0 0 2
0 0 2
0 0 2
0 0 2
0 0 2
0 0 2
0 0 2
0 1 3
0 2 3
0 2 3
0 2 3
0 2 3
0 2 3
0 2 3
0 2 3
0 1 1
0 0 0
0 0 0
0 0 0
0 0 0
0 0 0
0 0 0
0 0 0
0 0 0
0 0 0
0 0 0
0 0 0
0 0 0
0 0 0
0 0 0
0 0 0
0 0 0
0 0 0
0 0 0
0 0 0
0 0 0
0 0 0
0 0 0
0 0 0
0 0 0
0 0 0
0 0 0
0 0 0
0 0 0
0 0 0
0 0 0
0 0 0
0 0 0
0 0 0
0 1 1
0 2 1
0 3 2
0 3 2
0 2 2
0 2 3
0 2 3
0 2 3
1 1 2
0 0 0
0 0 0
1 4 5
6 12 17
31 43 53
47 64 75
79 97 109
95 118 134
99 127 141
87 124 142
74 114 140
74 114 140
75 119 142
82 118 141
74 115 139
73 115 135
75 116 134
75 118 134
75 118 134
75 117 131
75 117 131
75 117 131
75 117 131
75 117 131
72 117 135
72 117 136
72 117 138
72 117 138
72 117 138
72 117 138
72 117 138
72 117 138
72 117 138
72 117 138
72 117 138
72 117 138
72 117 138
72 117 138
73 117 138
74 116 138
75 116 137
76 116 136
76 116 136
76 116 136
76 116 136
76 116 136
76 116 136
76 116 136
76 116 136
76 116 136
76 116 136
76 116 136
76 116 136
76 116 136
76 116 136
75 113 134
77 115 134
82 120 140
86 121 140
82 113 130
81 106 120
84 109 126
81 101 115
53 72 83
14 29 40
0 6 13
0 4 9
1 4 10
1 4 5
2 3 2
4 2 0
4 2 0
0 1 13
14 29 40
68 87 100
96 123 138
89 120 137
81 110 128
82 115 136
86 121 140
82 118 141
80 115 140
78 115 142
78 115 142
78 115 142
78 115 142
77 116 142
77 116 142
82 118 141
86 121 140
79 113 135
77 107 124
81 110 128
90 116 132
84 109 126
68 87 100
47 64 75
14 29 40
4 17 26
0 6 13
0 6 13
1 6 12
2 10 15
6 12 17
6 12 17
3 4 6
0 0 3
0 0 1
0 0 2
0 0 2
0 0 2
0 0 2
0 0 2
0 0 2
0 0 2
0 0 2
0 0 2
0 0 2
0 0 2
0 0 2
0 0 2
0 0 1
0 0 0
0 0 0
0 0 0
0 0 0
0 0 0
0 0 0
0 0 0
0 0 0
0 0 0
0 0 0
0 0 0
0 0 0
0 0 0
0 0 0
0 0 0
0 0 0
0 1 0
0 1 0
0 1 0
0 1 0
0 1 0
0 1 0
0 1 0
0 1 0
0 1 0
0 0 0
0 0 0
0 0 0
0 0 0
1 0 0
1 0 0
1 0 0
1 0 0
1 0 0
1 0 1
1 0 0
0 0 0
0 0 0
0 0 0
0 0 0
0 1 1
5 6 9
6 12 17
2 10 15
0 4 12
2 10 15
14 29 40
39 51 61
62 77 90
81 101 115
85 113 132
89 120 137
87 124 142
87 124 142
87 124 142
87 124 142
80 117 140
78 115 137
76 113 137
79 114 138
77 114 138
77 114 138
76 115 138
76 115 138
76 115 138
76 115 140
75 116 139
75 116 139
75 116 139
73 116 139
73 116 139
72 117 138
72 117 138
72 117 138
72 117 136
72 117 136
72 117 136
73 117 136
73 117 136
73 117 136
73 117 136
74 116 136
74 116 136
74 116 136
74 116 136
74 116 136
74 116 136
74 116 136
74 116 136
74 116 136
74 116 136
74 116 136
74 116 136
74 116 136
74 116 136
74 116 136
74 116 136
74 116 136
74 116 136
74 116 136
74 116 136
74 116 136
74 116 136
74 116 136
74 116 136
74 116 136
74 116 136
74 116 136
74 116 136
74 116 136
74 116 136
74 116 136
74 116 136
74 116 136
75 116 134
77 116 134
79 115 132
89 120 137
97 124 139
81 101 115
39 51 61
0 0 9
0 0 0
2 0 2
3 4 2
0 2 0
0 3 0
0 3 0
0 2 2
0 1 5
0 1 6
0 1 5
0 1 4
0 2 2
0 2 0
0 2 0
0 2 0
0 2 0
0 2 0
0 2 0
0 2 0
0 2 0
0 2 0
0 2 0
0 2 0
0 2 0
0 2 0
0 2 0
0 2 1
0 1 1
0 0 2
0 0 2
0 0 2
0 0 2
0 0 2
0 0 2
0 0 2
0 0 2
0 0 2
0 0 2
0 0 2
0 0 2
0 0 2
0 0 2
0 0 2
0 0 2
0 0 1
0 0 0
0 0 0
0 0 0
0 0 0
0 0 0
0 0 0
0 0 0
0 0 0
0 0 0
0 0 0
0 0 0
0 0 1
0 0 2
0 0 2
0 0 3
0 4 9
2 6 12
0 1 10
0 0 12
2 10 15
24 35 46
47 64 75
79 97 109
93 116 131
90 116 132
83 113 128
82 113 130
82 115 132
79 115 135
77 117 135
75 118 134
75 118 134
76 117 136
76 116 136
76 116 136
76 116 136
76 116 136
76 116 136
76 116 136
76 116 136
76 116 136
76 116 136
76 116 136
76 116 136
76 116 136
76 116 136
76 116 136
76 116 136
76 116 136
76 116 136
76 116 136
76 116 136
76 116 136
76 116 136
76 116 136
76 116 136
76 116 136
76 116 136
76 116 136
76 116 136
76 116 136
77 116 137
77 116 137
76 116 136
75 116 136
75 116 136
75 116 136
75 116 136
75 116 136
74 116 136
74 116 136
74 116 136
74 116 136
74 116 136
75 116 136
75 116 136
75 116 136
75 116 136
76 116 136
76 116 136
76 116 136
76 116 136
76 116 136
76 116 136
77 116 137
77 116 137
77 116 137
77 116 137
77 116 137
77 116 137
77 116 137
76 116 136
76 116 136
76 116 136
77 116 137
77 116 137
76 116 136
75 116 136
75 116 136
75 116 136
75 116 136
75 116 136
75 116 136
74 116 136
74 116 136
74 117 135
73 117 136
73 117 136
73 117 136
73 117 136
73 117 136
73 117 136
73 117 138
74 116 138
74 116 138
76 117 138
77 117 137
78 116 135
79 115 135
82 115 132
85 113 132
91 117 133
90 113 128
81 101 115
62 77 90
31 43 53
6 8 13
0 0 3
0 0 2
3 1 6
2 1 2
2 0 1
1 1 2
0 0 2
0 0 2
0 0 2
0 0 2
0 0 2
0 0 2
0 0 2
0 1 3
0 2 3
0 2 3
0 2 3
0 2 3
0 2 3
0 2 3
0 2 3
0 1 1
0 0 0
0 0 0
0 0 0
0 0 0
0 0 0
0 0 0
0 0 0
0 0 0
0 0 0
0 0 0
0 0 0
0 0 0
0 0 0
0 0 0
0 0 0
0 0 0
0 0 0
0 0 0
0 0 0
0 0 0
0 0 0
0 0 0
0 0 0
0 0 0
0 0 0
0 0 0
0 0 0
0 0 0
0 0 0
0 0 0
0 0 0
0 0 0
0 0 0
0 1 1
0 2 1
0 2 1
0 3 2
0 2 2
0 2 2
0 1 1
0 3 2
3 4 6
3 4 6
1 1 1
0 0 0
2 3 2
6 12 17
31 43 53
53 72 83
81 106 120
99 127 141
87 124 142
74 114 140
74 114 140
75 119 142
87 124 142
78 117 140
77 116 137
76 117 136
75 118 134
77 117 135
75 117 131
75 117 131
75 117 131
75 117 131
75 117 131
72 117 135
72 117 136
72 117 138
72 117 138
72 117 138
72 117 138
72 117 138
72 117 138
72 117 138
72 117 138
72 117 138
72 117 138
72 117 138
72 117 138
73 117 138
74 116 138
75 116 137
76 116 136
76 116 136
76 116 136
76 116 136
76 116 136
76 116 136
76 116 136
76 116 136
76 116 136
76 116 136
76 116 136
76 116 136
76 116 136
76 116 136
76 115 135
77 115 134
82 120 140
86 121 140
79 113 132
77 107 124
90 113 128
88 109 125
62 77 90
23 41 52
4 17 26
0 8 14
1 4 10
1 4 5
1 2 3
3 2 1
3 2 0
0 4 16
14 29 40
55 79 91
96 123 138
89 120 137
81 110 128
83 113 135
86 121 140
86 121 140
82 116 140
80 115 140
80 115 140
78 115 142
78 115 142
78 115 142
82 116 140
80 115 137
83 113 135
85 113 132
85 113 132
93 121 136
93 116 131
70 92 106
47 64 75
14 29 40
0 12 19
0 6 13
0 4 12
1 6 12
0 8 14
2 10 15
2 10 15
5 6 9
1 4 5
0 0 2
0 0 1
0 0 2
0 0 2
0 0 2
0 0 2
0 0 2
0 0 2
0 0 2
0 0 2
0 0 2
0 0 2
0 0 2
0 0 2
0 0 2
0 0 1
0 0 0
0 0 0
0 0 0
0 0 0
0 0 0
0 0 0
0 0 0
0 0 0
0 0 0
0 0 0
0 0 0
0 0 0
0 0 0
0 0 0
0 0 0
0 0 0
0 1 0
0 1 0
0 1 0
0 1 0
0 1 0
0 1 0
0 1 0
0 1 0
0 1 0
0 0 0
0 0 0
0 0 0
0 0 0
0 0 0
0 0 0
0 0 0
0 0 0
0 0 0
0 0 0
0 0 0
0 0 0
0 1 0
0 1 0
0 0 0
0 1 3
2 6 12
2 10 15
0 4 12
0 6 13
14 29 40
47 64 75
68 87 100
81 101 115
90 113 128
93 121 136
87 124 142
87 124 142
87 124 142
87 124 142
86 121 140
82 118 141
80 115 140
77 114 140
77 114 138
77 114 138
77 114 138
76 115 138
76 115 138
76 115 138
76 115 138
75 116 138
74 116 138
74 116 138
74 116 138
73 116 139
72 117 138
72 117 138
72 117 138
72 117 138
72 117 138
72 117 138
72 117 138
72 117 138
72 117 138
73 117 136
74 116 136
74 116 136
74 116 136
74 116 136
74 116 136
74 116 136
74 116 136
74 116 136
74 116 136
74 116 136
74 116 136
74 116 136
74 116 136
74 116 136
74 116 136
74 116 136
74 116 136
74 116 136
74 116 136
74 116 136
74 116 136
74 116 136
74 116 136
74 116 136
74 116 136
74 116 136
74 116 136
74 116 136
74 116 136
74 116 136
74 116 136
74 116 136
74 116 136
75 116 134
77 116 134
79 115 132
89 120 137
97 124 139
81 101 115
39 51 61
0 0 9
0 0 0
2 0 2
3 4 2
0 2 0
0 3 0
0 3 0
0 2 2
0 1 5
0 1 6
0 1 5
0 1 4
0 2 2
0 2 0
0 2 0
0 2 0
0 2 0
0 2 0
0 2 0
0 2 0
0 2 0
0 2 0
0 2 0
0 2 0
0 2 0
0 2 0
0 2 0
0 2 1
0 1 1
0 0 2
0 0 2
0 0 2
0 0 2
0 0 2
0 0 2
0 0 2
0 0 2
0 0 2
0 0 2
0 0 2
0 0 2
0 0 2
0 0 2
0 0 2
0 0 2
0 0 1
0 0 0
0 0 0
0 0 0
0 0 0
0 0 0
0 0 0
0 0 0
0 0 0
0 0 0
0 0 0
0 0 0
0 0 1
0 0 2
0 0 2
0 0 3
0 4 9
2 6 12
0 1 10
0 0 12
2 10 15
24 35 46
47 64 75
79 97 109
93 116 131
90 116 132
83 113 128
82 113 130
82 115 132
79 115 135
77 117 135
75 118 134
75 118 134
76 117 136
76 116 136
76 116 136
76 116 136
76 116 136
76 116 136
76 116 136
76 116 136
76 116 136
76 116 136
76 116 136
76 116 136
76 116 136
76 116 136
76 116 136
76 116 136
76 116 136
77 115 136
77 115 136
77 115 136
77 115 136
77 115 136
77 115 136
77 115 136
77 115 136
77 115 136
77 115 136
77 115 136
77 115 136
77 115 136
77 115 136
77 115 136
76 116 136
76 116 136
76 116 136
76 116 136
76 116 136
75 116 136
74 116 136
74 116 136
74 116 136
75 116 136
76 116 136
76 116 136
76 116 136
76 116 136
76 116 136
76 116 136
76 116 136
76 116 136
76 116 136
76 116 136
77 115 136
77 115 136
77 115 136
77 115 136
77 115 136
77 115 136
77 115 136
77 115 136
77 115 136
77 115 136
77 115 136
77 115 136
77 115 136
76 116 136
76 116 136
76 116 136
76 116 136
76 116 136
76 116 136
74 116 136
74 116 136
74 116 136
74 116 136
74 116 136
74 116 136
74 116 136
74 116 136
75 116 137
74 116 138
74 116 138
74 116 138
76 117 138
77 117 137
78 116 135
79 115 135
82 115 132
85 113 132
91 117 133
90 113 128
81 101 115
62 77 90
31 43 53
6 8 13
0 0 2
0 0 3
3 1 6
2 0 1
2 0 0
1 0 1
0 0 2
0 0 2
0 0 2
0 0 2
0 0 2
0 0 2
0 0 2
0 1 3
0 2 3
0 2 3
0 2 3
0 2 3
0 2 3
0 2 3
0 2 3
0 1 1
0 0 0
0 0 0
0 0 0
0 0 0
0 0 0
0 0 0
0 0 0
0 0 0
0 0 0
0 0 0
0 0 0
0 0 0
0 0 0
0 0 0
0 0 0
0 0 0
0 0 0
0 0 0
0 0 0
0 0 0
0 0 0
0 0 0
0 0 0
0 0 0
0 0 0
0 0 0
0 0 0
0 0 0
0 0 0
0 0 0
0 0 0
0 0 0
0 0 0
0 2 1
0 2 1
0 2 1
0 2 1
0 2 1
0 2 1
0 1 0
0 3 2
3 4 6
3 4 6
3 4 6
0 0 0
0 0 0
1 3 2
12 20 29
31 43 53
62 77 90
84 109 126
82 118 141
78 115 142
76 115 140
82 118 141
82 118 141
82 118 141
80 117 140
78 118 139
78 117 135
77 117 133
75 117 131
75 117 131
75 117 131
75 117 131
75 117 131
72 117 135
72 117 136
72 117 138
72 117 138
72 117 138
72 117 138
72 117 138
72 117 138
72 117 138
72 117 138
72 117 138
72 117 138
72 117 138
72 117 138
73 117 138
74 116 138
75 116 137
76 116 136
76 116 136
76 116 136
76 116 136
76 116 136
76 116 136
76 116 136
76 116 136
76 116 136
76 116 136
76 116 136
76 116 136
76 116 136
76 116 136
76 115 135
77 115 136
82 118 141
86 121 140
79 113 132
81 110 128
89 118 136
95 118 134
71 97 112
39 51 61
14 29 40
2 10 15
0 4 9
0 1 6
1 4 5
2 1 3
2 2 2
0 1 13
14 29 40
55 79 91
97 124 139
89 120 137
81 110 128
85 113 132
89 120 137
86 121 140
82 116 140
82 116 140
82 116 140
82 116 140
82 116 140
80 115 140
82 113 136
82 113 136
85 113 132
93 121 136
97 124 139
95 118 134
79 97 109
47 64 75
14 29 40
0 12 19
0 4 12
1 6 12
2 6 12
2 10 15
2 10 15
2 6 12
1 4 10
1 4 5
1 1 3
0 0 2
0 0 2
0 0 2
0 0 2
0 0 2
0 0 2
0 0 2
0 0 2
0 0 2
0 0 2
0 0 2
0 0 2
0 0 2
0 0 2
0 0 2
0 0 1
0 0 0
0 0 0
0 0 0
0 0 0
0 0 0
0 0 0
0 0 0
0 0 0
0 0 0
0 0 0
0 0 0
0 0 0
0 0 0
0 0 0
0 0 0
0 0 0
0 1 0
0 1 0
0 1 0
0 1 0
0 1 0
0 1 0
0 1 0
0 1 0
0 1 0
0 0 0
0 0 0
0 0 0
0 0 0
0 0 0
0 0 0
0 0 0
0 0 0
0 0 0
0 0 0
0 0 0
0 0 0
0 1 0
0 1 1
1 2 3
1 1 5
0 1 5
0 4 9
2 10 15
14 29 40
39 51 61
68 87 100
81 106 120
95 118 134
93 121 136
89 118 136
83 118 136
82 118 141
86 121 140
82 120 140
82 118 141
82 118 141
80 117 140
78 115 139
77 114 138
77 114 138
77 114 138
76 115 138
76 115 138
76 115 138
76 115 138
75 116 138
74 116 138
74 116 138
74 116 138
73 116 139
72 117 138
72 117 138
72 117 138
72 117 138
72 117 138
72 117 138
72 117 138
72 117 138
72 117 138
72 117 138
73 117 138
73 117 138
74 116 136
74 116 136
74 116 136
74 116 136
74 116 136
74 116 136
74 116 136
74 116 136
74 116 136
74 116 136
74 116 136
74 116 136
74 116 136
74 116 136
74 116 136
74 116 136
74 116 136
74 116 136
74 116 136
74 116 136
74 116 136
74 116 136
74 116 136
74 116 136
74 116 136
74 116 136
74 116 136
74 116 136
74 116 136
74 116 136
74 116 136
75 116 134
77 116 134
79 115 132
89 120 137
97 124 139
81 101 115
39 51 61
0 0 9
0 0 0
2 0 2
3 4 2
0 2 0
0 3 0
0 3 0
0 2 2
0 1 5
0 1 6
0 1 5
0 1 4
0 2 2
0 2 0
0 2 0
0 2 0
0 2 0
0 2 0
0 2 0
0 2 0
0 2 0
0 2 0
0 2 0
0 2 0
0 2 0
0 2 0
0 2 0
0 2 1
0 1 1
0 0 2
0 0 2
0 0 2
0 0 2
0 0 2
0 0 2
0 0 2
0 0 2
0 0 2
0 0 2
0 0 2
0 0 2
0 0 2
0 0 2
0 0 2
0 0 2
0 0 1
0 0 0
0 0 0
0 0 0
0 0 0
0 0 0
0 0 0
0 0 0
0 0 0
0 0 0
0 0 0
0 0 0
0 0 1
0 0 2
0 0 2
0 0 3
0 4 9
2 6 12
0 1 10
0 0 12
2 10 15
24 35 46
47 64 75
79 97 109
93 116 131
90 116 132
83 113 128
82 113 130
82 115 132
79 115 135
77 117 135
75 118 137
75 118 137
76 117 136
76 116 136
76 116 136
76 116 136
76 116 136
76 116 136
76 116 136
76 116 136
76 116 136
76 116 136
76 116 136
76 116 136
76 116 136
76 116 136
76 116 136
76 116 136
76 116 136
77 115 136
77 115 136
77 115 136
77 115 136
77 115 136
77 115 136
77 115 136
77 115 136
79 114 136
79 114 136
79 114 136
79 114 136
77 115 136
77 115 136
77 115 136
77 116 137
77 116 137
76 116 136
76 116 136
76 116 136
75 116 136
74 116 136
74 116 136
74 116 136
75 116 136
76 116 136
76 116 136
76 116 136
76 116 136
76 116 136
76 116 136
76 116 136
76 116 136
76 116 136
76 116 136
77 115 136
77 115 136
77 115 136
77 115 136
77 115 136
77 115 136
77 115 136
79 114 136
79 114 136
79 114 136
79 114 136
77 115 136
77 115 136
77 116 137
77 116 137
76 116 136
76 116 136
76 116 136
76 116 136
74 116 136
74 116 136
74 116 136
74 116 136
74 116 136
74 116 136
74 116 136
74 116 136
75 116 137
74 116 138
74 116 138
74 116 138
76 117 138
77 117 137
78 116 135
79 115 135
82 115 132
85 113 132
91 117 133
90 113 128
81 101 115
62 77 90
31 43 53
6 8 13
0 0 1
0 0 2
3 1 6
2 0 1
2 0 0
1 0 1
0 0 2
0 0 2
0 0 2
0 0 2
0 0 2
0 0 2
0 0 2
0 1 3
0 2 3
0 2 3
0 2 3
0 2 3
0 2 3
0 2 3
0 2 3
0 1 1
0 0 0
0 0 0
0 0 0
0 0 0
0 0 0
0 0 0
0 0 0
0 0 0
0 0 0
0 0 0
0 0 0
0 0 0
0 0 0
0 0 0
0 0 0
0 0 0
0 0 0
0 0 0
0 0 0
0 0 0
0 0 0
0 0 0
0 0 0
0 0 0
0 0 0
0 0 0
0 0 0
0 0 0
0 0 0
0 0 0
0 0 0
0 0 0
0 0 0
0 2 1
0 2 1
0 2 1
0 2 1
0 2 1
0 2 1
0 1 0
0 2 1
2 3 2
3 4 6
3 4 6
3 4 6
1 1 2
0 0 0
1 4 5
12 20 29
31 51 61
68 87 100
79 113 132
87 124 142
87 124 142
82 118 141
82 117 137
82 120 140
82 120 140
78 118 139
78 117 135
77 117 133
75 117 131
75 117 131
75 117 131
75 117 131
75 117 131
72 117 135
72 117 136
72 117 138
72 117 138
72 117 138
72 117 138
72 117 138
72 117 138
72 117 138
72 117 138
72 117 138
72 117 138
72 117 138
72 117 138
73 117 138
74 116 138
75 116 137
76 116 136
76 116 136
76 116 136
76 116 136
76 116 136
76 116 136
76 116 136
76 116 136
76 116 136
76 116 136
76 116 136
76 116 136
76 116 136
76 116 136
76 115 135
77 115 136
82 117 137
82 116 140
82 113 136
83 113 135
96 123 138
99 127 141
88 109 125
55 79 91
23 41 52
2 10 15
0 0 5
0 0 4
3 4 6
1 4 5
1 2 3
0 1 13
14 29 40
55 79 91
96 123 138
89 120 137
81 110 128
85 113 132
89 120 137
89 120 137
89 118 136
82 115 136
82 115 136
82 115 136
82 115 136
82 115 136
83 113 135
85 113 132
85 113 132
93 121 136
93 116 131
71 97 112
47 64 75
24 35 46
4 17 26
0 8 14
0 4 12
0 8 14
6 12 17
6 12 17
6 8 13
3 4 6
1 1 2
0 0 0
0 0 1
0 0 2
0 0 2
0 0 2
0 0 2
0 0 2
0 0 2
0 0 2
0 0 2
0 0 2
0 0 2
0 0 2
0 0 2
0 0 2
0 0 2
0 0 2
0 0 1
0 0 0
0 0 0
0 0 0
0 0 0
0 0 0
0 0 0
0 0 0
0 0 0
0 0 0
0 0 0
0 0 0
0 0 0
0 0 0
0 0 0
0 0 0
0 0 0
0 1 0
0 1 0
0 1 0
0 1 0
0 1 0
0 1 0
0 1 0
0 1 0
0 1 0
0 0 0
0 0 0
0 0 0
0 0 0
0 0 0
0 0 0
0 0 0
0 0 0
0 0 0
0 0 0
0 0 0
0 1 0
0 1 1
0 1 1
1 4 5
0 1 6
0 0 5
0 6 13
14 29 40
47 64 75
62 77 90
81 101 115
95 118 134
99 127 141
96 123 138
85 116 133
77 111 130
79 113 135
80 115 137
80 115 140
82 118 141
82 118 141
80 117 140
80 115 140
78 115 139
77 114 138
77 114 138
76 115 138
76 115 138
76 115 138
76 115 138
75 116 138
74 116 138
74 116 138
74 116 138
73 116 139
72 117 138
72 117 138
72 117 138
72 117 138
72 117 138
72 117 138
72 117 138
72 117 138
72 117 138
72 117 138
72 117 138
72 117 138
74 116 136
74 116 136
74 116 136
74 116 136
74 116 136
74 116 136
74 116 136
74 116 136
74 116 136
74 116 136
74 116 136
74 116 136
74 116 136
74 116 136
74 116 136
74 116 136
74 116 136
74 116 136
74 116 136
74 116 136
74 116 136
74 116 136
74 116 136
74 116 136
74 116 136
74 116 136
74 116 136
74 116 136
74 116 136
74 116 136
74 116 136
75 116 134
77 116 134
79 115 132
89 120 137
97 124 139
81 101 115
39 51 61
0 0 9
0 0 0
2 0 2
3 4 2
0 2 0
0 3 0
0 3 2
0 2 3
0 1 5
0 1 6
0 1 5
0 1 4
0 2 2
0 2 0
0 2 0
0 2 0
0 2 0
0 2 0
0 2 0
0 2 0
0 2 0
0 2 0
0 2 0
0 2 0
0 2 0
0 2 0
0 2 0
0 2 1
0 1 1
0 0 2
0 0 2
0 0 2
0 0 2
0 0 2
0 0 2
0 0 2
0 0 2
0 0 2
0 0 2
0 0 2
0 0 2
0 0 2
0 0 2
0 0 2
0 0 2
0 0 1
0 0 0
0 0 0
0 0 0
0 0 0
0 0 0
0 0 0
0 0 0
0 0 0
0 0 0
0 0 0
0 0 0
0 0 1
0 0 2
0 0 2
0 0 3
0 4 9
2 6 12
0 1 10
0 0 12
2 10 15
24 35 46
47 64 75
79 97 109
93 116 131
90 116 132
83 113 128
82 113 130
82 115 132
79 115 135
77 117 135
75 118 137
75 118 137
75 118 137
76 116 136
76 116 136
76 116 136
76 116 136
76 116 136
76 116 136
76 116 136
76 116 136
76 116 136
76 116 136
76 116 136
76 116 136
76 116 136
76 116 136
76 116 136
76 116 136
77 115 136
77 115 136
77 115 136
77 115 136
77 115 136
77 115 136
77 115 136
77 115 136
79 114 136
79 114 136
79 114 136
79 114 136
77 115 136
77 115 136
77 115 136
77 115 136
77 115 136
76 116 136
76 116 136
76 116 136
75 116 136
74 116 136
74 116 136
74 116 136
75 116 136
76 116 136
76 116 136
76 116 136
76 116 136
76 116 136
76 116 136
76 116 136
76 116 136
77 115 136
77 115 136
77 115 136
77 115 136
77 115 136
77 115 136
77 115 136
77 115 136
77 115 136
79 114 136
79 114 136
79 114 136
79 114 136
77 115 136
77 115 136
77 115 136
77 115 136
76 116 136
76 116 136
76 116 136
76 116 136
74 116 136
74 116 136
74 116 136
74 116 136
74 116 136
74 116 136
74 116 136
74 116 136
75 116 137
74 116 138
74 116 138
74 116 138
76 117 138
77 117 137
78 116 135
79 115 135
82 115 132
85 113 132
91 117 133
90 113 128
81 101 115
62 77 90
31 43 53
6 8 13
0 0 1
0 0 1
3 4 6
2 1 1
2 0 0
1 0 1
0 0 2
0 0 2
0 0 2
0 0 2
0 0 2
0 0 2
0 0 2
0 1 3
0 2 3
0 2 3
0 2 3
0 2 3
0 2 3
0 2 3
0 2 3
0 1 1
0 0 0
0 0 0
0 0 0
0 0 0
0 0 0
0 0 0
0 0 0
0 0 0
0 0 0
0 0 0
0 0 0
0 0 0
0 0 0
0 0 0
0 0 0
0 0 0
0 0 0
0 0 0
0 0 0
0 0 0
0 0 0
0 0 0
0 0 0
0 0 0
0 0 0
0 0 0
0 0 0
0 0 0
0 0 0
0 0 0
0 0 0
0 0 0
0 0 0
0 2 1
0 2 1
0 2 1
0 2 1
0 2 1
0 2 1
0 1 0
0 1 0
0 1 0
0 3 2
3 4 6
3 4 6
3 4 6
0 0 0
0 0 0
1 1 3
12 20 29
31 51 61
71 97 112
89 120 137
97 124 139
83 113 135
79 113 132
83 118 136
86 121 140
78 117 135
77 115 131
75 117 131
75 117 131
75 117 131
75 117 131
75 117 131
75 117 131
72 117 135
72 117 136
72 117 138
72 117 138
72 117 138
72 117 138
72 117 138
72 117 138
72 117 138
72 117 138
72 117 138
72 117 138
72 117 138
72 117 138
73 117 138
74 116 138
75 116 137
76 116 136
76 116 136
76 116 136
76 116 136
76 116 136
76 116 136
76 116 136
76 116 136
76 116 136
76 116 136
76 116 136
76 116 136
76 116 136
76 116 136
77 116 137
77 115 136
78 115 137
79 114 138
79 114 138
83 118 136
97 124 139
99 127 141
95 118 134
79 97 109
39 51 61
4 17 26
0 0 4
0 1 5
5 6 9
3 4 6
3 4 6
0 1 13
14 29 40
55 79 91
89 120 137
89 118 136
81 110 128
89 118 136
97 124 139
96 123 138
89 118 136
85 113 132
85 113 132
82 113 130
85 113 132
89 118 136
93 121 136
95 118 134
84 109 126
71 97 112
55 79 91
47 64 75
23 41 52
12 20 29
0 8 14
0 4 9
1 4 10
0 8 14
6 8 13
6 8 13
5 6 9
3 4 6
3 2 1
1 0 0
0 0 0
0 0 1
0 0 2
0 0 2
0 0 2
0 0 2
0 0 2
0 0 2
0 0 2
0 0 2
0 0 2
0 0 2
0 0 2
0 0 2
0 0 2
0 0 2
0 0 1
0 0 0
0 0 0
0 0 0
0 0 0
0 0 0
0 0 0
0 0 0
0 0 0
0 0 0
0 0 0
0 0 0
0 0 0
0 0 0
0 0 0
0 0 0
0 0 0
0 1 0
0 1 0
0 1 0
0 1 0
0 1 0
0 1 0
0 1 0
0 1 0
0 1 0
0 0 0
0 0 0
0 0 0
0 0 0
1 1 1
0 0 0
0 0 0
2 2 2
5 6 9
6 8 13
3 4 6
0 2 3
1 4 5
1 1 5
0 0 2
0 1 6
6 12 17
24 35 46
47 64 75
62 77 90
79 97 109
84 109 126
91 117 133
96 123 138
89 118 136
79 113 132
77 111 130
76 113 132
76 114 136
77 114 140
80 115 140
80 117 140
80 115 140
80 115 140
78 115 139
77 114 138
77 114 138
76 115 138
76 115 138
76 115 138
76 115 138
75 116 138
74 116 138
74 116 138
74 116 138
73 116 139
72 117 138
72 117 138
72 117 138
72 117 138
72 117 138
72 117 138
72 117 138
72 117 138
72 117 138
72 117 138
72 117 138
72 117 138
74 116 136
74 116 136
74 116 136
74 116 136
74 116 136
74 116 136
74 116 136
74 116 136
74 116 136
74 116 136
74 116 136
74 116 136
74 116 136
74 116 136
74 116 136
74 116 136
74 116 136
74 116 136
74 116 136
74 116 136
74 116 136
74 116 136
74 116 136
74 116 136
74 116 136
74 116 136
74 116 136
74 116 136
74 116 136
74 116 136
74 116 136
75 116 134
77 116 134
79 115 132
89 120 137
97 124 139
81 101 115
39 51 61
0 0 9
0 0 0
2 1 3
3 4 6
0 2 0
0 3 0
0 3 2
0 2 3
0 1 5
0 1 6
0 1 6
0 1 5
0 2 3
0 2 1
0 2 0
0 2 0
0 2 0
0 2 0
0 2 0
0 2 0
0 2 0
0 2 0
0 2 0
0 2 0
0 2 0
0 2 0
0 2 0
0 2 1
0 1 1
0 0 2
0 0 2
0 0 2
0 0 2
0 0 2
0 0 2
0 0 2
0 0 2
0 0 2
0 0 2
0 0 2
0 0 2
0 0 2
0 0 2
0 0 2
0 0 2
0 0 1
0 0 0
0 0 0
0 0 0
0 0 0
0 0 0
0 0 0
0 0 0
0 0 0
0 0 0
0 0 0
0 0 0
0 0 1
0 0 2
0 0 2
0 0 3
0 4 9
2 6 12
0 1 10
0 0 12
2 10 15
24 35 46
47 64 75
81 101 115
93 116 131
90 116 132
83 113 128
82 113 130
82 115 132
79 115 135
77 117 135
75 118 137
75 118 137
76 117 138
75 116 137
75 116 137
75 116 137
75 116 137
75 116 137
75 116 137
75 116 137
76 116 136
76 116 136
76 116 136
76 116 136
76 116 136
76 116 136
76 116 136
76 116 136
76 116 136
77 115 134
77 115 134
77 115 134
77 115 134
77 115 134
77 115 134
77 115 134
77 115 134
79 114 134
79 114 134
79 114 134
79 114 134
78 116 135
77 115 134
77 115 134
77 115 134
77 115 136
76 116 136
76 116 136
76 116 136
75 116 136
74 116 136
74 116 136
74 116 136
75 116 136
75 116 137
75 116 137
75 116 137
75 116 137
75 116 137
75 116 137
75 116 137
75 116 137
77 115 137
77 115 137
77 115 137
77 115 137
77 115 137
77 115 137
77 115 137
77 115 137
78 115 137
79 114 138
79 114 138
79 114 138
78 115 137
77 115 137
77 115 137
77 115 137
77 115 137
75 116 137
75 116 137
75 116 137
75 116 137
75 116 137
75 116 137
75 116 137
75 116 137
75 116 137
75 116 137
75 116 137
75 116 137
75 116 137
74 116 138
74 116 138
74 116 138
76 117 138
77 117 139
78 116 137
80 115 137
82 115 132
85 113 132
91 117 133
90 113 128
81 101 115
62 77 90
31 43 53
6 8 13
0 0 1
0 0 1
3 4 6
3 2 1
2 0 0
1 0 1
0 1 1
0 1 1
0 1 1
0 1 1
0 1 1
0 1 1
0 1 1
0 1 3
0 2 3
0 2 3
0 2 3
0 2 3
0 2 3
0 2 3
0 2 3
0 1 1
0 0 0
0 0 0
0 0 0
0 0 0
0 0 0
0 0 0
0 0 0
0 0 0
0 0 0
0 0 0
0 0 0
0 0 0
0 0 0
0 0 0
0 0 0
0 0 0
0 0 0
0 0 0
0 0 0
0 0 0
0 0 0
0 0 0
0 0 0
0 0 0
0 0 0
0 0 0
0 0 0
0 0 0
0 0 0
0 0 0
0 0 0
0 0 0
0 0 0
0 2 1
0 2 1
0 2 1
0 2 1
0 2 1
0 2 1
0 1 0
0 1 0
0 0 0
0 1 0
2 3 2
3 4 6
3 4 6
1 1 2
1 1 2
0 0 0
1 4 10
14 29 40
53 72 83
90 113 128
93 121 136
77 107 124
77 107 124
85 116 133
83 118 136
82 115 132
77 115 131
75 117 131
75 117 131
75 117 131
75 117 131
75 117 131
75 117 131
72 117 135
72 117 136
72 117 138
72 117 138
72 117 138
72 117 138
72 117 138
72 117 138
72 117 138
72 117 138
72 117 138
72 117 138
72 117 138
72 117 138
73 117 138
74 116 138
75 116 137
76 116 136
76 116 136
76 116 136
76 116 136
76 116 136
76 116 136
76 116 136
76 116 136
76 116 136
76 116 136
76 116 136
76 116 136
76 116 136
76 116 136
77 116 137
77 115 137
76 113 137
76 113 137
80 115 140
86 121 140
86 121 140
89 118 136
93 121 136
88 109 125
53 72 83
12 20 29
0 4 9
0 4 9
2 10 15
2 6 12
1 4 10
0 1 13
14 29 40
55 79 91
89 120 137
89 118 136
83 113 128
97 121 136
99 127 141
96 123 138
90 116 132
85 113 132
84 109 126
84 109 126
90 113 128
95 118 134
97 121 136
93 116 131
71 97 112
47 64 75
14 29 40
4 17 26
4 17 26
4 17 26
1 4 10
0 0 6
0 3 5
0 4 9
1 4 5
3 4 6
5 4 5
5 4 5
3 4 2
3 2 1
2 1 0
0 0 0
0 0 1
0 0 2
0 0 2
0 0 2
0 0 2
0 0 2
0 0 2
0 0 2
0 0 2
0 0 2
0 0 2
0 0 2
0 0 2
0 0 2
0 0 1
0 0 0
0 0 0
0 0 0
0 0 0
0 0 0
0 0 0
0 0 0
0 0 0
0 0 0
0 0 0
0 0 0
0 0 0
0 0 0
0 0 0
0 0 0
0 0 0
0 1 0
0 1 0
0 1 0
0 1 0
0 1 0
0 1 0
0 1 0
0 1 0
0 1 0
0 1 0
0 1 0
0 1 0
0 1 0
1 2 1
0 0 0
0 0 0
5 4 5
6 12 17
12 20 29
6 12 17
0 4 5
1 4 5
0 1 6
0 0 4
2 10 15
23 41 52
53 72 83
68 87 100
70 92 106
81 101 115
84 109 126
85 113 132
85 113 132
83 113 135
79 113 135
79 113 135
79 114 134
78 115 137
77 114 138
77 114 138
78 115 139
78 115 139
78 115 139
78 115 139
77 114 138
77 114 138
76 115 138
76 115 138
76 115 138
76 115 138
75 116 138
74 116 138
74 116 138
74 116 138
73 116 139
72 117 138
72 117 138
72 117 138
72 117 138
72 117 138
72 117 138
72 117 138
72 117 138
72 117 138
72 117 138
72 117 138
72 117 138
74 116 136
74 116 136
74 116 136
74 116 136
74 116 136
74 116 136
74 116 136
74 116 136
74 116 136
74 116 136
74 116 136
74 116 136
74 116 136
74 116 136
74 116 136
74 116 136
74 116 136
74 116 136
74 116 136
74 116 136
74 116 136
74 116 136
74 116 136
74 116 136
74 116 136
74 116 136
74 116 136
74 116 136
74 116 136
74 116 136
74 116 136
75 116 134
77 116 134
79 115 132
89 120 137
97 124 139
81 101 115
39 51 61
0 0 9
0 0 0
2 1 3
3 4 6
0 2 1
0 3 0
0 3 2
0 2 3
0 1 6
1 1 8
0 1 6
0 1 6
0 2 4
0 2 2
0 2 1
0 2 1
0 2 1
0 2 1
0 2 1
0 2 1
0 2 1
0 2 1
0 2 1
0 2 1
0 2 1
0 2 1
0 2 1
0 2 1
0 1 1
0 0 2
0 0 2
0 0 2
0 0 2
0 0 2
0 0 2
0 0 2
0 0 2
0 0 2
0 0 2
0 0 2
0 0 2
0 0 2
0 0 2
0 0 2
0 0 2
0 0 1
0 0 0
0 0 0
0 0 0
0 0 0
0 0 0
0 0 0
0 0 0
0 0 0
0 0 0
0 0 0
0 0 0
0 0 1
0 0 2
0 0 2
0 0 3
0 4 9
2 6 12
0 1 10
0 1 10
6 12 17
24 35 46
47 64 75
81 101 115
93 116 131
91 117 133
82 113 130
82 115 132
82 115 132
79 115 135
77 117 135
75 118 137
75 118 137
73 117 138
74 116 138
74 116 138
74 116 138
74 116 138
74 116 138
74 116 138
74 116 138
75 116 137
76 116 136
76 116 136
76 116 136
76 116 136
76 116 136
76 116 136
76 116 136
76 116 136
77 115 134
77 115 134
77 115 134
77 115 134
77 115 134
77 115 134
77 115 134
77 115 134
79 114 134
79 114 134
79 114 134
79 114 134
77 115 134
77 115 134
77 115 134
77 115 134
77 115 134
76 116 136
76 116 136
76 116 136
75 116 136
74 116 136
74 116 136
74 116 136
75 116 137
76 115 138
76 115 138
76 115 138
76 115 138
76 115 138
76 115 138
76 115 138
76 115 138
77 114 138
77 114 138
77 114 138
77 114 138
77 114 138
77 114 138
77 114 138
77 114 138
79 114 138
79 114 138
79 114 138
79 114 138
79 114 138
77 114 138
77 114 138
77 114 138
77 114 138
76 115 138
76 115 138
76 115 138
76 115 138
74 116 138
74 116 138
74 116 138
74 116 138
74 116 138
74 116 138
74 116 138
74 116 138
74 116 138
74 116 138
74 116 138
74 116 138
75 116 139
77 116 139
78 115 139
80 115 137
79 114 134
85 113 132
90 116 132
90 113 128
81 101 115
62 77 90
31 43 53
6 12 17
0 0 2
0 0 2
5 4 5
4 1 2
3 0 1
1 1 2
0 2 3
0 2 3
0 2 3
0 2 3
0 2 3
0 2 3
0 2 3
0 2 3
0 2 3
0 2 3
0 2 3
0 2 3
0 2 3
0 2 3
0 2 3
0 1 1
0 0 0
0 0 0
0 0 0
0 0 0
0 0 0
0 0 0
0 0 0
0 0 0
0 0 0
0 0 0
0 0 0
0 0 0
0 0 0
0 0 0
0 0 0
0 0 0
0 0 0
0 0 0
0 0 0
0 0 0
0 0 0
0 0 0
0 0 0
0 0 0
0 0 0
0 0 0
0 0 0
0 0 0
0 0 0
0 0 0
0 0 0
0 0 0
0 0 0
0 2 1
0 2 1
0 2 1
0 2 1
0 2 1
0 2 1
0 2 1
0 2 1
0 1 0
0 1 0
0 1 0
0 3 2
0 2 2
0 2 3
1 1 5
0 1 6
0 0 4
0 4 16
31 43 53
68 87 100
81 101 115
81 101 115
81 101 115
83 113 128
85 116 133
83 113 128
79 115 132
77 115 131
75 117 131
75 117 131
75 117 131
75 117 131
73 118 135
72 117 135
72 117 136
72 117 138
72 117 138
72 117 138
72 117 138
72 117 138
72 117 138
72 117 138
72 117 138
72 117 138
72 117 138
72 117 138
72 117 138
73 117 138
74 116 138
75 116 137
76 116 136
76 116 136
76 116 136
76 116 136
76 116 136
76 116 136
76 116 136
76 116 136
76 116 136
76 116 136
76 116 136
76 116 136
76 116 136
76 116 136
75 116 137
76 115 138
74 115 139
74 114 140
77 116 142
82 118 141
79 113 135
77 111 130
89 118 136
93 116 131
68 87 100
24 35 46
0 12 19
0 12 19
0 12 19
1 6 12
1 6 12
0 1 13
14 29 40
68 87 100
99 127 141
97 124 139
85 113 132
91 117 133
95 118 134
93 116 131
90 113 128
90 113 128
90 113 128
90 113 128
90 113 128
95 118 134
93 116 131
81 101 115
53 72 83
23 41 52
0 12 19
0 6 13
0 12 19
2 10 15
1 1 8
0 1 6
0 3 5
1 4 5
1 3 2
4 2 0
3 4 2
3 4 2
5 4 5
3 4 2
3 1 0
1 0 0
0 0 1
0 0 2
0 0 2
0 0 2
0 0 2
0 0 2
0 0 2
0 0 2
0 0 2
0 0 2
0 0 2
0 0 2
0 0 2
0 0 2
0 0 1
0 0 0
0 0 0
0 0 0
0 0 0
0 0 0
0 0 0
0 0 0
0 0 0
0 0 0
0 0 0
0 0 0
0 0 0
0 0 0
0 0 0
0 0 0
0 0 0
0 1 0
0 1 0
0 1 0
0 1 0
0 1 0
0 1 0
0 1 0
0 1 0
0 1 0
0 1 0
0 1 0
0 1 0
0 1 0
1 2 1
0 0 0
0 0 0
3 4 6
6 12 17
12 20 29
6 12 17
1 4 10
0 0 5
0 1 6
6 12 17
24 35 46
53 72 83
79 97 109
81 106 120
81 106 120
81 106 120
83 113 128
85 113 132
81 110 128
79 113 132
79 114 134
80 115 137
80 115 137
79 114 138
77 114 138
77 114 138
77 114 138
77 114 140
78 115 139
78 115 139
77 114 138
77 114 138
76 115 138
76 115 138
76 115 138
76 115 138
75 116 138
74 116 138
74 116 138
74 116 138
73 116 139
72 117 138
72 117 138
72 117 138
72 117 138
72 117 138
72 117 138
72 117 138
72 117 138
72 117 138
72 117 138
72 117 138
72 117 138
74 116 136
74 116 136
74 116 136
74 116 136
74 116 136
74 116 136
74 116 136
74 116 136
74 116 136
74 116 136
74 116 136
74 116 136
74 116 136
74 116 136
74 116 136
74 116 136
74 116 136
74 116 136
74 116 136
74 116 136
74 116 136
74 116 136
74 116 136
74 116 136
74 116 136
74 116 136
74 116 136
74 116 136
74 116 136
74 116 136
74 116 136
75 116 134
77 116 134
79 115 132
89 120 137
97 124 139
81 101 115
39 51 61
0 0 9
0 0 0
2 1 3
3 4 6
0 2 1
0 3 0
0 3 2
0 2 3
0 1 6
1 1 8
0 1 6
0 1 6
0 2 4
0 2 2
0 2 1
0 2 1
0 2 1
0 2 1
0 2 1
0 2 1
0 2 1
0 2 1
0 2 1
0 2 1
0 2 1
0 2 1
0 2 1
0 2 1
0 1 1
0 0 2
0 0 2
0 0 2
0 0 2
0 0 2
0 0 2
0 0 2
0 0 2
0 0 2
0 0 2
0 0 2
0 0 2
0 0 2
0 0 2
0 0 2
0 0 2
0 0 1
0 0 0
0 0 0
0 0 0
0 0 0
0 0 0
0 0 0
0 0 0
0 0 0
0 0 0
0 0 0
0 0 0
0 0 1
0 0 2
0 0 2
0 0 3
0 4 9
2 6 12
0 1 10
0 1 10
6 12 17
24 35 46
47 64 75
81 101 115
93 116 131
91 117 133
82 113 130
82 115 132
82 115 132
79 115 135
77 117 135
75 118 137
75 118 137
73 117 138
74 116 138
74 116 138
74 116 138
74 116 138
74 116 138
74 116 138
74 116 138
75 116 137
76 116 136
76 116 136
76 116 136
76 116 136
76 116 136
76 116 136
76 116 136
76 116 136
77 115 134
77 115 134
77 115 134
77 115 134
77 115 134
77 115 134
77 115 134
77 115 134
79 114 134
79 114 134
79 114 134
79 114 134
77 115 134
77 115 134
77 115 134
77 115 134
77 115 134
76 116 136
76 116 136
76 116 136
75 116 136
74 116 136
74 116 136
74 116 136
75 116 137
76 115 138
76 115 138
76 115 138
76 115 138
76 115 138
76 115 138
76 115 138
76 115 138
77 114 138
77 114 138
77 114 138
77 114 138
77 114 138
77 114 138
77 114 138
77 114 138
79 114 138
79 114 138
79 114 138
79 114 138
79 114 138
77 114 138
77 114 138
77 114 138
77 114 138
76 115 138
76 115 138
76 115 138
76 115 138
74 116 138
74 116 138
74 116 138
74 116 138
74 116 138
74 116 138
74 116 138
74 116 138
74 116 138
74 116 138
74 116 138
75 116 138
75 116 139
77 116 139
78 115 139
80 115 137
83 113 135
85 113 132
90 116 132
90 113 128
81 101 115
62 77 90
31 43 53
6 12 17
0 0 2
0 0 2
5 4 5
4 1 2
3 0 1
1 1 2
0 2 3
0 2 3
0 2 3
0 2 3
0 2 3
0 2 3
0 2 3
0 2 3
0 2 3
0 2 3
0 2 3
0 2 3
0 2 3
0 2 3
0 2 3
0 1 1
0 0 0
0 0 0
0 0 0
0 0 0
0 0 0
0 0 0
0 0 0
0 0 0
0 0 0
0 0 0
0 0 0
0 0 0
0 0 0
0 0 0
0 0 0
0 0 0
0 0 0
0 0 0
0 0 0
0 0 0
0 0 0
0 0 0
0 0 0
0 0 0
0 0 0
0 0 0
0 0 0
0 0 0
0 0 0
0 0 0
0 0 0
0 0 0
0 0 0
0 2 1
0 2 1
0 2 1
0 2 1
0 2 1
0 2 1
0 2 1
0 2 1
0 2 1
0 1 0
0 1 0
0 1 0
0 1 1
0 2 4
3 4 6
0 4 9
0 0 4
0 0 6
12 20 29
39 51 61
62 77 90
81 106 120
90 113 128
90 113 128
83 113 128
83 113 128
82 115 132
77 115 131
75 117 131
75 117 131
75 117 131
75 117 131
73 118 135
72 117 135
72 117 136
72 117 138
72 117 138
72 117 138
72 117 138
72 117 138
72 117 138
72 117 138
72 117 138
72 117 138
72 117 138
72 117 138
72 117 138
73 117 138
74 116 138
75 116 137
76 116 136
76 116 136
76 116 136
76 116 136
76 116 136
76 116 136
76 116 136
76 116 136
76 116 136
76 116 136
76 116 136
76 116 136
76 116 136
76 116 136
75 116 137
76 115 138
76 115 140
74 114 140
75 118 142
78 115 142
75 113 134
77 111 130
89 118 136
91 117 133
70 92 106
31 51 61
14 29 40
4 17 26
2 10 15
1 6 12
1 6 12
0 1 13
14 29 40
70 92 106
99 127 141
99 127 141
85 113 132
84 109 126
81 106 120
81 106 120
88 109 125
90 113 128
93 116 131
93 116 131
90 113 128
88 109 125
79 97 109
53 72 83
31 43 53
14 29 40
4 17 26
0 8 14
0 4 9
0 4 9
0 1 6
0 1 6
1 4 5
3 4 6
3 4 2
4 2 0
7 1 0
7 1 0
7 1 0
4 2 0
4 2 0
2 0 0
0 0 1
0 0 2
0 0 2
0 0 2
0 0 2
0 0 2
0 0 2
0 0 2
0 0 2
0 0 2
0 0 2
0 0 2
0 0 2
0 0 2
0 0 1
0 0 0
0 0 0
0 0 0
0 0 0
0 0 0
0 0 0
0 0 0
0 0 0
0 0 0
0 0 0
0 0 0
0 0 0
0 0 0
0 0 0
0 0 0
0 0 0
0 1 0
0 1 0
0 1 0
0 1 0
0 1 0
0 1 0
0 1 0
0 1 0
0 1 0
0 1 0
0 1 0
0 1 0
0 1 0
0 1 0
0 1 0
0 0 1
1 2 3
2 6 12
2 10 15
2 10 15
1 6 12
0 1 6
0 12 19
24 35 46
53 72 83
70 92 106
81 106 120
88 109 125
90 113 128
85 113 132
85 116 133
85 116 133
82 115 132
79 113 135
79 114 136
79 114 136
79 114 136
79 114 136
77 114 138
77 114 138
77 114 138
77 114 138
77 114 138
77 114 138
77 114 138
77 114 138
76 115 138
76 115 138
76 115 138
76 115 138
75 116 138
74 116 138
74 116 138
74 116 138
73 116 139
72 117 138
72 117 138
72 117 138
72 117 138
72 117 138
72 117 138
72 117 138
72 117 138
72 117 138
72 117 138
72 117 138
72 117 138
74 116 136
74 116 136
74 116 136
74 116 136
74 116 136
74 116 136
74 116 136
74 116 136
74 116 136
74 116 136
74 116 136
74 116 136
74 116 136
74 116 136
74 116 136
74 116 136
74 116 136
74 116 136
74 116 136
74 116 136
74 116 136
74 116 136
74 116 136
74 116 136
74 116 136
74 116 136
74 116 136
74 116 136
74 116 136
74 116 136
74 116 136
75 116 134
77 116 134
79 115 132
89 120 137
97 124 139
81 101 115
39 51 61
0 0 9
0 0 0
2 1 3
3 4 6
0 2 1
0 3 0
0 3 2
0 2 3
0 1 6
1 1 8
0 1 6
0 1 6
0 2 4
0 2 2
0 2 1
0 2 1
0 2 1
0 2 1
0 2 1
0 2 1
0 2 1
0 2 1
0 2 1
0 2 1
0 2 1
0 2 1
0 2 1
0 2 1
0 1 1
0 0 2
0 0 2
0 0 2
0 0 2
0 0 2
0 0 2
0 0 2
0 0 2
0 0 2
0 0 2
0 0 2
0 0 2
0 0 2
0 0 2
0 0 2
0 0 2
0 0 1
0 0 0
0 0 0
0 0 0
0 0 0
0 0 0
0 0 0
0 0 0
0 0 0
0 0 0
0 0 0
0 0 0
0 0 1
0 0 2
0 0 2
0 0 3
0 4 9
2 6 12
0 1 10
0 1 10
6 12 17
24 35 46
47 64 75
81 101 115
93 116 131
91 117 133
82 113 130
82 115 132
82 115 132
79 115 135
77 117 135
75 118 137
75 118 137
73 117 138
74 116 138
74 116 138
74 116 138
74 116 138
74 116 138
74 116 138
74 116 138
75 116 137
76 116 136
76 116 136
76 116 136
76 116 136
76 116 136
76 116 136
76 116 136
76 116 136
77 115 134
77 115 134
77 115 134
77 115 134
77 115 134
77 115 134
77 115 134
77 115 134
79 114 134
79 114 134
79 114 134
79 114 134
77 115 134
77 115 134
77 115 134
77 115 134
77 115 134
76 116 136
76 116 136
76 116 136
75 116 136
74 116 136
74 116 136
74 116 136
75 116 137
76 115 138
76 115 138
76 115 138
76 115 138
76 115 138
76 115 138
76 115 138
76 115 138
77 114 138
77 114 138
77 114 138
77 114 138
77 114 138
77 114 138
77 114 138
77 114 138
79 114 138
79 114 138
79 114 138
79 114 138
79 114 138
77 114 138
77 114 138
77 114 138
77 114 138
76 115 138
76 115 138
76 115 138
76 115 138
74 116 138
74 116 138
74 116 138
74 116 138
74 116 138
74 116 138
74 116 138
74 116 138
74 116 138
74 116 138
75 116 138
76 115 138
77 115 139
78 115 139
80 115 140
82 113 136
83 113 135
85 113 132
90 116 132
90 113 128
81 101 115
62 77 90
31 43 53
6 12 17
0 0 3
0 0 2
5 4 5
4 1 2
3 0 1
1 1 2
0 2 3
0 2 3
0 2 3
0 2 3
0 2 3
0 2 3
0 2 3
0 2 3
0 2 3
0 2 3
0 2 3
0 2 3
0 2 3
0 2 3
0 2 3
0 1 1
0 0 0
0 0 0
0 0 0
0 0 0
0 0 0
0 0 0
0 0 0
0 0 0
0 0 0
0 0 0
0 0 0
0 0 0
0 0 0
0 0 0
0 0 0
0 0 0
0 0 0
0 0 0
0 0 0
0 0 0
0 0 0
0 0 0
0 0 0
0 0 0
0 0 0
0 0 0
0 0 0
0 0 0
0 0 0
0 0 0
0 0 0
0 0 0
0 0 0
0 2 1
0 2 1
0 2 1
0 2 1
0 2 1
0 2 1
0 2 1
0 2 1
0 2 1
0 2 1
0 2 1
0 2 1
0 2 2
0 2 3
0 2 4
0 1 6
1 1 5
0 1 6
0 1 6
4 17 26
47 64 75
88 109 125
97 121 136
90 113 128
81 106 120
83 113 128
85 116 133
83 113 128
77 115 131
75 117 131
75 117 131
75 117 131
73 118 135
72 117 135
72 117 136
72 117 138
72 117 138
72 117 138
72 117 138
72 117 138
72 117 138
72 117 138
72 117 138
72 117 138
72 117 138
72 117 138
72 117 138
73 117 138
74 116 138
75 116 137
76 116 136
76 116 136
76 116 136
76 116 136
76 116 136
76 116 136
76 116 136
76 116 136
76 116 136
76 116 136
76 116 136
76 116 136
76 116 136
76 116 136
76 115 135
76 115 138
77 116 142
75 118 142
74 114 140
72 113 134
76 114 136
82 115 136
89 120 137
85 113 132
71 97 112
53 72 83
23 41 52
4 17 26
0 4 9
0 4 9
1 4 10
0 1 13
14 29 40
70 92 106
99 127 141
99 127 141
85 113 132
81 101 115
71 97 112
81 101 115
88 109 125
93 116 131
95 118 134
95 118 134
88 109 125
79 97 109
53 72 83
31 43 53
12 20 29
4 17 26
4 17 26
6 12 17
1 4 10
0 1 6
0 4 9
0 4 9
3 4 6
3 4 6
3 2 1
4 2 0
7 1 0
7 1 0
7 1 0
4 2 0
4 2 0
2 0 0
0 0 1
0 0 2
0 0 2
0 0 2
0 0 2
0 0 2
0 0 2
0 0 2
0 0 2
0 0 2
0 0 2
0 0 2
0 0 2
0 0 2
0 0 1
0 0 0
0 0 0
0 0 0
0 0 0
0 0 0
0 0 0
0 0 0
0 0 0
0 0 0
0 0 0
0 0 0
0 0 0
0 0 0
0 0 0
0 0 0
0 0 0
0 1 0
0 1 0
0 1 0
0 1 0
0 1 0
0 1 0
0 1 0
0 1 0
0 1 0
0 1 0
0 1 0
0 1 0
0 1 0
0 1 0
0 1 1
0 0 2
0 2 3
0 4 5
0 3 5
0 3 5
0 4 9
6 12 17
23 29 39
47 64 75
79 97 109
88 109 125
88 109 125
90 113 128
85 113 132
85 116 133
83 113 135
82 115 136
82 113 136
79 113 135
79 114 136
79 114 134
79 114 136
79 114 136
77 115 137
77 115 137
77 115 137
77 115 137
77 115 137
77 115 137
77 115 137
77 115 137
77 115 137
77 115 137
77 115 137
75 116 137
75 116 138
74 116 138
74 116 138
74 116 138
73 116 139
72 117 138
72 117 138
72 117 138
72 117 138
72 117 138
72 117 138
72 117 138
72 117 138
72 117 138
72 117 138
72 117 138
72 117 138
74 116 136
74 116 136
74 116 136
74 116 136
74 116 136
74 116 136
74 116 136
74 116 136
74 116 136
74 116 136
74 116 136
74 116 136
74 116 136
74 116 136
74 116 136
74 116 136
74 116 136
74 116 136
74 116 136
74 116 136
74 116 136
74 116 136
74 116 136
74 116 136
74 116 136
74 116 136
74 116 136
74 116 136
74 116 136
74 116 136
74 116 136
75 116 134
77 116 134
79 115 132
89 120 137
97 124 139
81 101 115
39 51 61
0 0 9
0 0 0
2 1 3
3 4 6
0 2 1
0 3 0
0 3 2
0 2 3
0 1 6
0 1 6
0 1 6
0 1 5
0 2 4
0 2 2
0 2 1
0 2 1
0 2 1
0 2 1
0 2 1
0 2 1
0 2 1
0 2 1
0 2 1
0 2 1
0 2 1
0 2 1
0 2 1
0 2 1
0 1 1
0 0 2
0 0 2
0 0 2
0 0 2
0 0 2
0 0 2
0 0 2
0 0 2
0 0 2
0 0 2
0 0 2
0 0 2
0 0 2
0 0 2
0 0 2
0 0 2
0 0 1
0 0 0
0 0 0
0 0 0
0 0 0
0 0 0
0 0 0
0 0 0
0 0 0
0 0 0
0 0 0
0 0 0
0 0 1
0 0 2
0 0 2
0 0 3
0 4 9
2 6 12
0 1 10
0 0 9
2 10 15
24 35 46
47 64 75
81 101 115
93 116 131
90 116 132
83 113 128
82 115 132
82 115 132
79 115 135
77 117 135
75 118 137
75 118 137
73 117 138
74 116 138
74 116 138
74 116 138
74 116 138
74 116 138
74 116 138
74 116 138
75 116 137
76 116 136
76 116 136
76 116 136
76 116 136
76 116 136
76 116 136
76 116 136
76 116 136
77 115 134
77 115 134
77 115 134
77 115 134
77 115 134
77 115 134
77 115 134
77 115 134
79 114 134
79 114 134
79 114 134
79 114 134
77 115 134
77 115 134
77 115 134
77 115 134
77 115 134
76 116 136
76 116 136
76 116 136
75 116 136
74 116 136
74 116 136
74 116 136
75 116 137
76 115 138
76 115 138
76 115 138
76 115 138
76 115 138
76 115 138
76 115 138
76 115 138
77 114 138
77 114 138
77 114 138
77 114 138
77 114 138
77 114 138
77 114 138
77 114 138
79 114 138
79 114 138
79 114 138
79 114 138
79 114 138
77 114 138
77 114 138
77 114 138
77 114 138
76 115 138
76 115 138
76 115 138
76 115 138
74 116 138
74 116 138
74 116 138
74 116 138
74 116 138
74 116 138
74 116 138
74 116 138
74 116 138
74 116 138
75 116 138
76 115 138
77 115 139
78 115 139
80 115 140
82 113 136
83 113 135
85 113 132
90 116 132
90 113 128
81 101 115
62 77 90
31 43 53
6 12 17
0 0 3
0 0 3
5 4 5
4 1 2
3 2 1
1 1 2
0 2 3
0 2 3
0 2 3
0 2 3
0 2 3
0 2 3
0 2 3
0 2 3
0 2 3
0 2 3
0 2 3
0 2 3
0 2 3
0 2 3
0 2 3
0 1 1
0 0 0
0 0 0
0 0 0
0 0 0
0 0 0
0 0 0
0 0 0
0 0 0
0 0 0
0 0 0
0 0 0
0 0 0
0 0 0
0 0 0
0 0 0
0 0 0
0 0 0
0 0 0
0 0 0
0 0 0
0 0 0
0 0 0
0 0 0
0 0 0
0 0 0
0 0 0
0 0 0
0 0 0
0 0 0
0 0 0
0 0 0
0 0 0
0 0 0
0 2 1
0 2 1
0 2 1
0 2 1
0 2 1
0 2 1
0 2 1
0 2 1
0 2 1
0 2 1
0 2 1
0 2 1
0 2 2
0 2 2
0 2 3
0 2 4
1 4 10
5 6 9
0 0 2
0 4 9
31 43 53
79 97 109
93 116 131
88 109 125
81 106 120
83 113 128
85 116 133
83 113 128
77 115 131
75 117 131
75 117 131
75 117 131
73 118 135
72 117 135
72 117 136
72 117 138
72 117 138
72 117 138
72 117 138
72 117 138
72 117 138
72 117 138
72 117 138
72 117 138
72 117 138
72 117 138
72 117 138
73 117 138
74 116 138
75 116 137
76 116 136
76 116 136
76 116 136
76 116 136
76 116 136
76 116 136
76 116 136
76 116 136
76 116 136
76 116 136
76 116 136
76 116 136
76 116 136
76 116 136
76 115 135
75 116 138
77 116 142
75 118 142
74 114 140
71 110 131
76 115 138
86 121 140
89 120 137
81 110 128
81 101 115
68 87 100
39 51 61
12 20 29
0 2 9
0 1 6
1 4 10
0 0 12
14 29 40
70 92 106
99 127 141
99 127 141
90 113 128
81 101 115
81 101 115
81 101 115
88 109 125
93 116 131
93 116 131
88 109 125
79 97 109
53 72 83
31 43 53
12 20 29
1 4 10
2 6 12
6 12 17
6 12 17
1 4 10
0 1 6
0 4 9
1 4 10
3 4 6
3 4 2
4 2 0
4 2 0
7 1 0
7 1 0
7 1 0
7 1 0
4 2 0
2 0 0
0 0 1
0 0 2
0 0 2
0 0 2
0 0 2
0 0 2
0 0 2
0 0 2
0 0 2
0 0 2
0 0 2
0 0 2
0 0 2
0 0 2
0 0 1
0 0 0
0 0 0
0 0 0
0 0 0
0 0 0
0 0 0
0 0 0
0 0 0
0 0 0
0 0 0
0 0 0
0 0 0
0 0 0
0 0 0
0 0 0
0 0 0
1 1 0
1 2 0
1 2 0
1 2 0
1 2 0
1 2 0
1 2 0
1 2 0
1 2 0
0 1 0
0 1 0
0 1 0
0 1 0
0 1 1
0 1 3
0 1 3
0 2 4
1 4 10
0 1 6
0 1 5
0 12 19
24 35 46
47 64 75
70 92 106
88 109 125
93 116 131
90 113 128
85 113 132
85 113 132
83 113 135
83 113 135
82 113 136
79 113 135
79 113 135
79 113 135
79 114 134
77 115 136
77 115 136
77 115 136
77 115 136
76 116 136
76 116 136
76 116 136
76 116 136
76 116 136
76 116 136
76 116 136
76 116 136
75 116 136
74 116 136
75 116 137
74 116 138
74 116 138
74 116 138
73 116 139
72 117 138
72 117 138
72 117 138
72 117 138
72 117 138
72 117 138
72 117 138
72 117 138
72 117 138
72 117 138
72 117 138
72 117 138
74 116 136
74 116 136
74 116 136
74 116 136
74 116 136
74 116 136
74 116 136
74 116 136
74 116 136
74 116 136
74 116 136
74 116 136
74 116 136
74 116 136
74 116 136
74 116 136
74 116 136
74 116 136
74 116 136
74 116 136
74 116 136
74 116 136
74 116 136
74 116 136
74 116 136
74 116 136
74 116 136
74 116 136
74 116 136
74 116 136
74 116 136
75 116 134
77 116 134
79 115 132
89 120 137
97 124 139
81 101 115
39 51 61
0 0 9
0 0 0
2 0 2
3 4 2
0 2 0
0 3 0
0 3 2
0 2 3
0 1 5
0 1 6
0 1 5
0 1 4
0 2 3
0 2 2
0 2 1
0 2 1
0 2 1
0 2 1
0 2 1
0 2 1
0 2 1
0 2 1
0 2 1
0 2 1
0 2 1
0 2 1
0 2 1
0 2 1
0 1 1
0 0 2
0 0 2
0 0 2
0 0 2
0 0 2
0 0 2
0 0 2
0 0 2
0 0 2
0 0 2
0 0 2
0 0 2
0 0 2
0 0 2
0 0 2
0 0 2
0 0 1
0 0 0
0 0 0
0 0 0
0 0 0
0 0 0
0 0 0
0 0 0
0 0 0
0 0 0
0 0 0
0 0 0
0 0 1
0 0 2
0 0 2
0 0 4
0 4 9
2 6 12
1 1 8
0 0 9
2 10 15
24 35 46
47 64 75
79 97 109
93 116 131
90 116 132
83 113 128
82 113 130
82 115 132
79 115 135
77 117 135
75 118 137
75 118 137
73 117 138
74 116 138
74 116 138
74 116 138
74 116 138
74 116 138
74 116 138
74 116 138
75 116 137
76 116 136
76 116 136
76 116 136
76 116 136
76 116 136
76 116 136
76 116 136
76 116 136
77 115 134
77 115 134
77 115 134
77 115 134
77 115 134
77 115 134
77 115 134
77 115 134
79 114 134
79 114 134
79 114 134
79 114 134
77 115 134
77 115 134
77 115 134
77 115 134
77 115 134
76 116 136
76 116 136
76 116 136
75 116 136
74 116 136
74 116 136
74 116 136
75 116 137
76 115 138
76 115 138
76 115 138
76 115 138
76 115 138
76 115 138
76 115 138
76 115 138
77 114 138
77 114 138
77 114 138
77 114 138
77 114 138
77 114 138
77 114 138
77 114 138
79 114 138
79 114 138
79 114 138
79 114 138
79 114 138
77 114 138
77 114 138
77 114 138
77 114 138
76 115 138
76 115 138
76 115 138
76 115 138
74 116 138
74 116 138
74 116 138
74 116 138
74 116 138
74 116 138
74 116 138
74 116 138
74 116 138
74 116 138
75 116 138
76 115 138
77 115 139
78 115 139
80 115 140
82 113 136
83 113 135
85 113 132
90 116 132
90 113 128
81 101 115
62 77 90
31 43 53
6 12 17
0 0 4
0 0 4
5 4 5
5 4 5
4 1 2
2 1 2
1 1 3
0 2 3
0 2 3
0 2 3
0 2 3
0 2 3
0 2 3
0 2 3
0 2 3
0 2 3
0 2 3
0 2 3
0 2 3
0 2 3
0 2 3
0 1 1
0 0 0
0 0 0
0 0 0
0 0 0
0 0 0
0 0 0
0 0 0
0 0 0
0 0 0
0 0 0
0 0 0
0 0 0
0 0 0
0 0 0
0 0 0
0 0 0
0 0 0
0 0 0
0 0 0
0 0 0
0 0 0
0 0 0
0 0 0
0 0 0
0 0 0
0 0 0
0 0 0
0 0 0
0 0 0
0 0 0
0 0 0
0 0 0
0 0 0
0 2 1
0 2 1
0 2 1
0 2 1
0 2 1
0 2 1
0 2 1
0 2 1
0 2 1
0 2 1
0 2 1
0 2 1
0 2 1
0 2 1
0 2 1
0 2 3
3 4 6
5 6 9
1 1 8
2 6 12
23 29 39
53 72 83
70 92 106
79 97 109
81 101 115
88 109 125
83 113 128
83 113 128
79 113 127
77 115 131
75 117 131
75 117 131
73 118 135
72 117 135
72 117 136
72 117 138
72 117 138
72 117 138
72 117 138
72 117 138
72 117 138
72 117 138
72 117 138
72 117 138
72 117 138
72 117 138
72 117 138
73 117 138
74 116 138
75 116 137
76 116 136
76 116 136
76 116 136
76 116 136
76 116 136
76 116 136
76 116 136
76 116 136
76 116 136
76 116 136
76 116 136
76 116 136
76 116 136
76 116 136
75 116 136
74 116 138
75 118 142
75 118 142
74 114 140
72 113 134
74 114 140
82 120 140
83 118 136
81 110 128
83 113 128
81 101 115
53 72 83
14 29 40
1 1 8
0 3 5
2 6 12
0 1 10
14 29 40
68 87 100
99 127 141
99 127 141
90 113 128
88 109 125
88 109 125
90 113 128
93 116 131
93 116 131
88 109 125
79 97 109
53 72 83
39 51 61
12 20 29
2 6 12
0 0 5
2 4 11
6 12 17
2 10 15
0 4 9
0 1 6
0 4 9
3 4 6
3 4 6
3 2 1
4 2 0
4 2 0
7 1 0
7 1 0
7 1 0
7 1 0
4 2 0
2 0 0
0 0 1
0 0 2
0 0 2
0 0 2
0 0 2
0 0 2
0 0 2
0 0 2
0 0 2
0 0 2
0 0 2
0 0 2
0 0 2
0 0 2
0 0 1
0 0 0
0 0 0
0 0 0
0 0 0
0 0 0
0 0 0
0 0 0
0 0 0
0 0 0
0 0 0
0 0 0
0 0 0
0 0 0
0 0 0
0 0 0
0 0 0
1 1 0
1 2 0
1 2 0
1 2 0
1 2 0
1 2 0
1 2 0
1 2 0
1 2 0
0 1 0
0 1 0
0 0 0
0 0 0
0 0 1
0 1 4
1 4 5
0 2 4
0 1 5
0 1 6
6 12 17
24 35 46
47 64 75
70 92 106
88 109 125
90 116 132
90 116 132
85 113 132
82 113 130
85 113 132
83 113 135
79 113 132
79 113 135
79 113 135
79 113 135
79 114 134
78 116 135
77 115 136
77 115 136
77 115 136
77 115 136
76 116 136
76 116 136
76 116 136
76 116 136
76 116 136
76 116 136
76 116 136
75 116 136
75 116 136
74 116 136
75 116 137
74 116 138
74 116 138
74 116 138
73 116 139
72 117 138
72 117 138
72 117 138
72 117 138
72 117 138
72 117 138
72 117 138
72 117 138
72 117 138
72 117 138
72 117 138
72 117 138
74 116 136
74 116 136
74 116 136
74 116 136
74 116 136
74 116 136
74 116 136
74 116 136
74 116 136
74 116 136
74 116 136
74 116 136
74 116 136
74 116 136
74 116 136
74 116 136
74 116 136
74 116 136
74 116 136
74 116 136
74 116 136
74 116 136
74 116 136
74 116 136
74 116 136
74 116 136
74 116 136
74 116 136
74 116 136
74 116 136
74 116 136
75 116 134
77 116 134
79 115 132
89 120 137
97 124 139
81 101 115
39 51 61
0 0 9
0 0 0
2 0 2
3 4 2
0 2 0
0 3 0
0 3 2
0 2 3
0 1 5
0 1 6
0 1 5
0 1 4
0 2 3
0 2 2
0 2 1
0 2 1
0 2 1
0 2 1
0 2 1
0 2 1
0 2 1
0 2 1
0 2 1
0 2 1
0 2 1
0 2 1
0 2 1
0 2 1
0 1 1
0 0 2
0 0 2
0 0 2
0 0 2
0 0 2
0 0 2
0 0 2
0 0 2
0 0 2
0 0 2
0 0 2
0 0 2
0 0 2
0 0 2
0 0 2
0 0 2
0 0 1
0 0 0
0 0 0
0 0 0
0 0 0
0 0 0
0 0 0
0 0 0
0 0 0
0 0 0
0 0 0
0 0 0
0 0 1
0 0 2
0 0 2
0 0 4
1 1 8
2 6 12
1 1 8
0 0 9
2 10 15
24 35 46
47 64 75
79 97 109
93 116 131
90 116 132
83 113 128
82 113 130
79 113 132
78 115 132
75 116 134
74 117 135
74 117 135
73 115 135
73 115 135
73 115 135
73 115 135
73 115 135
73 115 135
73 115 135
73 115 135
73 115 135
75 116 134
75 116 134
75 113 134
75 113 134
75 113 134
75 113 134
75 113 134
75 113 134
76 113 132
76 113 132
76 113 132
76 113 132
76 113 132
76 113 132
76 113 132
76 113 132
76 113 132
79 113 132
79 113 132
79 113 132
76 113 132
76 113 132
76 113 132
76 113 132
76 113 132
75 113 134
75 113 134
75 116 134
73 115 135
73 115 135
73 115 135
73 115 135
73 115 135
76 114 136
76 114 136
76 114 136
76 114 136
76 114 136
76 114 136
76 114 136
76 114 136
76 112 136
76 112 136
76 112 136
76 112 136
76 112 136
76 112 136
76 112 136
76 112 136
76 112 136
79 113 135
79 113 135
79 113 135
76 112 136
76 112 136
76 112 136
76 112 136
76 112 136
76 114 136
76 114 136
76 114 136
76 114 136
73 115 135
73 115 135
73 115 135
73 115 135
73 115 135
73 115 135
73 115 135
73 115 135
73 115 135
73 115 135
73 115 135
76 114 136
76 114 136
77 114 138
79 114 138
82 113 136
82 113 130
83 113 128
90 116 132
90 113 128
81 101 115
62 77 90
31 43 53
6 12 17
0 0 4
0 0 4
5 6 9
5 4 5
4 1 2
2 1 2
1 1 3
0 1 3
0 1 3
0 1 3
0 1 3
0 1 3
0 1 3
0 2 3
0 2 3
0 2 3
0 2 3
0 2 3
0 2 3
0 2 3
0 2 3
0 1 1
0 0 0
0 0 0
0 0 0
0 0 0
0 0 0
0 0 0
0 0 0
0 0 0
0 0 0
0 0 0
0 0 0
0 0 0
0 0 0
0 0 0
0 0 0
0 0 0
0 0 0
0 0 0
0 0 0
0 0 0
0 0 0
0 0 0
0 0 0
0 0 0
0 0 0
0 0 0
0 0 0
0 0 0
0 0 0
0 0 0
0 0 0
0 0 0
0 0 0
0 2 1
0 2 1
0 2 1
0 2 1
0 2 1
0 2 1
0 2 1
0 2 1
0 2 1
0 2 1
0 2 1
0 2 1
0 2 1
0 2 1
0 2 1
0 2 2
1 4 5
5 6 9
5 6 9
6 12 17
12 20 29
31 43 53
53 72 83
79 97 109
90 113 128
90 113 128
83 113 128
83 113 128
79 113 127
77 115 131
75 117 131
75 117 131
73 118 135
72 117 135
72 117 136
72 117 138
72 117 138
72 117 138
72 117 138
72 117 138
72 117 138
72 117 138
72 117 138
72 117 138
72 117 138
72 117 138
72 117 138
73 117 138
74 116 138
75 116 137
76 116 136
76 116 136
76 116 136
76 116 136
76 116 136
76 116 136
76 116 136
76 116 136
76 116 136
76 116 136
76 116 136
76 116 136
76 116 136
76 116 136
75 116 136
74 116 138
73 117 141
75 118 142
73 117 141
74 114 140
76 115 140
78 116 138
79 113 132
81 110 128
91 117 133
90 113 128
62 77 90
14 29 40
0 0 6
0 4 9
2 10 15
0 0 9
14 29 40
55 79 91
97 124 139
96 123 138
88 109 125
93 116 131
97 121 136
97 121 136
97 121 136
90 113 128
79 97 109
53 72 83
31 43 53
12 20 29
2 6 12
0 1 6
0 3 5
1 4 10
1 4 10
1 1 8
0 1 5
1 1 5
3 4 6
3 4 6
3 4 2
4 2 0
4 2 0
7 1 0
7 1 0
7 1 0
7 1 0
7 1 0
4 2 0
2 0 0
0 0 1
0 0 2
0 0 2
0 0 2
0 0 2
0 0 2
0 0 2
0 0 2
0 0 2
0 0 2
0 0 2
0 0 2
0 0 2
0 0 2
0 0 1
0 0 0
0 0 0
0 0 0
0 0 0
0 0 0
0 0 0
0 0 0
0 0 0
0 0 0
0 0 0
0 0 0
0 0 0
0 0 0
0 0 0
0 0 0
0 0 0
1 1 0
1 2 0
1 2 0
1 2 0
1 2 0
1 2 0
1 2 0
0 2 0
0 3 2
1 2 1
1 1 1
0 0 0
0 0 0
0 1 1
0 2 4
5 6 9
1 1 8
0 0 6
0 12 19
23 41 52
53 72 83
70 92 106
88 109 125
91 117 133
89 118 136
90 116 132
85 113 132
85 113 132
83 113 135
83 113 135
82 113 136
82 113 136
79 114 136
79 114 138
78 115 137
78 116 137
78 116 137
78 116 137
76 116 136
76 116 136
76 116 136
76 116 136
76 116 136
76 116 136
76 116 136
76 116 136
75 116 136
74 116 136
74 116 136
74 116 136
75 116 137
74 116 138
74 116 138
74 116 138
73 116 139
72 117 138
72 117 138
72 117 138
72 117 138
72 117 138
72 117 138
72 117 138
72 117 138
72 117 138
72 117 138
72 117 138
72 117 138
74 116 136
74 116 136
74 116 136
74 116 136
74 116 136
74 116 136
74 116 136
74 116 136
74 116 136
74 116 136
74 116 136
74 116 136
74 116 136
74 116 136
74 116 136
74 116 136
74 116 136
74 116 136
74 116 136
74 116 136
74 116 136
74 116 136
74 116 136
74 116 136
74 116 136
74 116 136
74 116 136
74 116 136
74 116 136
74 116 136
74 116 136
75 116 134
77 116 134
79 114 134
89 120 137
97 124 139
81 101 115
39 51 61
0 0 7
0 0 0
2 0 2
3 4 2
0 2 0
0 3 0
0 3 0
0 2 2
0 1 5
0 1 6
0 1 5
0 1 4
0 2 3
0 2 2
0 2 1
0 2 1
0 2 1
0 2 1
0 2 1
0 2 1
0 2 1
0 2 1
0 2 1
0 2 1
0 2 1
0 2 1
0 2 1
0 2 1
0 1 1
0 0 2
0 0 2
0 0 2
0 0 2
0 0 2
0 0 2
0 0 2
0 0 2
0 0 2
0 0 2
0 0 2
0 0 2
0 0 2
0 0 2
0 0 2
0 0 2
0 0 1
0 0 0
0 0 0
0 0 0
0 0 0
0 0 0
0 0 0
0 0 0
0 0 0
0 0 0
0 0 0
0 0 0
0 0 1
0 0 2
0 0 2
0 0 2
0 1 6
1 4 10
0 1 6
0 2 9
6 12 17
24 35 46
47 64 75
79 97 109
90 113 128
90 113 128
84 109 126
81 110 128
79 113 127
77 115 131
77 115 131
75 117 131
75 117 131
76 113 132
76 113 132
76 113 132
76 113 132
76 113 132
75 113 134
75 113 134
75 113 134
76 113 132
76 113 132
76 113 132
77 111 130
77 111 130
77 111 130
77 111 130
77 111 130
77 111 130
77 111 130
77 111 130
77 111 130
77 111 130
77 111 130
77 111 130
77 111 130
77 111 130
77 111 130
77 111 130
77 111 130
77 111 130
77 111 130
77 111 130
77 111 130
77 111 130
77 111 130
77 111 130
77 111 130
77 111 130
77 111 130
77 111 130
77 111 130
77 111 130
76 113 132
75 113 134
75 113 134
76 113 132
76 113 132
76 113 132
76 113 132
76 113 132
76 113 132
76 113 132
76 113 132
76 113 132
76 113 132
76 113 132
76 113 132
76 113 132
76 113 132
77 111 130
77 111 130
77 111 130
77 111 130
77 111 130
76 113 132
76 113 132
76 113 132
76 113 132
76 113 132
76 113 132
75 113 134
75 113 134
75 113 134
75 113 134
75 113 134
75 113 134
75 113 134
75 113 134
75 113 134
75 113 134
75 113 134
75 113 134
75 113 134
75 113 134
75 113 134
79 113 135
79 113 135
82 113 130
81 110 128
84 109 126
90 113 128
88 109 125
79 97 109
62 77 90
31 43 53
6 12 17
0 0 4
0 1 5
5 6 9
5 4 5
3 0 3
1 1 2
0 0 2
0 0 2
0 0 2
0 0 2
0 0 2
0 0 2
0 0 2
0 1 3
0 2 3
0 2 3
0 2 3
0 2 3
0 2 3
0 2 3
0 2 3
0 1 1
0 0 0
0 0 0
0 0 0
0 0 0
0 0 0
0 0 0
0 0 0
0 0 0
0 0 0
0 0 0
0 0 0
0 0 0
0 0 0
0 0 0
0 0 0
0 0 0
0 0 0
0 0 0
0 0 0
0 0 0
0 0 0
0 0 0
0 0 0
0 0 0
0 0 0
0 0 0
0 0 0
0 0 0
0 0 0
0 0 0
0 0 0
0 0 0
0 0 0
0 2 1
0 2 1
0 2 1
0 2 1
0 2 1
0 2 1
0 2 1
0 2 1
0 2 1
0 2 1
0 2 1
0 2 1
0 2 1
0 2 1
1 2 1
1 1 1
1 1 2
4 1 5
5 6 9
6 8 13
2 6 12
4 17 26
39 51 61
79 97 109
95 118 134
93 116 131
88 109 125
83 113 128
83 113 128
77 115 131
75 117 131
75 117 131
75 118 134
72 117 135
73 117 136
73 117 138
73 116 139
73 116 139
73 116 139
73 116 139
73 116 139
73 116 139
73 116 139
73 116 139
73 116 139
73 116 139
73 116 139
74 116 138
74 116 138
75 116 137
76 116 136
76 116 136
76 116 136
76 116 136
76 116 136
76 116 136
76 116 136
76 116 136
76 116 136
76 116 136
76 116 136
76 116 136
76 116 136
76 116 136
75 116 137
74 116 138
73 116 139
73 116 139
75 118 142
75 119 142
77 116 140
75 113 134
77 107 124
81 110 128
96 123 138
97 121 136
68 87 100
14 29 40
1 1 8
0 4 9
6 12 17
0 1 13
14 29 40
55 79 91
95 118 134
90 116 132
88 109 125
93 116 131
99 127 141
99 127 141
93 116 131
68 87 100
47 64 75
31 43 53
12 20 29
6 8 13
0 0 6
0 2 9
1 6 12
1 6 12
0 1 6
0 0 4
0 1 4
1 1 5
1 4 5
1 4 5
3 4 2
4 2 0
4 2 0
4 2 0
7 1 0
7 1 0
7 1 0
7 1 0
4 2 0
2 0 0
0 0 1
0 0 2
0 0 2
0 0 2
0 0 2
0 0 2
0 0 2
0 0 2
0 0 2
0 0 2
0 0 2
0 0 2
0 0 2
0 0 2
0 0 1
0 0 0
0 0 0
0 0 0
0 0 0
0 0 0
0 0 0
0 0 0
0 0 0
0 0 0
0 0 0
0 0 0
0 0 0
0 0 0
1 0 0
1 0 0
1 0 0
1 1 0
1 2 0
1 2 0
1 2 0
1 2 0
1 2 0
1 2 0
0 2 0
0 3 2
1 3 2
1 4 5
1 4 5
1 4 5
1 4 10
0 1 5
0 0 3
0 0 6
6 12 17
24 35 46
53 72 83
79 97 109
90 113 128
91 117 133
93 121 136
89 118 136
85 116 133
85 113 132
83 113 135
83 113 135
82 113 136
82 115 136
80 115 137
80 115 137
78 116 137
78 116 137
78 116 137
78 116 137
78 116 137
76 116 136
76 116 136
76 116 136
76 116 136
76 116 136
76 116 136
76 116 136
76 116 136
75 116 136
74 116 136
74 116 136
74 116 136
75 116 137
74 116 138
74 116 138
74 116 138
73 116 139
72 117 138
72 117 138
72 117 138
72 117 138
72 117 138
72 117 138
72 117 138
72 117 138
72 117 138
72 117 138
72 117 138
72 117 138
74 116 136
74 116 136
74 116 136
74 116 136
74 116 136
74 116 136
74 116 136
74 116 136
74 116 136
74 116 136
74 116 136
74 116 136
74 116 136
74 116 136
74 116 136
74 116 136
74 116 136
74 116 136
74 116 136
74 116 136
74 116 136
74 116 136
74 116 136
74 116 136
74 116 136
74 116 136
74 116 136
74 116 136
74 116 136
74 116 136
74 116 136
75 116 134
77 116 134
79 114 134
89 120 137
97 124 139
81 101 115
39 51 61
0 0 7
0 0 0
2 0 2
3 4 2
0 2 0
0 3 0
0 3 0
0 2 2
0 1 5
0 1 6
0 1 5
0 1 4
0 2 3
0 2 2
0 2 1
0 2 1
0 2 1
0 2 1
0 2 1
0 2 1
0 2 1
0 2 1
0 2 1
0 2 1
0 2 1
0 2 1
0 2 1
0 2 1
0 1 1
0 0 2
0 0 2
0 0 2
0 0 2
0 0 2
0 0 2
0 0 2
0 0 2
0 0 2
0 0 2
0 0 2
0 0 2
0 0 2
0 0 2
0 0 2
0 0 2
0 0 1
0 0 0
0 0 0
0 0 0
0 0 0
0 0 0
0 0 0
0 0 0
0 0 0
0 0 0
0 0 0
0 0 0
0 0 1
0 0 2
0 0 2
0 0 2
0 2 4
1 1 8
0 1 6
0 4 12
6 12 17
24 35 46
47 64 75
81 101 115
97 121 136
97 121 136
91 117 133
89 118 136
89 120 137
89 120 137
86 121 140
86 122 140
86 122 140
86 121 140
89 120 137
86 121 140
86 121 140
89 120 137
89 120 137
89 120 137
89 120 137
89 120 137
89 120 137
89 120 137
89 120 137
89 120 137
89 120 137
89 120 137
89 120 137
89 120 137
89 120 137
89 120 137
89 120 137
89 120 137
89 120 137
89 120 137
89 120 137
89 120 137
89 120 137
89 120 137
89 120 137
89 120 137
89 120 137
89 120 137
89 120 137
89 120 137
89 120 137
89 120 137
89 120 137
89 120 137
89 120 137
89 120 137
89 120 137
89 120 137
86 121 140
89 120 137
89 120 137
89 120 137
89 120 137
89 120 137
89 120 137
89 120 137
89 120 137
89 120 137
89 120 137
89 120 137
89 120 137
89 120 137
89 120 137
89 120 137
89 120 137
89 120 137
89 120 137
89 120 137
89 120 137
89 120 137
89 120 137
89 120 137
89 120 137
89 120 137
89 120 137
89 120 137
89 120 137
89 120 137
89 120 137
89 120 137
89 120 137
89 120 137
89 120 137
89 120 137
89 120 137
89 120 137
89 120 137
89 120 137
89 120 137
89 120 137
89 120 137
89 120 137
89 120 137
93 121 136
91 117 133
93 116 131
97 121 136
95 118 134
88 109 125
62 77 90
31 43 53
6 12 17
0 0 4
0 1 5
5 6 9
3 4 6
1 1 5
1 1 2
0 0 2
0 0 2
0 0 2
0 0 2
0 0 2
0 0 2
0 0 2
0 1 3
0 2 3
0 2 3
0 2 3
0 2 3
0 2 3
0 2 3
0 2 3
0 1 1
0 0 0
0 0 0
0 0 0
0 0 0
0 0 0
0 0 0
0 0 0
0 0 0
0 0 0
0 0 0
0 0 0
0 0 0
0 0 0
0 0 0
0 0 0
0 0 0
0 0 0
0 0 0
0 0 0
0 0 0
0 0 0
0 0 0
0 0 0
0 0 0
0 0 0
0 0 0
0 0 0
0 0 0
0 0 0
0 0 0
0 0 0
0 0 0
0 0 0
0 2 1
0 2 1
0 2 1
0 2 1
0 2 1
0 2 1
0 2 1
0 2 1
0 2 1
0 2 1
0 2 1
0 2 1
0 2 1
0 2 1
1 2 1
2 1 1
1 0 0
1 0 1
5 4 5
6 8 13
0 1 6
0 6 13
24 35 46
62 77 90
81 101 115
90 113 128
90 113 128
90 113 128
83 113 128
77 115 131
77 115 131
77 117 133
75 118 134
74 117 135
75 116 134
75 116 136
75 116 138
75 116 138
75 116 138
75 116 138
75 116 138
75 116 138
75 116 138
75 116 138
75 116 138
75 116 138
75 116 138
75 116 138
74 116 138
75 116 137
76 116 136
76 116 136
76 116 136
76 116 136
76 116 136
76 116 136
76 116 136
76 116 136
76 116 136
76 116 136
76 116 136
76 116 136
76 116 136
76 116 136
75 116 137
74 116 138
71 117 138
70 117 136
75 118 142
82 118 141
77 116 137
71 110 131
77 107 124
83 113 128
96 123 138
95 118 134
68 87 100
23 41 52
6 12 17
1 6 12
2 10 15
0 4 16
14 29 40
62 77 90
93 116 131
90 113 128
81 101 115
90 113 128
97 121 136
93 116 131
79 97 109
39 51 61
12 20 29
6 8 13
1 4 10
0 1 6
0 0 5
0 1 6
0 4 9
0 3 5
0 2 4
0 1 4
0 2 4
0 2 4
1 4 5
1 2 3
3 4 2
3 4 2
4 2 0
4 2 0
7 1 0
7 1 0
7 1 0
7 1 0
4 0 0
2 0 0
0 0 0
0 0 0
0 0 0
0 0 0
0 0 0
0 0 0
0 0 0
0 0 0
0 0 0
0 0 0
0 0 0
0 0 0
0 0 0
0 0 0
0 0 0
0 0 0
0 0 0
0 0 0
0 0 0
0 0 0
0 0 0
0 0 0
0 0 0
0 0 0
0 0 0
0 0 0
0 0 0
2 1 0
2 1 0
2 1 0
2 1 0
3 1 0
3 1 0
2 1 0
1 2 0
0 3 0
3 2 0
3 2 0
1 3 2
0 3 2
0 6 5
1 6 12
2 10 15
6 12 17
6 12 17
1 1 8
0 0 0
0 4 12
24 35 46
53 72 83
71 97 112
81 110 128
93 121 136
96 123 138
96 123 138
93 121 136
89 118 136
83 113 135
82 113 136
82 115 136
82 116 140
82 116 140
80 117 140
80 117 140
78 116 138
78 116 137
78 116 137
77 117 137
77 117 135
76 115 135
75 116 134
74 117 135
74 117 135
74 116 136
74 116 136
74 116 136
74 116 136
74 116 136
74 116 136
74 116 136
74 116 136
73 117 136
72 117 136
72 117 136
72 117 136
72 117 136
72 117 136
72 117 136
72 117 136
72 117 136
72 117 138
72 117 138
72 117 138
72 117 138
72 117 138
72 117 138
72 117 138
72 117 138
74 116 136
74 116 136
74 116 136
74 116 136
74 116 136
74 116 136
74 116 136
74 116 136
74 116 136
74 116 136
74 116 136
74 116 136
74 116 136
74 116 136
74 116 136
74 116 136
74 116 136
74 116 136
74 116 136
74 116 136
74 116 136
74 116 136
74 116 136
74 116 136
74 116 136
74 116 136
74 116 136
74 116 136
74 116 136
74 116 136
74 116 136
75 116 134
77 116 134
79 115 132
89 120 137
97 124 139
81 101 115
39 51 61
0 0 7
0 0 0
2 0 0
3 4 2
0 3 0
0 3 0
0 3 0
0 3 2
0 2 3
0 1 4
0 1 5
0 1 5
0 2 3
0 2 3
0 2 3
0 2 3
0 2 3
0 2 3
0 2 3
0 2 3
0 2 3
0 2 3
0 2 3
0 2 3
0 2 3
0 2 3
0 2 3
0 2 3
0 1 1
0 0 0
0 0 0
0 0 0
0 0 0
0 0 0
0 0 0
0 0 0
0 0 0
0 0 0
0 0 0
0 0 0
0 0 0
0 0 0
0 0 0
0 0 0
0 0 0
0 0 0
0 0 0
0 0 0
0 0 0
0 0 0
0 0 0
0 0 0
0 0 0
0 0 0
0 0 0
0 0 0
0 0 0
0 0 0
0 0 0
0 0 1
0 0 2
0 1 4
1 1 5
0 0 5
0 4 12
6 12 17
23 29 39
47 64 75
79 97 109
97 121 136
97 121 136
97 121 136
97 121 136
96 123 138
96 123 138
96 123 138
96 123 138
96 123 138
96 123 138
96 123 138
97 124 139
97 124 139
97 124 139
97 124 139
97 124 139
97 124 139
97 124 139
97 124 139
97 124 139
97 124 139
97 124 139
97 124 139
96 123 138
96 123 138
96 123 138
96 123 138
96 123 138
96 123 138
96 123 138
96 123 138
96 123 138
96 123 138
96 123 138
96 123 138
96 123 138
96 123 138
96 123 138
96 123 138
96 123 138
96 123 138
96 123 138
96 123 138
96 123 138
96 123 138
97 124 139
97 124 139
97 124 139
97 124 139
97 124 139
97 124 139
96 123 138
96 123 138
97 124 139
97 124 139
97 124 139
97 124 139
97 124 139
96 123 138
96 123 138
96 123 138
96 123 138
96 123 138
96 123 138
96 123 138
96 123 138
96 123 138
97 124 139
97 124 139
97 124 139
97 124 139
97 124 139
96 123 138
96 123 138
96 123 138
96 123 138
96 123 138
96 123 138
96 123 138
96 123 138
96 123 138
96 123 138
96 123 138
96 123 138
97 124 139
97 124 139
97 124 139
97 124 139
97 124 139
97 124 139
96 123 138
96 123 138
96 123 138
97 121 136
97 121 136
97 121 136
97 121 136
95 118 134
97 121 136
97 121 136
88 109 125
68 87 100
39 51 61
6 12 17
0 0 4
0 2 4
5 6 9
0 4 5
0 1 6
0 1 4
0 0 4
0 0 4
0 0 4
0 0 3
0 0 2
0 0 2
0 0 2
0 0 2
0 0 2
0 0 2
0 0 2
0 0 2
0 0 2
0 0 2
0 0 2
0 0 1
0 0 0
0 0 0
0 0 0
0 0 0
0 0 0
0 0 0
0 0 0
0 0 0
0 0 0
0 0 0
0 0 0
0 0 0
0 0 0
0 0 0
0 0 0
0 0 0
0 0 0
0 0 0
0 0 0
0 0 0
0 0 0
0 0 0
0 0 0
0 0 0
0 0 0
0 0 0
0 0 0
0 0 0
0 0 0
0 0 0
0 0 0
0 0 0
0 0 0
0 2 1
0 2 1
0 2 1
0 2 1
0 2 1
0 2 1
0 2 1
0 2 1
0 2 1
0 2 1
0 2 1
0 2 1
0 2 1
1 1 1
2 0 1
3 0 1
2 0 1
2 0 1
4 1 5
3 4 6
0 1 6
1 6 12
4 17 26
31 43 53
62 77 90
81 106 120
95 118 134
93 116 131
83 113 128
82 115 132
83 118 136
78 117 135
77 117 135
77 117 135
75 116 134
76 115 135
76 116 136
76 116 136
76 116 136
76 116 136
76 116 136
76 116 136
76 116 136
76 116 136
76 116 136
76 116 136
76 116 136
76 116 136
76 116 136
75 116 137
76 115 138
76 115 138
76 115 138
76 115 138
76 115 138
76 115 138
76 115 138
76 115 138
76 115 138
76 115 138
76 115 138
76 115 138
75 116 137
76 116 136
75 116 136
74 116 136
72 117 135
70 117 136
72 117 135
75 118 134
75 116 134
77 111 130
79 113 127
83 113 128
93 116 131
93 116 131
79 97 109
47 64 75
23 29 39
6 8 13
0 1 6
0 1 13
14 29 40
62 77 90
95 118 134
90 113 128
81 101 115
88 109 125
90 113 128
79 97 109
47 64 75
14 29 40
0 1 6
0 0 0
0 0 3
2 1 7
0 1 6
0 1 6
0 1 6
0 1 6
0 2 4
0 2 4
0 2 4
0 2 4
1 4 5
1 2 3
3 4 2
3 4 2
4 2 0
4 2 0
4 2 0
7 1 0
7 1 0
4 2 0
3 0 0
2 0 0
0 0 0
0 0 0
0 0 0
0 0 0
0 0 0
0 0 0
0 0 0
0 0 0
0 0 0
0 0 0
0 0 0
0 0 0
0 0 0
0 0 0
0 0 0
0 0 0
0 0 0
0 0 0
0 0 0
0 0 0
0 0 0
0 0 0
0 0 0
0 0 0
0 0 0
0 0 0
0 0 0
2 1 0
3 1 0
3 1 0
3 1 0
3 1 0
3 1 0
2 1 0
1 2 0
0 3 0
3 2 0
3 2 0
1 3 2
0 3 2
0 6 5
1 6 12
6 12 17
2 10 15
2 10 15
0 4 12
6 12 17
23 29 39
47 64 75
71 97 112
79 113 132
83 118 136
89 120 137
89 120 137
89 120 137
89 120 137
89 118 136
82 115 136
82 116 140
82 116 140
80 115 140
80 115 140
80 117 140
80 117 140
78 116 138
78 116 137
78 116 137
77 117 137
77 117 135
76 115 135
75 116 134
74 117 135
74 117 135
74 116 136
74 116 136
74 116 136
74 116 136
74 116 136
74 116 136
74 116 136
74 116 136
73 117 136
72 117 136
72 117 136
72 117 136
72 117 136
72 117 136
72 117 136
72 117 136
72 117 136
72 117 138
72 117 138
72 117 138
72 117 138
72 117 138
72 117 138
72 117 138
72 117 138
74 116 136
74 116 136
74 116 136
74 116 136
74 116 136
74 116 136
74 116 136
74 116 136
74 116 136
74 116 136
74 116 136
74 116 136
74 116 136
74 116 136
74 116 136
74 116 136
74 116 136
74 116 136
74 116 136
74 116 136
74 116 136
74 116 136
74 116 136
74 116 136
74 116 136
74 116 136
74 116 136
74 116 136
74 116 136
74 116 136
74 116 136
75 116 134
77 116 134
79 115 132
89 120 137
97 124 139
81 101 115
39 51 61
0 0 7
0 0 0
2 0 0
3 4 2
0 3 0
0 3 0
0 3 0
0 3 2
0 2 3
0 1 4
0 1 5
0 1 5
0 2 3
0 2 3
0 2 3
0 2 3
0 2 3
0 2 3
0 2 3
0 2 3
0 2 3
0 2 3
0 2 3
0 2 3
0 2 3
0 2 3
0 2 3
0 2 3
0 1 1
0 0 0
0 0 0
0 0 0
0 0 0
0 0 0
0 0 0
0 0 0
0 0 0
0 0 0
0 0 0
0 0 0
0 0 0
0 0 0
0 0 0
0 0 0
0 0 0
0 0 0
0 0 0
0 0 0
0 0 0
0 0 0
0 0 0
0 0 0
0 0 0
0 0 0
0 0 0
0 0 0
0 0 0
0 0 0
0 0 0
0 0 1
0 0 2
0 1 1
1 1 3
0 0 3
0 4 9
2 10 15
14 29 40
39 51 61
62 77 90
79 97 109
81 101 115
79 97 109
79 97 109
71 97 112
71 97 112
71 97 112
71 97 112
71 97 112
71 97 112
71 97 112
71 97 112
71 97 112
79 97 109
79 97 109
79 97 109
79 97 109
79 97 109
79 97 109
79 97 109
79 97 109
79 97 109
79 97 109
79 97 109
79 97 109
79 97 109
79 97 109
79 97 109
79 97 109
79 97 109
79 97 109
79 97 109
79 97 109
79 97 109
79 97 109
71 97 112
71 97 112
71 97 112
79 97 109
79 97 109
79 97 109
79 97 109
79 97 109
79 97 109
79 97 109
79 97 109
79 97 109
79 97 109
79 97 109
79 97 109
79 97 109
79 97 109
79 97 109
79 97 109
79 97 109
79 97 109
79 97 109
79 97 109
79 97 109
79 97 109
79 97 109
79 97 109
79 97 109
79 97 109
79 97 109
79 97 109
79 97 109
79 97 109
71 97 112
71 97 112
71 97 112
79 97 109
79 97 109
79 97 109
79 97 109
79 97 109
79 97 109
79 97 109
79 97 109
79 97 109
79 97 109
79 97 109
79 97 109
79 97 109
79 97 109
79 97 109
79 97 109
79 97 109
79 97 109
79 97 109
79 97 109
79 97 109
79 97 109
79 97 109
79 97 109
79 97 109
79 97 109
79 97 109
79 97 109
79 97 109
68 87 100
47 64 75
24 35 46
6 12 17
0 1 6
0 4 5
1 6 12
0 4 5
0 1 6
0 1 4
0 0 4
0 0 4
0 0 4
0 0 3
0 0 2
0 0 2
0 0 2
0 0 2
0 0 2
0 0 2
0 0 2
0 0 2
0 0 2
0 0 2
0 0 2
0 0 1
0 0 0
0 0 0
0 0 0
0 0 0
0 0 0
0 0 0
0 0 0
0 0 0
0 0 0
0 0 0
0 0 0
0 0 0
0 0 0
0 0 0
0 0 0
0 0 0
0 0 0
0 0 0
0 0 0
0 0 0
0 0 0
0 0 0
0 0 0
0 0 0
0 0 0
0 0 0
0 0 0
0 0 0
0 0 0
0 0 0
0 0 0
0 0 0
0 0 0
0 2 1
0 2 1
0 2 1
0 2 1
0 2 1
0 2 1
0 2 1
0 2 1
0 2 1
0 2 1
0 2 1
0 2 1
0 2 1
1 1 1
2 0 1
3 0 1
3 0 1
2 0 2
2 1 3
1 1 5
1 4 10
6 8 13
1 6 12
4 17 26
39 51 61
79 97 109
97 121 136
90 113 128
79 113 127
85 116 133
86 122 140
83 118 136
77 117 135
75 116 134
75 116 134
76 115 135
76 116 136
76 116 136
76 116 136
76 116 136
76 116 136
76 116 136
76 116 136
76 116 136
76 116 136
76 116 136
76 116 136
76 116 136
76 116 136
75 116 137
76 115 138
76 115 138
76 115 138
76 115 138
76 115 138
76 115 138
76 115 138
76 115 138
76 115 138
76 115 138
76 115 138
76 115 138
75 116 137
76 116 136
75 116 136
74 116 136
73 115 135
72 117 135
75 117 131
75 117 131
75 117 131
79 115 132
83 113 128
83 113 128
90 113 128
90 113 128
81 101 115
62 77 90
31 43 53
6 12 17
0 0 3
0 1 5
14 29 40
62 77 90
97 121 136
90 113 128
81 101 115
88 109 125
79 97 109
53 72 83
31 43 53
6 12 17
0 0 5
0 0 2
0 0 4
1 1 5
1 1 2
0 2 3
0 2 4
0 1 6
0 1 5
0 1 4
0 2 4
0 2 3
1 1 3
2 1 3
4 1 2
4 1 2
4 1 2
4 2 0
7 1 0
7 1 0
4 2 0
4 1 2
2 1 1
0 0 0
0 0 0
0 0 0
0 0 0
0 0 0
0 0 0
0 0 0
0 0 0
0 0 0
0 0 0
0 0 0
0 0 0
0 0 0
0 0 0
0 0 0
0 0 0
0 0 0
0 0 0
0 0 0
0 0 0
0 0 0
0 0 0
0 0 0
0 0 0
0 0 0
0 0 0
0 0 0
0 0 0
2 1 0
3 1 0
3 1 0
3 1 0
3 1 0
3 1 0
2 1 0
1 2 0
0 3 0
1 4 1
1 4 1
0 4 1
0 4 5
0 4 5
2 6 12
6 12 17
2 6 12
0 4 9
0 12 19
31 43 53
53 72 83
71 97 112
77 111 130
82 118 141
86 121 140
86 121 140
86 121 140
86 121 140
86 121 140
82 116 140
82 116 140
82 116 140
82 116 140
80 115 137
78 116 138
78 116 138
78 116 138
78 116 137
77 117 137
77 117 137
77 117 137
76 117 136
74 117 135
74 117 135
74 117 135
74 117 135
74 116 136
74 116 136
74 116 136
74 116 136
74 116 136
74 116 136
74 116 136
74 116 136
73 117 136
72 117 136
72 117 136
72 117 136
72 117 136
72 117 136
72 117 136
72 117 136
72 117 136
72 117 138
72 117 138
72 117 138
72 117 138
72 117 138
72 117 138
72 117 138
72 117 138
74 116 136
74 116 136
74 116 136
74 116 136
74 116 136
74 116 136
74 116 136
74 116 136
74 116 136
74 116 136
74 116 136
74 116 136
74 116 136
74 116 136
74 116 136
74 116 136
74 116 136
74 116 136
74 116 136
74 116 136
74 116 136
74 116 136
74 116 136
74 116 136
74 116 136
74 116 136
74 116 136
74 116 136
74 116 136
74 116 136
74 116 136
75 116 134
77 116 134
79 115 132
89 120 137
96 123 138
81 101 115
39 51 61
0 0 5
0 0 0
2 0 0
3 4 2
0 3 0
0 4 1
0 4 1
0 3 2
0 2 3
0 1 4
0 1 5
0 1 5
0 2 3
0 2 3
0 2 3
0 2 3
0 2 3
0 2 3
0 2 3
0 2 3
0 2 3
0 2 3
0 2 3
0 2 3
0 2 3
0 2 3
0 2 3
0 2 3
0 1 1
0 0 0
0 0 0
0 0 0
0 0 0
0 0 0
0 0 0
0 0 0
0 0 0
0 0 0
0 0 0
0 0 0
0 0 0
0 0 0
0 0 0
0 0 0
0 0 0
0 0 0
0 0 0
0 0 0
0 0 0
0 0 0
0 0 0
0 0 0
0 0 0
0 0 0
0 0 0
0 0 0
0 0 0
0 0 0
0 0 0
0 1 0
0 1 0
0 1 1
0 0 2
0 0 1
0 2 4
1 6 12
4 17 26
23 29 39
31 51 61
39 51 61
39 51 61
31 51 61
31 51 61
31 51 61
31 51 61
31 51 61
31 51 61
31 51 61
31 51 61
31 51 61
31 51 61
31 51 61
31 51 61
31 43 53
31 43 53
31 43 53
31 43 53
31 43 53
31 43 53
31 43 53
31 43 53
31 43 53
31 43 53
31 43 53
31 43 53
31 51 61
31 51 61
31 51 61
31 51 61
31 51 61
31 51 61
31 51 61
31 51 61
31 51 61
31 51 61
31 51 61
31 51 61
31 51 61
31 51 61
31 51 61
31 51 61
31 51 61
31 43 53
31 43 53
31 43 53
31 43 53
31 43 53
31 43 53
31 43 53
31 43 53
31 43 53
31 43 53
31 43 53
31 43 53
31 43 53
31 43 53
31 43 53
31 43 53
31 51 61
31 51 61
31 51 61
31 51 61
31 51 61
31 51 61
31 51 61
31 51 61
31 51 61
31 51 61
31 51 61
31 51 61
31 51 61
31 51 61
31 51 61
31 51 61
31 51 61
31 43 53
31 43 53
31 43 53
31 43 53
31 43 53
31 43 53
31 43 53
31 43 53
31 43 53
31 43 53
31 51 61
31 51 61
31 51 61
31 51 61
31 51 61
31 51 61
31 51 61
31 51 61
31 51 61
31 51 61
31 51 61
31 51 61
31 51 61
39 51 61
31 43 53
14 29 40
6 12 17
1 6 12
0 4 9
0 4 9
0 4 9
0 4 5
0 1 6
0 1 4
0 0 4
0 0 3
0 0 4
0 0 2
0 0 1
0 0 1
0 0 1
0 0 2
0 0 2
0 0 2
0 0 2
0 0 2
0 0 2
0 0 2
0 0 2
0 0 1
0 0 0
0 0 0
0 0 0
0 0 0
0 0 0
0 0 0
0 0 0
0 0 0
0 0 0
0 0 0
0 0 0
0 0 0
0 0 0
0 0 0
0 0 0
0 0 0
0 0 0
0 0 0
0 0 0
0 0 0
0 0 0
0 0 0
0 0 0
0 0 0
0 0 0
0 0 0
0 0 0
0 0 0
0 0 0
0 0 0
0 0 0
0 0 0
0 0 0
0 2 1
0 2 1
0 2 1
0 2 1
0 2 1
0 2 1
0 2 1
0 2 1
0 2 1
0 2 1
0 2 1
1 1 1
1 1 1
3 0 1
3 0 1
3 0 1
3 0 2
3 0 3
2 1 3
1 1 5
2 1 7
2 4 11
0 1 5
0 4 9
24 35 46
68 87 100
90 113 128
88 109 125
81 106 120
89 120 137
87 124 142
83 118 136
75 116 134
75 116 134
76 115 135
76 116 136
76 116 136
76 116 136
76 116 136
76 116 136
76 116 136
76 116 136
76 116 136
76 116 136
76 116 136
76 116 136
76 116 136
76 116 136
76 116 136
75 116 137
76 115 138
76 115 138
76 115 138
76 115 138
76 115 138
76 115 138
76 115 138
76 115 138
76 115 138
76 115 138
76 115 138
76 115 138
75 116 137
76 116 136
75 116 136
74 116 136
75 116 134
75 117 131
75 117 131
75 117 131
77 115 131
82 113 130
79 113 127
84 109 126
90 113 128
90 113 128
81 106 120
68 87 100
31 43 53
6 12 17
0 0 6
0 0 0
12 20 29
62 77 90
99 127 141
93 116 131
79 97 109
68 87 100
53 72 83
31 43 53
12 20 29
2 10 15
2 6 12
2 6 12
1 4 10
1 1 5
0 0 0
0 0 0
0 2 4
0 1 6
0 1 5
0 1 4
0 2 3
0 2 3
1 1 3
2 1 3
4 1 2
4 1 2
4 1 2
4 1 2
6 1 4
6 1 4
4 1 2
3 2 1
1 1 1
0 0 0
0 0 0
0 0 0
0 0 0
0 0 0
0 0 0
0 0 0
0 0 0
0 0 0
0 0 0
0 0 0
0 0 0
0 0 0
0 0 0
0 0 0
0 0 0
0 0 0
0 0 0
0 0 0
0 0 0
0 0 0
0 0 0
0 0 0
0 0 0
0 0 0
0 0 0
0 0 0
0 0 0
2 1 0
3 1 0
3 1 0
3 1 0
3 1 0
3 1 0
2 1 0
1 2 0
0 3 0
1 4 1
1 4 1
0 4 5
0 4 5
0 4 9
0 1 6
0 1 6
0 1 6
6 12 17
24 35 46
55 79 91
81 106 120
83 113 128
79 113 132
82 117 137
82 118 141
82 118 141
82 116 140
82 116 140
82 116 140
82 116 140
82 116 140
82 116 140
82 116 140
78 116 138
78 116 137
78 116 137
78 116 137
78 116 137
77 117 137
77 117 137
77 117 137
76 117 136
74 117 135
74 117 135
74 117 135
74 117 135
74 116 136
74 116 136
74 116 136
74 116 136
74 116 136
74 116 136
74 116 136
74 116 136
73 117 136
72 117 136
72 117 136
72 117 136
72 117 136
72 117 136
72 117 136
72 117 136
72 117 136
72 117 138
72 117 138
72 117 138
72 117 138
72 117 138
72 117 138
72 117 138
72 117 138
74 116 136
74 116 136
74 116 136
74 116 136
74 116 136
74 116 136
74 116 136
74 116 136
74 116 136
74 116 136
74 116 136
74 116 136
74 116 136
74 116 136
74 116 136
74 116 136
74 116 136
74 116 136
74 116 136
74 116 136
74 116 136
74 116 136
74 116 136
74 116 136
74 116 136
74 116 136
74 116 136
74 116 136
74 116 136
74 116 136
74 116 136
75 116 134
77 116 134
79 115 132
89 120 137
96 123 138
81 101 115
39 51 61
0 0 5
0 0 0
2 0 0
3 4 2
0 3 0
0 4 1
0 4 1
0 3 2
0 2 3
0 1 4
0 1 5
0 1 5
0 2 3
0 2 3
0 2 3
0 2 3
0 2 3
0 2 3
0 2 3
0 2 3
0 2 3
0 2 3
0 2 3
0 2 3
0 2 3
0 2 3
0 2 3
0 2 3
0 1 1
0 0 0
0 0 0
0 0 0
0 0 0
0 0 0
0 0 0
0 0 0
0 0 0
0 0 0
0 0 0
0 0 0
0 0 0
0 0 0
0 0 0
0 0 0
0 0 0
0 0 0
0 0 0
0 0 0
0 0 0
0 0 0
0 0 0
0 0 0
0 0 0
0 0 0
0 0 0
0 0 0
0 0 0
0 0 0
0 0 0
0 1 0
0 1 0
0 1 0
0 0 1
0 0 1
0 2 3
0 4 5
1 6 12
6 12 17
12 20 29
12 20 29
4 17 26
4 17 26
4 17 26
4 17 26
4 17 26
4 17 26
4 17 26
4 17 26
4 17 26
4 17 26
4 17 26
0 12 19
0 12 19
0 12 19
0 12 19
0 12 19
0 12 19
0 12 19
0 12 19
0 12 19
0 12 19
0 12 19
0 12 19
0 12 19
0 12 19
0 12 19
0 12 19
0 12 19
0 12 19
0 12 19
0 12 19
0 12 19
0 12 19
0 12 19
0 12 19
0 12 19
0 12 19
0 12 19
0 12 19
0 12 19
0 12 19
0 12 19
0 12 19
0 12 19
0 12 19
0 12 19
0 12 19
0 12 19
0 12 19
0 12 19
0 12 19
0 12 19
0 12 19
0 12 19
0 12 19
0 12 19
0 12 19
0 12 19
0 12 19
0 12 19
0 12 19
0 12 19
0 12 19
0 12 19
0 12 19
0 12 19
0 12 19
0 12 19
0 12 19
0 12 19
0 12 19
0 12 19
0 12 19
0 12 19
0 12 19
0 12 19
0 12 19
0 12 19
0 12 19
0 12 19
0 12 19
0 12 19
0 12 19
0 12 19
0 12 19
0 12 19
0 12 19
0 12 19
0 12 19
0 12 19
0 12 19
4 17 26
4 17 26
4 17 26
4 17 26
4 17 26
4 17 26
4 17 26
4 17 26
0 12 19
0 2 9
0 0 6
0 4 9
1 6 12
0 4 9
0 4 5
0 3 5
0 2 4
0 1 4
0 0 4
0 0 3
0 0 2
0 0 2
0 0 1
0 0 1
0 0 1
0 0 2
0 0 2
0 0 2
0 0 2
0 0 2
0 0 2
0 0 2
0 0 2
0 0 1
0 0 0
0 0 0
0 0 0
0 0 0
0 0 0
0 0 0
0 0 0
0 0 0
0 0 0
0 0 0
0 0 0
0 0 0
0 0 0
0 0 0
0 0 0
0 0 0
0 0 0
0 0 0
0 0 0
0 0 0
0 0 0
0 0 0
0 0 0
0 0 0
0 0 0
0 0 0
0 0 0
0 0 0
0 0 0
0 0 0
0 0 0
0 0 0
0 0 0
0 2 1
0 2 1
0 2 1
0 2 1
0 2 1
0 2 1
0 2 1
0 2 1
0 2 1
0 2 1
0 2 1
1 1 1
2 0 1
3 0 1
3 0 1
3 0 1
3 0 2
3 0 3
2 1 3
1 1 5
2 1 7
1 4 10
0 0 3
0 1 6
23 29 39
62 77 90
81 101 115
81 106 120
84 109 126
96 123 138
99 127 141
83 118 136
76 113 132
76 113 132
76 115 135
76 116 136
76 116 136
76 116 136
76 116 136
76 116 136
76 116 136
76 116 136
76 116 136
76 116 136
76 116 136
76 116 136
76 116 136
76 116 136
76 116 136
75 116 137
76 115 138
76 115 138
76 115 138
76 115 138
76 115 138
76 115 138
76 115 138
76 115 138
76 115 138
76 115 138
76 115 138
76 115 138
75 116 137
76 116 136
75 116 136
74 116 136
75 116 134
75 117 131
75 117 131
75 117 131
77 115 131
79 113 127
79 113 127
84 109 126
90 113 128
90 113 128
88 109 125
68 87 100
39 51 61
4 17 26
0 2 9
0 0 0
12 20 29
68 87 100
99 127 141
88 109 125
62 77 90
39 51 61
23 29 39
6 12 17
2 6 12
6 8 13
6 12 17
2 10 15
0 4 9
0 1 3
0 0 0
0 0 0
0 1 5
0 1 6
0 1 5
0 1 4
1 1 3
1 1 3
1 1 3
2 1 3
3 0 3
4 1 2
4 1 5
4 1 5
6 1 4
6 1 4
4 1 2
4 1 2
1 1 1
0 0 0
0 0 0
0 0 0
0 0 0
0 0 0
0 0 0
0 0 0
0 0 0
0 0 0
0 0 0
0 0 0
0 0 0
0 0 0
0 0 0
0 0 0
0 0 0
0 0 0
0 0 0
0 0 0
0 0 0
0 0 0
0 0 0
0 0 0
0 0 0
0 0 0
0 0 0
0 0 0
0 0 0
1 1 0
1 2 0
1 2 0
1 2 0
3 2 0
3 2 0
3 2 0
3 2 0
1 4 1
0 5 1
0 4 5
0 6 5
1 4 10
2 4 11
0 0 5
0 0 4
0 12 19
23 41 52
53 72 83
81 101 115
93 116 131
89 118 136
83 113 135
82 115 136
82 115 136
80 115 137
80 115 137
80 115 137
80 115 137
82 115 136
82 116 140
82 116 140
80 117 140
78 116 138
78 116 137
77 116 137
77 117 137
77 117 135
77 117 135
77 117 135
77 117 135
76 117 136
75 118 134
74 117 135
74 117 135
74 117 135
74 117 135
74 117 135
74 117 135
74 117 135
72 117 135
72 117 135
72 117 135
72 117 135
72 117 135
72 117 136
72 117 136
72 117 136
72 117 136
72 117 136
72 117 136
72 117 136
72 117 136
72 117 138
72 117 138
72 117 138
72 117 138
72 117 138
72 117 138
72 117 138
72 117 138
74 116 136
74 116 136
74 116 136
74 116 136
74 116 136
74 116 136
74 116 136
74 116 136
74 116 136
74 116 136
74 116 136
74 116 136
74 116 136
74 116 136
74 116 136
74 116 136
74 116 136
74 116 136
74 116 136
74 116 136
74 116 136
74 116 136
74 116 136
74 116 136
74 116 136
74 116 136
74 116 136
74 116 136
74 116 136
74 116 136
74 116 136
75 116 134
77 116 134
79 115 132
89 120 137
96 123 138
81 101 115
39 51 61
0 0 5
0 0 0
2 0 0
3 4 2
0 3 0
0 4 1
0 4 1
0 3 0
0 2 2
0 2 3
0 2 4
0 2 4
0 2 3
0 2 3
0 2 3
0 2 3
0 2 3
0 2 3
0 2 3
0 2 3
0 2 3
0 2 3
0 2 3
0 2 3
0 2 3
0 2 3
0 2 3
0 2 3
0 1 1
0 0 0
0 0 0
0 0 0
0 0 0
0 0 0
0 0 0
0 0 0
0 0 0
0 0 0
0 0 0
0 0 0
0 0 0
0 0 0
0 0 0
0 0 0
0 0 0
0 0 0
0 0 0
0 0 0
0 0 0
0 0 0
0 0 0
0 0 0
0 0 0
0 0 0
0 0 0
0 0 0
0 0 0
0 0 0
0 0 0
0 0 0
0 0 0
0 0 0
0 0 0
0 0 1
0 2 3
0 3 5
0 4 5
0 4 9
1 6 12
0 6 13
0 4 16
0 4 16
0 4 16
0 4 16
0 4 16
0 12 19
0 4 16
0 4 16
0 4 16
0 4 16
0 4 16
0 4 16
0 4 16
0 4 16
0 4 16
0 4 16
0 4 16
0 4 16
0 4 16
0 4 16
0 4 16
0 4 16
0 4 16
0 4 16
0 4 16
0 6 13
0 6 13
0 6 13
0 6 13
0 6 13
0 6 13
0 6 13
0 6 13
0 6 13
0 6 13
0 6 13
0 6 13
0 6 13
0 6 13
0 6 13
0 6 13
0 6 13
0 4 16
0 4 16
0 4 16
0 4 16
0 4 16
0 4 16
0 4 16
0 4 16
0 4 16
0 4 16
0 4 16
0 4 16
0 4 16
0 4 16
0 4 16
0 4 16
0 6 13
0 6 13
0 6 13
0 6 13
0 6 13
0 6 13
0 6 13
0 6 13
0 6 13
0 6 13
0 6 13
0 6 13
0 6 13
0 6 13
0 6 13
0 6 13
0 6 13
0 4 16
0 4 16
0 4 16
0 4 16
0 4 16
0 4 16
0 4 16
0 4 16
0 4 16
0 4 16
0 4 16
0 4 16
0 4 16
0 4 16
0 6 13
0 6 13
0 6 13
0 6 13
0 6 13
0 6 13
0 6 13
0 4 12
0 6 13
0 4 12
0 2 9
0 0 5
0 0 6
0 1 6
0 4 9
0 2 9
0 2 4
0 1 4
0 1 4
0 0 3
0 0 3
0 0 2
0 0 1
0 0 1
0 0 1
0 0 1
0 0 1
0 0 2
0 0 2
0 0 2
0 0 2
0 0 2
0 0 2
0 0 2
0 0 2
0 0 1
0 0 0
0 0 0
0 0 0
0 0 0
0 0 0
0 0 0
0 0 0
0 0 0
0 0 0
0 0 0
0 0 0
0 0 0
0 0 0
0 0 0
0 0 0
0 0 0
0 0 0
0 0 0
0 0 0
0 0 0
0 0 0
0 0 0
0 0 0
0 0 0
0 0 0
0 0 0
0 0 0
0 0 0
0 0 0
0 0 0
0 0 0
0 0 0
0 0 0
0 2 1
0 2 1
0 2 1
0 2 1
0 2 1
0 2 1
0 2 1
0 2 1
0 2 1
0 2 1
0 2 1
1 1 1
2 0 1
3 0 1
3 0 1
3 0 1
3 0 2
3 0 3
2 1 3
1 1 5
0 1 6
1 1 8
0 0 3
0 0 7
12 20 29
39 51 61
62 77 90
81 101 115
90 116 132
97 124 139
96 123 138
83 118 136
77 115 131
76 113 132
77 115 134
76 115 135
76 116 136
76 116 136
76 116 136
76 116 136
76 116 136
76 116 136
76 116 136
76 116 136
76 116 136
76 116 136
76 116 136
76 116 136
76 116 136
75 116 137
76 115 138
76 115 138
76 115 138
76 115 138
76 115 138
76 115 138
76 115 138
76 115 138
76 115 138
76 115 138
76 115 138
76 115 138
75 116 138
75 116 138
75 116 137
74 116 136
74 117 135
74 117 135
75 117 131
77 115 131
77 115 131
79 113 127
79 113 127
83 113 128
90 113 128
90 113 128
90 113 128
79 97 109
47 64 75
12 20 29
0 4 12
0 1 1
23 29 39
62 77 90
97 121 136
79 97 109
39 51 61
12 20 29
0 4 9
0 0 1
0 1 6
6 8 13
6 12 17
6 12 17
0 4 9
1 1 5
1 1 2
1 1 3
0 1 5
0 1 6
0 1 5
0 1 4
1 1 3
1 1 3
1 1 3
2 1 3
4 1 5
4 1 5
4 1 5
4 1 5
4 1 5
4 1 5
4 1 2
4 1 2
1 1 1
0 0 0
0 0 0
0 0 0
0 0 0
0 0 0
0 0 0
0 0 0
0 0 0
0 0 0
0 0 0
0 0 0
0 0 0
0 0 0
0 0 0
0 0 0
0 0 0
0 0 0
0 0 0
0 0 0
0 0 0
0 0 0
0 0 0
0 0 0
0 0 0
0 0 0
0 0 0
0 0 0
0 0 0
1 1 0
1 2 0
1 2 0
1 2 0
0 3 0
3 2 0
3 2 0
3 2 0
1 4 1
0 4 5
0 6 5
0 4 9
0 1 6
0 0 5
0 0 6
6 12 17
23 41 52
55 79 91
81 101 115
88 109 125
88 109 125
85 113 132
83 113 135
79 113 135
79 113 135
79 113 135
79 114 136
79 115 135
80 115 137
80 115 137
80 115 140
80 117 140
80 117 140
78 116 138
78 116 137
77 116 137
77 117 137
77 117 135
77 117 135
77 117 135
77 117 135
76 117 136
75 118 134
74 117 135
74 117 135
74 117 135
74 117 135
74 117 135
74 117 135
74 117 135
73 118 135
73 118 135
73 118 135
73 118 135
72 117 135
72 117 136
72 117 136
72 117 136
72 117 136
72 117 136
72 117 136
72 117 136
72 117 136
72 117 138
72 117 138
72 117 138
72 117 138
72 117 138
72 117 138
72 117 138
72 117 138
74 116 136
74 116 136
74 116 136
74 116 136
74 116 136
74 116 136
74 116 136
74 116 136
74 116 136
74 116 136
74 116 136
74 116 136
74 116 136
74 116 136
74 116 136
74 116 136
74 116 136
74 116 136
74 116 136
74 116 136
74 116 136
74 116 136
74 116 136
74 116 136
74 116 136
74 116 136
74 116 136
74 116 136
74 116 136
74 116 136
74 116 136
75 116 134
77 116 134
79 115 132
89 118 136
96 123 138
81 101 115
39 51 61
0 0 5
0 0 0
2 0 0
3 4 2
0 3 0
0 4 1
0 4 1
0 3 0
0 2 1
0 2 2
0 2 3
0 2 3
0 2 3
0 2 3
0 2 3
0 2 3
0 2 3
0 2 3
0 2 3
0 2 3
0 2 3
0 2 3
0 2 3
0 2 3
0 2 3
0 2 3
0 2 3
0 2 3
0 1 1
0 0 0
0 0 0
0 0 0
0 0 0
0 0 0
0 0 0
0 0 0
0 0 0
0 0 0
0 0 0
0 0 0
0 0 0
0 0 0
0 0 0
0 0 0
0 0 0
0 0 0
0 0 0
0 0 0
0 0 0
0 0 0
0 0 0
0 0 0
0 0 0
0 0 0
0 0 0
0 0 0
0 0 0
0 0 0
0 0 0
0 0 0
0 0 0
0 0 0
0 0 0
0 0 1
0 2 3
0 4 5
1 4 5
1 4 5
0 2 4
0 1 6
1 4 10
0 6 13
0 8 14
0 4 16
0 12 19
0 12 19
0 12 19
0 4 16
0 8 14
0 4 16
0 4 16
0 4 16
0 4 16
0 4 16
0 4 16
0 4 16
0 4 16
0 4 16
0 4 16
0 4 16
0 4 16
0 4 16
0 4 16
0 4 16
0 4 16
0 8 14
0 8 14
0 8 14
0 8 14
0 8 14
0 8 14
0 8 14
0 8 14
0 8 14
0 8 14
0 8 14
0 8 14
0 8 14
0 8 14
0 8 14
0 8 14
0 8 14
0 4 16
0 4 16
0 4 16
0 4 16
0 4 16
0 4 16
0 4 16
0 4 16
0 4 16
0 4 16
0 4 16
0 4 16
0 4 16
0 4 16
0 4 16
0 4 16
0 8 14
0 8 14
0 8 14
0 8 14
0 8 14
0 8 14
0 8 14
0 8 14
0 8 14
0 8 14
0 8 14
0 8 14
0 8 14
0 8 14
0 8 14
0 8 14
0 8 14
0 4 16
0 4 16
0 4 16
0 4 16
0 4 16
0 4 16
0 4 16
0 4 16
0 4 16
0 4 16
6 8 13
0 4 16
0 4 16
0 4 16
0 6 13
0 6 13
0 6 13
0 6 13
0 6 13
0 6 13
1 6 12
1 6 12
0 4 12
1 4 10
1 4 10
1 6 12
1 6 12
0 4 9
0 2 9
0 1 6
0 1 5
0 1 4
0 1 4
0 0 3
0 0 3
0 0 2
0 0 1
0 0 1
0 0 1
0 0 1
0 0 1
0 0 2
0 0 2
0 0 2
0 0 2
0 0 2
0 0 2
0 0 2
0 0 2
0 0 1
0 0 0
0 0 0
0 0 0
0 0 0
0 0 0
0 0 0
0 0 0
0 0 0
0 0 0
0 0 0
0 0 0
0 0 0
0 0 0
0 0 0
0 0 0
0 0 0
0 0 0
0 0 0
0 0 0
0 0 0
0 0 0
0 0 0
0 0 0
0 0 0
0 0 0
0 0 0
0 0 0
0 0 0
0 0 0
0 0 0
0 0 0
0 0 0
0 0 0
0 2 1
0 2 1
0 2 1
0 2 1
0 2 1
0 2 1
0 2 1
0 2 1
0 2 1
0 2 1
0 2 1
1 1 1
2 0 1
3 0 1
3 0 1
3 0 1
3 0 2
3 0 3
2 1 3
1 1 5
0 1 6
1 1 8
0 1 6
0 2 9
6 12 17
23 29 39
47 64 75
71 97 112
91 117 133
93 121 136
85 116 133
85 116 133
82 115 132
79 115 135
77 115 134
76 115 135
76 116 136
76 116 136
76 116 136
76 116 136
76 116 136
76 116 136
76 116 136
76 116 136
76 116 136
76 116 136
76 116 136
76 116 136
76 116 136
75 116 137
76 115 138
76 115 138
76 115 138
76 115 138
76 115 138
76 115 138
76 115 138
76 115 138
76 115 138
76 115 138
76 115 138
76 115 138
75 116 138
74 116 138
75 116 137
74 116 136
74 117 135
74 117 135
75 117 131
77 115 131
77 115 131
79 113 127
79 113 127
83 113 128
90 113 128
90 113 128
93 116 131
88 109 125
47 64 75
14 29 40
0 6 13
0 3 5
23 29 39
53 72 83
79 97 109
47 64 75
12 20 29
1 6 12
0 0 5
0 0 0
0 1 4
6 8 13
6 12 17
6 8 13
0 1 6
3 4 6
6 8 13
5 6 9
0 1 6
0 0 4
0 1 4
0 1 3
1 1 3
1 1 3
1 1 3
2 1 3
4 1 5
4 1 5
4 1 5
4 1 5
4 1 5
4 1 5
4 1 5
4 1 2
1 0 1
0 0 0
0 0 0
0 0 0
0 0 0
0 0 0
0 0 0
0 0 0
0 0 0
0 0 0
0 0 0
0 0 0
0 0 0
0 0 0
0 0 0
0 0 0
0 0 0
0 0 0
0 0 0
0 0 0
0 0 0
0 0 0
0 0 0
0 0 0
0 0 0
0 0 0
0 0 0
0 0 0
0 0 0
1 1 0
1 2 0
1 2 0
1 2 0
0 3 0
1 3 2
1 3 2
0 3 2
0 3 2
0 4 5
1 6 12
2 6 12
0 0 2
0 0 0
6 12 17
39 51 61
68 87 100
88 109 125
93 116 131
84 109 126
81 106 120
81 110 128
79 113 132
79 113 135
79 113 135
79 113 135
78 115 137
78 115 137
78 115 137
78 115 137
78 116 138
78 116 138
78 116 137
78 116 137
77 117 137
77 117 137
77 117 137
77 117 135
77 117 135
77 117 135
77 117 135
76 117 136
75 118 134
74 117 135
74 117 135
74 117 135
74 117 135
74 117 135
74 117 135
74 117 135
73 118 135
73 118 135
73 118 135
73 118 135
72 117 135
72 117 136
72 117 136
72 117 136
72 117 136
72 117 136
72 117 136
72 117 136
72 117 136
72 117 138
72 117 138
72 117 138
72 117 138
72 117 138
72 117 138
72 117 138
72 117 138
74 116 136
74 116 136
74 116 136
74 116 136
74 116 136
74 116 136
74 116 136
74 116 136
74 116 136
74 116 136
74 116 136
74 116 136
74 116 136
74 116 136
74 116 136
74 116 136
74 116 136
74 116 136
74 116 136
74 116 136
74 116 136
74 116 136
74 116 136
74 116 136
74 116 136
74 116 136
74 116 136
74 116 136
74 116 136
74 116 136
74 116 136
75 116 134
77 116 134
79 115 132
89 118 136
96 123 138
81 101 115
39 51 61
0 0 5
0 0 0
2 0 0
3 4 2
0 3 0
0 4 1
0 4 1
0 3 0
0 2 1
0 2 2
0 2 3
0 2 3
0 2 3
0 2 3
0 2 3
0 2 3
0 2 3
0 2 3
0 2 3
0 2 3
0 2 3
0 2 3
0 2 3
0 2 3
0 2 3
0 2 3
0 2 3
0 2 3
0 1 1
0 0 0
0 0 0
0 0 0
0 0 0
0 0 0
0 0 0
0 0 0
0 0 0
0 0 0
0 0 0
0 0 0
0 0 0
0 0 0
0 0 0
0 0 0
0 0 0
0 0 0
0 0 0
0 0 0
0 0 0
0 0 0
0 0 0
0 0 0
0 0 0
0 0 0
0 0 0
0 0 0
0 0 0
0 0 0
0 0 0
0 0 0
0 0 0
0 0 0
0 0 0
1 1 0
1 3 2
0 6 5
3 4 6
1 4 5
0 1 1
0 0 4
0 4 9
0 6 13
0 6 13
0 4 16
0 8 14
0 8 14
0 8 14
0 4 16
0 4 12
0 1 13
0 1 10
0 1 10
0 1 10
0 1 10
0 1 10
1 1 8
1 1 8
0 2 9
0 2 9
0 2 9
0 2 9
0 2 9
0 2 9
0 2 9
0 2 9
0 2 9
0 2 9
0 2 9
0 2 9
0 2 9
0 2 9
0 2 9
0 2 9
0 2 9
0 2 9
0 2 9
0 2 9
0 2 9
0 2 9
0 2 9
0 2 9
0 2 9
0 2 9
0 2 9
0 2 9
0 2 9
0 2 9
0 2 9
0 2 9
0 2 9
0 2 9
0 2 9
0 2 9
0 2 9
0 2 9
0 2 9
0 2 9
0 2 9
0 2 9
0 2 9
0 2 9
0 2 9
0 2 9
0 2 9
0 2 9
0 2 9
0 2 9
0 2 9
0 2 9
0 2 9
0 2 9
0 2 9
0 2 9
0 2 9
0 2 9
0 2 9
0 2 9
0 2 9
0 2 9
0 2 9
0 2 9
0 2 9
0 2 9
1 1 8
1 1 8
2 1 7
1 1 8
0 1 10
0 1 10
0 1 10
0 4 9
0 4 9
0 4 12
0 4 12
0 4 12
0 4 9
1 6 12
0 4 12
0 4 9
1 6 12
1 6 12
0 6 13
0 4 9
0 4 9
0 4 9
0 3 5
0 1 6
1 1 5
0 0 3
0 0 2
0 0 2
0 0 2
0 0 1
0 0 1
0 0 1
0 0 1
0 0 2
0 0 2
0 0 2
0 0 2
0 0 2
0 0 2
0 0 2
0 0 2
0 0 1
0 0 0
0 0 0
0 0 0
0 0 0
0 0 0
0 0 0
0 0 0
0 0 0
0 0 0
0 0 0
0 0 0
0 0 0
0 0 0
0 0 0
0 0 0
0 0 0
0 0 0
0 0 0
0 0 0
0 0 0
0 0 0
0 0 0
0 0 0
0 0 0
0 0 0
0 0 0
0 0 0
0 0 0
0 0 0
0 0 0
0 0 0
0 0 0
0 0 0
0 2 1
0 2 1
0 2 1
0 2 1
0 2 1
0 2 1
0 2 1
0 2 1
0 2 1
0 2 1
0 2 1
0 2 1
0 2 1
2 1 1
2 0 1
3 0 1
3 0 2
3 0 3
2 1 3
1 1 5
0 0 6
0 1 6
1 1 8
2 4 11
0 4 12
4 17 26
31 51 61
70 92 106
90 116 132
83 113 128
77 107 124
82 115 132
86 122 140
82 117 137
75 113 134
76 115 135
76 116 136
76 116 136
76 116 136
76 116 136
76 116 136
76 116 136
76 116 136
76 116 136
76 116 136
76 116 136
76 116 136
76 116 136
76 116 136
75 116 137
76 115 138
76 115 138
76 115 138
76 115 138
76 115 138
76 115 138
76 115 138
76 115 138
76 115 138
76 115 138
76 115 138
76 115 138
75 116 138
74 116 138
74 115 139
75 116 137
75 116 136
75 118 134
75 117 131
77 115 131
77 115 131
79 113 127
79 113 127
83 113 128
90 113 128
90 113 128
95 118 134
90 113 128
53 72 83
14 29 40
2 10 15
0 4 5
12 20 29
31 43 53
39 51 61
23 29 39
0 6 5
0 4 5
1 4 10
1 4 5
1 4 5
6 8 13
6 8 13
3 4 6
0 1 3
5 6 9
6 12 17
6 8 13
0 1 6
0 0 3
1 1 3
1 1 3
1 1 3
1 1 3
1 1 3
2 1 3
4 1 5
4 1 5
4 1 5
4 1 5
4 1 5
4 1 5
4 1 5
4 1 5
1 0 1
0 0 0
0 0 0
0 0 0
0 0 0
0 0 0
0 0 0
0 0 0
0 0 0
0 0 0
0 0 0
0 0 0
0 0 0
0 0 0
0 0 0
0 0 0
0 0 0
0 0 0
0 0 0
0 0 0
0 0 0
0 0 0
0 0 0
0 0 0
0 0 0
0 0 0
0 0 0
0 0 0
0 0 0
1 1 0
1 2 0
1 2 0
1 2 0
0 2 0
0 2 1
0 3 2
0 4 5
0 4 9
0 4 9
1 6 12
1 6 12
0 2 4
5 6 9
24 35 46
62 77 90
93 116 131
99 127 141
93 116 131
77 107 124
71 97 112
77 107 124
79 113 132
79 113 135
79 113 135
79 114 136
79 114 138
79 114 138
77 114 138
77 115 137
78 116 137
78 116 137
78 116 137
78 116 137
77 117 137
77 117 137
77 117 137
77 117 135
77 117 135
77 117 135
77 117 135
76 117 136
75 118 134
74 117 135
74 117 135
74 117 135
74 117 135
74 117 135
74 117 135
74 117 135
73 118 135
73 118 135
73 118 135
73 118 135
72 117 135
72 117 136
72 117 136
72 117 136
72 117 136
72 117 136
72 117 136
72 117 136
72 117 136
72 117 138
72 117 138
72 117 138
72 117 138
72 117 138
72 117 138
72 117 138
72 117 138
74 116 136
74 116 136
74 116 136
74 116 136
74 116 136
74 116 136
74 116 136
74 116 136
74 116 136
74 116 136
74 116 136
74 116 136
74 116 136
74 116 136
74 116 136
74 116 136
74 116 136
74 116 136
74 116 136
74 116 136
74 116 136
74 116 136
74 116 136
74 116 136
74 116 136
74 116 136
74 116 136
74 116 136
74 116 136
74 116 136
74 116 136
75 116 134
77 116 134
79 115 132
89 118 136
96 123 138
81 101 115
39 51 61
0 0 5
0 0 0
2 0 0
3 4 2
0 3 0
0 4 1
0 4 1
0 3 0
0 2 1
0 2 2
0 2 3
0 2 3
0 2 3
0 2 3
0 2 3
0 2 3
0 2 3
0 2 3
0 2 3
0 2 3
0 2 3
0 2 3
0 2 3
0 2 3
0 2 3
0 2 3
0 2 3
0 2 3
0 1 1
0 0 0
0 0 0
0 0 0
0 0 0
0 0 0
0 0 0
0 0 0
0 0 0
0 0 0
0 0 0
0 0 0
0 0 0
0 0 0
0 0 0
0 0 0
0 0 0
0 0 0
0 0 0
0 0 0
0 0 0
0 0 0
0 0 0
0 0 0
0 0 0
0 0 0
0 0 0
0 0 0
0 0 0
0 0 0
0 0 0
0 0 0
0 0 0
0 0 0
0 0 0
1 1 0
2 3 2
3 4 6
5 6 9
3 4 6
1 3 2
0 2 4
0 4 9
0 8 14
0 8 14
0 8 14
0 8 14
0 8 14
0 8 14
0 6 13
0 1 13
0 0 12
1 1 8
2 1 7
2 1 7
2 1 7
2 1 7
2 1 7
0 0 6
0 0 6
0 0 6
0 0 6
0 0 6
0 0 6
0 0 6
0 0 6
0 0 6
0 0 6
0 0 6
0 0 6
0 0 6
0 0 6
0 0 6
0 0 6
0 0 6
0 0 6
0 0 6
0 0 6
0 0 6
0 0 6
0 0 6
0 0 6
0 0 6
0 0 6
0 0 6
0 0 6
0 0 6
0 0 6
0 0 6
0 0 6
0 0 6
0 0 6
0 0 6
0 0 6
0 0 6
0 0 6
0 0 6
0 0 6
0 0 6
0 0 6
0 0 6
0 0 6
0 0 6
0 0 6
0 0 6
0 0 6
0 0 6
0 0 6
0 0 6
0 0 6
0 0 6
0 0 6
0 0 6
0 0 6
0 0 6
0 0 6
0 0 6
0 0 6
0 0 6
0 0 6
0 0 6
0 0 6
0 0 6
0 0 6
0 0 6
0 0 6
2 1 7
2 1 7
2 1 7
2 1 7
2 1 7
0 1 6
0 1 6
0 4 9
0 4 9
0 4 9
0 4 9
0 4 9
1 6 12
1 6 12
1 6 12
1 6 12
1 6 12
1 6 12
0 4 9
0 4 9
0 4 9
0 4 9
1 1 8
1 1 5
0 0 3
0 0 2
0 0 2
0 0 2
0 0 1
0 0 1
0 0 1
0 0 1
0 0 2
0 0 2
0 0 2
0 0 2
0 0 2
0 0 2
0 0 2
0 0 2
0 0 1
0 0 0
0 0 0
0 0 0
0 0 0
0 0 0
0 0 0
0 0 0
0 0 0
0 0 0
0 0 0
0 0 0
0 0 0
0 0 0
0 0 0
0 0 0
0 0 0
0 0 0
0 0 0
0 0 0
0 0 0
0 0 0
0 0 0
0 0 0
0 0 0
0 0 0
0 0 0
0 0 0
0 0 0
0 0 0
0 0 0
0 0 0
0 0 0
0 0 0
0 2 1
0 2 1
0 2 1
0 2 1
0 2 1
0 2 1
0 2 1
0 2 1
0 2 1
0 2 1
0 2 1
0 2 1
0 2 1
1 1 1
2 0 1
3 0 1
3 0 2
3 0 3
2 1 3
1 1 5
0 0 6
0 1 6
1 1 8
2 4 11
0 0 7
0 4 12
24 35 46
70 92 106
90 116 132
81 106 120
70 105 125
82 115 132
86 122 140
83 118 136
75 113 134
76 115 135
76 116 136
76 116 136
76 116 136
76 116 136
76 116 136
76 116 136
76 116 136
76 116 136
76 116 136
76 116 136
76 116 136
76 116 136
76 116 136
75 116 137
76 115 138
76 115 138
76 115 138
76 115 138
76 115 138
76 115 138
76 115 138
76 115 138
76 115 138
76 115 138
76 115 138
76 115 138
75 116 138
74 116 138
75 116 138
76 115 138
76 115 135
75 116 134
75 116 134
77 115 131
78 115 132
82 113 130
83 113 128
83 113 128
83 113 128
90 113 128
97 121 136
95 118 134
55 79 91
14 29 40
0 12 19
0 3 5
6 8 13
6 12 17
12 20 29
6 8 13
0 2 2
0 2 2
1 4 5
1 4 5
1 4 5
5 6 9
5 6 9
1 4 5
0 1 3
3 4 6
6 8 13
5 6 9
1 1 5
2 1 3
3 2 1
3 2 1
3 2 1
3 2 1
3 2 1
2 1 3
4 1 5
4 1 5
4 1 5
4 1 5
4 1 5
4 1 5
4 1 5
4 1 5
1 0 1
0 0 0
0 0 0
0 0 0
0 0 0
0 0 0
0 0 0
0 0 0
0 0 0
0 0 0
0 0 0
0 0 0
0 0 0
0 0 0
0 0 0
0 0 0
0 0 0
0 0 0
0 0 0
0 0 0
0 0 0
0 0 0
0 0 0
0 0 0
0 0 0
0 0 0
0 0 0
0 0 0
0 0 0
0 1 0
0 1 0
0 1 0
0 1 0
0 1 0
0 2 2
0 4 5
1 6 12
2 10 15
2 10 15
0 6 13
0 8 14
4 17 26
31 43 53
53 72 83
81 101 115
97 121 136
97 121 136
90 113 128
77 107 124
77 107 124
77 111 130
82 113 136
82 113 136
79 113 135
79 114 138
80 115 140
79 114 138
77 114 140
77 115 137
78 116 137
77 117 137
78 116 138
78 116 138
77 117 137
77 117 137
77 117 137
77 117 135
77 117 135
77 117 135
77 117 135
76 117 136
75 118 134
74 117 135
74 117 135
74 117 135
74 117 135
74 117 135
74 117 135
74 117 135
73 118 135
73 118 135
73 118 135
73 118 135
72 117 135
72 117 136
72 117 136
72 117 136
72 117 136
72 117 136
72 117 136
72 117 136
72 117 136
72 117 138
72 117 138
72 117 138
72 117 138
72 117 138
72 117 138
72 117 138
72 117 138
74 116 136
74 116 136
74 116 136
74 116 136
74 116 136
74 116 136
74 116 136
74 116 136
74 116 136
74 116 136
74 116 136
74 116 136
74 116 136
74 116 136
74 116 136
74 116 136
74 116 136
74 116 136
74 116 136
74 116 136
74 116 136
74 116 136
74 116 136
74 116 136
74 116 136
74 116 136
74 116 136
74 116 136
74 116 136
74 116 136
74 116 136
75 116 134
77 116 134
79 115 132
89 120 137
96 123 138
81 101 115
39 51 61
0 0 5
0 0 0
2 0 0
3 4 2
0 3 0
0 4 1
0 4 1
0 3 2
0 2 2
0 1 3
0 1 4
0 1 4
0 2 3
0 2 3
0 2 3
0 2 3
0 2 3
0 2 3
0 2 3
0 2 3
0 2 3
0 2 3
0 2 3
0 2 3
0 2 3
0 2 3
0 2 3
0 2 3
0 1 1
0 0 0
0 0 0
0 0 0
0 0 0
0 0 0
0 0 0
0 0 0
0 0 0
0 0 0
0 0 0
0 0 0
0 0 0
0 0 0
0 0 0
0 0 0
0 0 0
0 0 0
0 0 0
0 0 0
0 0 0
0 0 0
0 0 0
0 0 0
0 0 0
0 0 0
0 0 0
0 0 0
0 0 0
1 0 0
1 0 0
1 0 0
1 0 0
0 0 0
0 0 0
1 0 0
3 2 1
3 4 2
3 4 2
1 3 2
1 2 3
0 2 4
0 4 9
0 4 9
1 6 12
0 6 13
0 6 13
0 6 13
0 6 13
0 4 12
0 2 9
2 1 7
3 1 6
4 1 5
4 1 5
4 1 5
4 1 5
4 1 5
4 1 5
3 1 6
3 1 6
3 1 6
3 1 6
3 1 6
3 1 6
3 1 6
3 1 6
1 1 5
1 1 5
1 1 5
1 1 5
1 1 5
1 1 5
1 1 5
1 1 5
1 1 5
1 1 5
1 1 5
1 1 5
1 1 5
1 1 5
1 1 5
1 1 5
1 1 5
3 1 6
3 1 6
3 1 6
3 1 6
3 1 6
3 1 6
3 1 6
3 1 6
3 1 6
3 1 6
3 1 6
3 1 6
3 1 6
3 1 6
3 1 6
3 1 6
1 1 5
1 1 5
1 1 5
1 1 5
1 1 5
1 1 5
1 1 5
1 1 5
1 1 5
1 1 5
1 1 5
1 1 5
1 1 5
1 1 5
1 1 5
1 1 5
1 1 5
3 1 6
3 1 6
3 1 6
3 1 6
3 1 6
3 1 6
3 1 6
3 1 6
4 1 5
4 1 5
4 1 5
4 1 5
4 1 5
3 1 6
1 1 5
1 1 5
1 1 8
1 1 8
0 4 9
0 4 9
0 4 9
0 4 9
0 4 9
0 4 9
0 4 9
0 4 5
0 4 5
1 4 5
1 4 5
1 4 5
1 4 5
3 4 6
1 1 5
1 1 3
1 1 2
1 1 2
1 1 2
1 1 2
1 1 2
1 1 2
1 1 2
1 1 2
1 1 2
1 1 2
1 1 2
1 1 2
1 1 2
1 1 2
1 1 2
1 0 1
0 0 0
0 0 0
0 0 0
0 0 0
0 0 0
0 0 0
0 0 0
0 0 0
0 0 0
0 0 0
0 0 0
0 0 0
0 0 0
0 0 0
0 0 0
0 0 0
0 0 0
0 0 0
0 0 0
0 0 0
0 0 0
0 0 0
0 0 0
0 0 0
0 0 0
0 0 0
0 0 0
0 0 0
0 0 0
0 0 0
0 0 0
0 0 0
0 0 0
0 2 1
0 2 1
0 2 1
0 2 1
0 2 1
0 2 1
0 2 1
0 2 1
0 2 1
0 2 1
0 2 1
0 2 1
0 2 1
1 1 1
1 1 1
2 1 1
2 0 1
3 0 2
3 0 2
1 1 5
0 1 5
0 1 6
0 2 9
2 6 12
0 0 4
0 0 7
14 29 40
68 87 100
90 113 128
83 113 128
77 107 124
85 116 133
89 120 137
83 118 136
76 115 135
76 115 135
76 116 136
76 116 136
76 116 136
76 116 136
76 116 136
76 116 136
76 116 136
76 116 136
76 116 136
76 116 136
76 116 136
76 116 136
76 116 136
75 116 137
76 115 138
76 115 138
76 115 138
76 115 138
76 115 138
76 115 138
76 115 138
76 115 138
76 115 138
76 115 138
76 115 138
76 115 138
76 115 140
74 115 139
76 115 140
76 115 138
77 115 137
77 115 137
77 115 136
77 115 134
77 115 134
79 114 134
82 113 130
83 113 128
83 113 128
83 113 128
99 127 141
99 127 141
68 87 100
23 41 52
4 17 26
0 2 0
0 1 0
0 0 0
0 0 0
1 2 1
2 3 2
2 3 2
1 3 2
1 3 2
1 4 5
3 4 6
3 4 6
1 4 5
0 2 3
0 2 4
3 1 6
3 4 6
2 1 3
2 1 3
4 1 2
4 1 2
4 1 2
4 1 2
4 1 2
4 1 2
4 1 5
4 1 5
4 1 5
4 1 5
4 1 5
4 1 5
4 1 5
4 1 5
1 0 1
0 0 0
0 0 0
0 0 0
0 0 0
0 0 0
0 0 0
0 0 0
0 0 0
0 0 0
0 0 0
0 0 0
0 0 0
0 0 0
0 0 0
0 0 0
0 0 0
0 0 0
0 0 0
0 0 0
0 0 0
0 0 0
0 0 0
0 0 0
0 0 0
0 0 0
0 0 0
0 0 0
0 0 0
0 1 0
0 1 0
0 1 0
0 1 0
0 1 0
0 2 4
0 4 9
0 8 14
0 8 14
0 6 13
0 8 14
4 17 26
31 43 53
55 79 91
81 101 115
88 109 125
90 113 128
88 109 125
84 109 126
81 110 128
83 113 135
82 115 136
82 116 140
82 116 140
79 114 138
79 114 138
80 115 140
78 115 139
78 115 139
77 116 138
78 116 137
78 116 138
80 117 140
78 116 138
77 117 137
77 117 137
77 117 137
77 117 135
77 117 135
77 117 135
77 117 135
76 117 136
75 118 134
74 117 135
74 117 135
74 117 135
74 117 135
74 117 135
74 117 135
74 117 135
73 118 135
73 118 135
73 118 135
73 118 135
72 117 135
72 117 136
72 117 136
72 117 136
72 117 136
72 117 136
72 117 136
72 117 136
72 117 136
72 117 138
72 117 138
72 117 138
72 117 138
72 117 138
72 117 138
72 117 138
72 117 138
74 116 136
74 116 136
74 116 136
74 116 136
74 116 136
74 116 136
74 116 136
74 116 136
74 116 136
74 116 136
74 116 136
74 116 136
74 116 136
74 116 136
74 116 136
74 116 136
74 116 136
74 116 136
74 116 136
74 116 136
74 116 136
74 116 136
74 116 136
74 116 136
74 116 136
74 116 136
74 116 136
74 116 136
74 116 136
74 116 136
74 116 136
75 116 134
77 116 134
79 115 132
89 120 137
96 123 138
81 101 115
39 51 61
0 0 5
0 0 0
2 0 0
3 4 2
0 3 0
0 4 1
0 4 1
0 3 2
0 2 3
0 1 4
0 1 5
0 1 5
0 2 3
0 2 3
0 2 3
0 2 3
0 2 3
0 2 3
0 2 3
0 2 3
0 2 3
0 2 3
0 2 3
0 2 3
0 2 3
0 2 3
0 2 3
0 2 3
0 1 1
0 0 0
0 0 0
0 0 0
0 0 0
0 0 0
0 0 0
0 0 0
0 0 0
0 0 0
0 0 0
0 0 0
0 0 0
0 0 0
0 0 0
0 0 0
0 0 0
0 0 0
0 0 0
0 0 0
0 0 0
0 0 0
0 0 0
0 0 0
0 0 0
0 0 0
0 0 0
0 0 0
0 0 0
1 0 0
2 0 0
2 0 0
2 0 0
1 0 0
0 0 0
1 0 0
3 1 0
3 1 0
2 1 0
0 2 0
0 2 2
0 2 4
0 3 5
0 3 5
0 4 9
0 4 9
0 4 12
0 4 12
0 4 12
0 4 9
1 1 8
3 1 6
4 1 5
4 1 5
6 1 4
6 1 4
6 1 4
6 1 4
4 1 5
4 1 5
4 1 5
4 1 5
4 1 5
4 1 5
4 1 5
4 1 5
4 1 5
3 1 6
3 1 6
3 1 6
3 1 6
3 1 6
3 1 6
3 1 6
3 1 6
3 1 6
3 1 6
3 1 6
3 1 6
3 1 6
3 1 6
3 1 6
3 1 6
3 1 6
4 1 5
4 1 5
4 1 5
4 1 5
4 1 5
4 1 5
4 1 5
4 1 5
4 1 5
4 1 5
4 1 5
4 1 5
4 1 5
4 1 5
4 1 5
4 1 5
3 1 6
3 1 6
3 1 6
3 1 6
3 1 6
3 1 6
3 1 6
3 1 6
3 1 6
3 1 6
3 1 6
3 1 6
3 1 6
3 1 6
3 1 6
3 1 6
3 1 6
4 1 5
4 1 5
4 1 5
4 1 5
4 1 5
4 1 5
4 1 5
4 1 5
4 1 5
6 1 4
6 1 4
6 1 4
4 1 5
4 1 5
1 1 5
1 1 5
0 1 6
0 1 6
1 4 5
0 3 5
0 4 5
0 4 5
0 4 5
0 3 5
0 2 4
0 2 2
0 2 2
1 3 2
1 4 5
2 1 3
2 1 3
2 1 3
2 1 3
2 1 3
2 0 2
2 0 2
2 0 2
2 0 2
2 0 2
2 0 2
2 0 2
2 0 2
2 0 2
2 0 2
2 0 2
2 0 2
2 0 2
2 0 2
2 0 2
1 0 1
0 0 0
0 0 0
0 0 0
0 0 0
0 0 0
0 0 0
0 0 0
0 0 0
0 0 0
0 0 0
0 0 0
0 0 0
0 0 0
0 0 0
0 0 0
0 0 0
0 0 0
0 0 0
0 0 0
0 0 0
0 0 0
0 0 0
0 0 0
0 0 0
0 0 0
0 0 0
0 0 0
0 0 0
0 0 0
0 0 0
0 0 0
0 0 0
0 0 0
0 2 1
0 2 1
0 2 1
0 2 1
0 2 1
0 2 1
0 2 1
0 2 1
0 2 1
0 2 1
0 2 1
0 2 1
1 1 1
1 1 1
1 1 1
1 1 1
2 0 1
3 0 1
3 0 1
1 1 3
0 1 5
0 1 6
0 2 9
2 4 11
0 0 4
1 1 8
14 29 40
55 79 91
81 106 120
90 116 132
85 116 133
85 116 133
85 116 133
79 115 132
76 115 135
76 115 135
76 116 136
76 116 136
76 116 136
76 116 136
76 116 136
76 116 136
76 116 136
76 116 136
76 116 136
76 116 136
76 116 136
76 116 136
76 116 136
75 116 137
76 115 138
76 115 138
76 115 138
76 115 138
76 115 138
76 115 138
76 115 138
76 115 138
76 115 138
76 115 138
76 115 138
76 115 138
76 115 140
76 115 140
76 115 140
76 115 138
77 114 138
77 114 138
77 115 137
77 115 136
78 116 135
79 114 134
79 113 132
82 113 130
79 113 127
82 113 130
99 127 141
99 127 141
70 92 106
23 41 52
4 17 26
2 1 0
0 0 0
0 0 0
0 0 0
1 0 0
3 2 1
3 2 1
3 2 0
3 2 1
3 4 2
3 4 2
3 4 2
2 3 2
3 4 2
3 2 1
2 1 3
5 4 5
2 1 3
4 1 2
4 1 2
4 1 2
4 1 2
4 1 2
4 1 2
4 1 2
4 1 5
4 1 5
4 1 5
4 1 5
4 1 5
4 1 5
4 1 5
4 1 5
1 0 1
0 0 0
0 0 0
0 0 0
0 0 0
0 0 0
0 0 0
0 0 0
0 0 0
0 0 0
0 0 0
0 0 0
0 0 0
0 0 0
0 0 0
0 0 0
0 0 0
0 0 0
0 0 0
0 0 0
0 0 0
0 0 0
0 0 0
0 0 0
0 0 0
0 0 0
0 0 0
0 0 0
0 0 0
0 1 0
0 1 0
0 1 0
0 1 1
0 2 4
0 4 5
1 4 10
1 4 10
0 0 2
0 0 6
4 17 26
31 51 61
62 77 90
81 101 115
90 113 128
90 113 128
84 109 126
84 109 126
81 110 128
82 113 130
83 113 135
82 116 140
82 116 140
82 116 140
80 115 140
79 114 138
78 115 139
80 115 140
80 115 140
78 115 139
78 116 138
80 117 140
80 117 140
78 116 138
77 117 137
77 117 137
77 117 137
77 117 135
77 117 135
77 117 135
77 117 135
76 117 136
75 118 134
74 117 135
74 117 135
74 117 135
74 117 135
74 117 135
74 117 135
74 117 135
73 118 135
73 118 135
73 118 135
73 118 135
72 117 135
72 117 136
72 117 136
72 117 136
72 117 136
72 117 136
72 117 136
72 117 136
72 117 136
72 117 138
72 117 138
72 117 138
72 117 138
72 117 138
72 117 138
72 117 138
72 117 138
74 116 136
74 116 136
74 116 136
74 116 136
74 116 136
74 116 136
74 116 136
74 116 136
74 116 136
74 116 136
74 116 136
74 116 136
74 116 136
74 116 136
74 116 136
74 116 136
74 116 136
74 116 136
74 116 136
74 116 136
74 116 136
74 116 136
74 116 136
74 116 136
74 116 136
74 116 136
74 116 136
74 116 136
74 116 136
74 116 136
74 116 136
75 116 134
77 116 134
79 115 132
89 120 137
97 124 139
81 101 115
39 51 61
0 0 6
0 0 0
2 0 0
3 4 2
0 3 0
0 4 1
0 4 1
0 3 2
0 2 3
0 1 4
0 1 5
0 1 5
0 2 3
0 2 3
0 2 3
0 2 3
0 2 3
0 2 3
0 2 3
0 2 3
0 2 3
0 2 3
0 2 3
0 2 3
0 2 3
0 2 3
0 2 3
0 2 3
0 1 1
0 0 0
0 0 0
0 0 0
0 0 0
0 0 0
0 0 0
0 0 0
0 0 0
0 0 0
0 0 0
0 0 0
0 0 0
0 0 0
0 0 0
0 0 0
0 0 0
0 0 0
0 0 0
0 0 0
0 0 0
0 0 0
0 0 0
0 0 0
0 0 0
0 0 0
0 0 0
0 0 0
0 0 0
1 0 0
2 0 0
3 0 0
3 0 0
2 0 0
1 0 0
2 0 0
3 0 0
3 0 0
2 1 0
1 1 0
1 1 1
1 2 3
0 2 4
0 1 6
0 3 5
0 4 9
0 4 9
0 4 9
0 4 9
0 4 9
1 1 8
4 1 5
6 1 4
6 1 4
6 1 4
6 1 4
6 1 4
6 1 4
6 1 4
6 1 4
6 1 4
6 1 4
6 1 4
6 1 4
6 1 4
6 1 4
6 1 4
4 1 5
4 1 5
4 1 5
4 1 5
4 1 5
4 1 5
4 1 5
4 1 5
4 1 5
4 1 5
4 1 5
4 1 5
4 1 5
4 1 5
4 1 5
4 1 5
4 1 5
6 1 4
6 1 4
6 1 4
6 1 4
6 1 4
6 1 4
6 1 4
6 1 4
6 1 4
6 1 4
6 1 4
6 1 4
6 1 4
6 1 4
6 1 4
6 1 4
4 1 5
4 1 5
4 1 5
4 1 5
4 1 5
4 1 5
4 1 5
4 1 5
4 1 5
4 1 5
4 1 5
4 1 5
4 1 5
4 1 5
4 1 5
4 1 5
4 1 5
6 1 4
6 1 4
6 1 4
6 1 4
6 1 4
6 1 4
6 1 4
6 1 4
6 1 4
6 1 4
6 1 4
6 1 4
6 1 4
4 1 5
3 0 3
3 0 3
3 1 6
1 1 5
1 4 5
1 4 5
1 4 5
1 3 2
1 3 2
0 3 2
0 2 3
0 2 1
0 2 1
1 1 2
2 2 2
3 0 2
3 0 2
3 0 2
3 0 2
2 1 1
2 0 1
2 0 2
2 0 2
2 0 2
2 0 2
2 0 2
2 0 2
2 0 2
2 0 2
2 0 2
2 0 2
2 0 2
2 0 2
2 0 2
2 0 2
1 0 1
0 0 0
0 0 0
0 0 0
0 0 0
0 0 0
0 0 0
0 0 0
0 0 0
0 0 0
0 0 0
0 0 0
0 0 0
0 0 0
0 0 0
0 0 0
0 0 0
0 0 0
0 0 0
0 0 0
0 0 0
0 0 0
0 0 0
0 0 0
0 0 0
0 0 0
0 0 0
0 0 0
0 0 0
0 0 0
0 0 0
0 0 0
0 0 0
0 0 0
0 2 1
0 2 1
0 2 1
0 2 1
0 2 1
0 2 1
0 2 1
0 2 1
0 2 1
0 2 1
0 2 1
0 2 1
1 1 1
1 1 1
1 1 1
1 1 1
2 1 1
3 0 1
3 0 1
2 1 3
1 1 5
0 0 6
1 1 8
1 4 10
0 1 6
0 4 12
12 20 29
47 64 75
70 92 106
90 113 128
93 121 136
89 118 136
79 113 127
77 115 131
77 115 134
76 116 136
76 116 136
76 116 136
76 116 136
76 116 136
76 116 136
76 116 136
76 116 136
76 116 136
76 116 136
76 116 136
76 116 136
76 116 136
76 116 136
75 116 137
76 115 138
76 115 138
76 115 138
76 115 138
76 115 138
76 115 138
76 115 138
76 115 138
76 115 138
76 115 138
76 115 138
76 115 138
76 115 140
76 115 140
76 115 140
76 115 140
77 114 140
77 114 138
77 114 138
77 114 138
78 115 137
79 114 136
79 114 134
79 114 134
79 113 132
82 113 130
96 123 138
99 127 141
71 97 112
31 51 61
14 29 40
3 1 0
3 1 0
4 2 0
4 2 0
4 2 0
4 2 0
4 2 0
4 2 0
4 2 0
4 2 0
4 2 0
4 2 0
4 2 0
4 2 0
3 4 2
5 4 5
5 4 5
4 1 2
4 1 2
4 1 2
4 1 2
4 1 2
4 1 2
4 1 2
4 1 2
4 1 5
4 1 5
4 1 5
4 1 5
4 1 5
4 1 5
4 1 5
4 1 5
1 0 1
0 0 0
0 0 0
0 0 0
0 0 0
0 0 0
0 0 0
0 0 0
0 0 0
0 0 0
0 0 0
0 0 0
0 0 0
0 0 0
0 0 0
0 0 0
0 0 0
0 0 0
0 0 0
0 0 0
0 0 0
0 0 0
0 0 0
0 0 0
0 0 0
0 0 0
0 0 0
0 0 0
0 0 0
0 1 0
0 1 0
0 1 0
0 1 1
0 4 5
0 4 9
3 4 6
1 1 5
1 1 3
0 12 19
31 43 53
68 87 100
81 106 120
90 113 128
90 113 128
90 113 128
84 109 126
81 110 128
81 110 128
79 113 132
83 113 135
82 115 136
82 116 140
82 116 140
82 116 140
80 115 140
78 115 139
80 115 140
80 117 140
80 117 140
80 117 140
80 117 140
80 117 140
78 116 138
77 117 137
77 117 137
77 117 137
77 117 135
77 117 135
77 117 135
77 117 135
76 117 136
75 118 134
74 117 135
74 117 135
74 117 135
74 117 135
74 117 135
74 117 135
74 117 135
73 118 135
73 118 135
73 118 135
73 118 135
72 117 135
72 117 136
72 117 136
72 117 136
72 117 136
72 117 136
72 117 136
72 117 136
72 117 136
72 117 138
72 117 138
72 117 138
72 117 138
72 117 138
72 117 138
72 117 138
72 117 138
74 116 136
74 116 136
74 116 136
74 116 136
74 116 136
74 116 136
74 116 136
74 116 136
74 116 136
74 116 136
74 116 136
74 116 136
74 116 136
74 116 136
74 116 136
74 116 136
74 116 136
74 116 136
74 116 136
74 116 136
74 116 136
74 116 136
74 116 136
74 116 136
74 116 136
74 116 136
74 116 136
74 116 136
74 116 136
74 116 136
74 116 136
75 116 134
77 116 134
79 115 132
89 120 137
97 124 139
81 101 115
39 51 61
0 0 7
0 0 0
2 0 0
3 4 2
0 3 0
0 4 1
0 4 1
0 3 2
0 2 3
0 1 4
0 1 5
0 1 5
0 2 3
0 2 3
0 2 3
0 2 3
0 2 3
0 2 3
0 2 3
0 2 3
0 2 3
0 2 3
0 2 3
0 2 3
0 2 3
0 2 3
0 2 3
0 2 3
0 1 1
0 0 0
0 0 0
0 0 0
0 0 0
0 0 0
0 0 0
0 0 0
0 0 0
0 0 0
0 0 0
0 0 0
0 0 0
0 0 0
0 0 0
0 0 0
0 0 0
0 0 0
0 0 0
0 0 0
0 0 0
0 0 0
0 0 0
0 0 0
0 0 0
0 0 0
0 0 0
0 0 0
0 0 0
1 0 0
2 0 0
3 0 0
3 0 0
3 0 0
3 0 0
3 0 0
3 0 0
3 0 0
3 1 0
3 1 0
2 1 0
1 1 2
0 2 4
0 1 6
0 3 5
0 3 5
0 4 9
0 4 9
0 4 9
0 4 9
0 1 6
3 1 6
6 1 4
6 1 4
6 1 4
6 1 4
6 1 4
6 1 4
6 1 4
3 0 3
3 0 3
3 0 3
3 0 3
3 0 3
3 0 3
3 0 3
3 0 3
3 0 3
3 0 3
3 0 3
3 0 3
3 0 3
3 0 3
3 0 3
3 0 3
3 0 3
3 0 3
3 0 3
3 0 3
3 0 3
3 0 3
3 0 3
3 0 3
3 0 3
3 0 3
3 0 3
3 0 3
3 0 3
3 0 3
3 0 3
3 0 3
3 0 3
3 0 3
3 0 3
3 0 3
3 0 3
3 0 3
3 0 3
3 0 3
3 0 3
3 0 3
3 0 3
3 0 3
3 0 3
3 0 3
3 0 3
3 0 3
3 0 3
3 0 3
3 0 3
3 0 3
3 0 3
3 0 3
3 0 3
3 0 3
3 0 3
3 0 3
3 0 3
3 0 3
3 0 3
3 0 3
3 0 3
3 0 3
3 0 3
3 0 3
6 1 4
6 1 4
6 1 4
6 1 4
6 1 4
3 0 3
3 0 3
3 0 3
4 1 5
2 1 3
1 3 2
1 3 2
1 3 2
1 3 2
1 3 2
1 3 2
1 3 2
0 2 1
0 2 1
1 1 1
2 1 1
3 0 1
3 0 1
3 0 1
3 0 1
2 0 0
2 0 0
2 0 1
2 0 2
2 0 2
2 0 2
2 0 2
2 0 2
2 0 2
2 0 2
2 0 2
2 0 2
2 0 2
2 0 2
2 0 2
2 0 2
1 0 1
0 0 0
0 0 0
0 0 0
0 0 0
0 0 0
0 0 0
0 0 0
0 0 0
0 0 0
0 0 0
0 0 0
0 0 0
0 0 0
0 0 0
0 0 0
0 0 0
0 0 0
0 0 0
0 0 0
0 0 0
0 0 0
0 0 0
0 0 0
0 0 0
0 0 0
0 0 0
0 0 0
0 0 0
0 0 0
0 0 0
0 0 0
0 0 0
0 0 0
0 2 1
0 2 1
0 2 1
0 2 1
0 2 1
0 2 1
0 2 1
0 2 1
0 2 1
0 2 1
0 2 1
0 2 1
1 1 1
1 1 1
1 1 1
1 1 1
2 1 1
3 0 1
3 0 2
3 0 3
2 1 3
1 1 5
0 1 6
0 2 9
0 2 9
0 8 14
4 17 26
23 41 52
55 79 91
83 113 128
97 124 139
89 118 136
79 113 127
77 111 130
77 115 134
76 116 136
76 116 136
76 116 136
76 116 136
76 116 136
76 116 136
76 116 136
76 116 136
76 116 136
76 116 136
76 116 136
76 116 136
76 116 136
76 116 136
75 116 137
76 115 138
76 115 138
76 115 138
76 115 138
76 115 138
76 115 138
76 115 138
76 115 138
76 115 138
76 115 138
76 115 138
76 115 138
76 115 140
76 115 140
76 115 140
76 115 140
77 114 140
77 114 138
77 114 138
77 114 138
78 115 137
79 114 136
79 114 134
79 114 134
78 115 132
79 115 132
86 122 140
86 122 140
71 97 112
47 64 75
31 51 61
4 2 0
4 2 0
4 2 0
4 2 0
4 2 0
4 2 0
4 2 0
4 2 0
4 2 0
4 2 0
4 2 0
4 2 0
4 2 0
4 2 0
4 2 0
6 1 4
6 1 4
4 1 2
4 1 2
4 1 2
4 1 2
4 1 2
4 1 2
4 1 2
4 1 2
4 1 5
4 1 5
4 1 5
4 1 5
4 1 5
4 1 5
4 1 5
4 1 5
1 0 1
0 0 0
0 0 0
0 0 0
0 0 0
0 0 0
0 0 0
0 0 0
0 0 0
0 0 0
0 0 0
0 0 0
0 0 0
0 0 0
0 0 0
0 0 0
0 0 0
0 0 0
0 0 0
0 0 0
0 0 0
0 0 0
0 0 0
0 0 0
0 0 0
0 0 0
0 0 0
0 0 0
0 0 0
0 0 1
0 0 1
0 0 1
0 2 3
1 6 12
0 6 13
0 0 4
0 0 4
12 20 29
39 51 61
68 87 100
88 109 125
93 116 131
93 116 131
90 113 128
84 109 126
81 110 128
82 113 130
82 113 136
82 113 136
82 113 136
82 116 140
82 116 140
82 116 140
82 116 140
80 115 140
80 115 140
80 117 140
80 117 140
80 117 140
80 117 140
80 117 140
80 117 140
78 116 138
77 117 137
77 117 137
77 117 137
77 117 135
77 117 135
77 117 135
77 117 135
76 117 136
75 118 134
74 117 135
74 117 135
74 117 135
74 117 135
74 117 135
74 117 135
74 117 135
73 118 135
73 118 135
73 118 135
73 118 135
72 117 135
72 117 136
72 117 136
72 117 136
72 117 136
72 117 136
72 117 136
72 117 136
72 117 136
72 117 138
72 117 138
72 117 138
72 117 138
72 117 138
72 117 138
72 117 138
72 117 138
74 116 136
74 116 136
74 116 136
74 116 136
74 116 136
74 116 136
74 116 136
74 116 136
74 116 136
74 116 136
74 116 136
74 116 136
74 116 136
74 116 136
74 116 136
74 116 136
74 116 136
74 116 136
74 116 136
74 116 136
74 116 136
74 116 136
74 116 136
74 116 136
74 116 136
74 116 136
74 116 136
74 116 136
74 116 136
74 116 136
74 116 136
75 116 134
77 116 134
79 115 132
89 120 137
97 124 139
81 101 115
39 51 61
0 0 7
0 0 0
2 0 0
3 4 2
0 3 0
0 4 1
0 4 1
0 3 2
0 2 3
0 1 4
0 1 5
0 1 5
0 2 3
0 2 3
0 2 3
0 2 3
0 2 3
0 2 3
0 2 3
0 2 3
0 2 3
0 2 3
0 2 3
0 2 3
0 2 3
0 2 3
0 2 3
0 2 3
0 1 1
0 0 0
0 0 0
0 0 0
0 0 0
0 0 0
0 0 0
0 0 0
0 0 0
0 0 0
0 0 0
0 0 0
0 0 0
0 0 0
0 0 0
0 0 0
0 0 0
0 0 0
0 0 0
0 0 0
0 0 0
0 0 0
0 0 0
0 0 0
0 0 0
0 0 0
0 0 0
0 0 0
0 0 0
1 0 0
2 0 0
2 0 0
3 0 0
4 0 0
4 0 0
4 0 0
3 0 0
3 0 0
4 2 0
4 2 0
3 1 0
1 1 1
0 2 3
0 2 4
0 1 6
0 1 6
0 3 5
0 4 5
0 4 5
0 4 5
0 2 4
1 1 5
2 1 3
3 0 1
4 1 2
4 1 2
4 1 2
4 1 2
3 0 2
2 0 2
2 0 2
2 0 2
2 0 2
2 0 2
2 0 2
2 0 2
2 0 2
1 1 2
1 1 2
1 1 2
1 1 2
1 1 2
1 1 2
1 1 2
1 1 2
1 1 2
1 1 2
1 1 2
1 1 2
1 1 2
1 1 2
1 1 2
1 1 2
1 1 2
2 0 2
2 0 2
2 0 2
2 0 2
2 0 2
2 0 2
2 0 2
2 0 2
2 0 2
2 0 2
2 0 2
2 0 2
2 0 2
2 0 2
2 0 2
2 0 2
1 1 2
1 1 2
1 1 2
1 1 2
1 1 2
1 1 2
1 1 2
1 1 2
1 1 2
1 1 2
1 1 2
1 1 2
1 1 2
1 1 2
1 1 2
1 1 2
1 1 2
2 0 2
2 0 2
2 0 2
2 0 2
2 0 2
2 0 2
2 0 2
2 0 2
3 0 2
4 1 2
4 1 2
4 1 2
4 1 2
4 1 2
3 0 2
2 0 2
2 1 3
2 1 3
1 3 2
1 3 2
1 4 1
1 4 1
1 4 1
2 3 2
2 3 2
2 1 0
2 1 0
2 1 0
2 1 0
4 0 0
4 0 0
4 0 0
4 0 0
2 0 0
2 0 0
3 0 0
3 0 1
2 0 1
2 0 2
2 0 2
2 0 2
2 0 2
2 0 2
2 0 2
2 0 2
2 0 2
2 0 2
2 0 2
2 0 2
1 0 1
0 0 0
0 0 0
0 0 0
0 0 0
0 0 0
0 0 0
0 0 0
0 0 0
0 0 0
0 0 0
0 0 0
0 0 0
0 0 0
0 0 0
0 0 0
0 0 0
0 0 0
0 0 0
0 0 0
0 0 0
0 0 0
0 0 0
0 0 0
0 0 0
0 0 0
0 0 0
0 0 0
0 0 0
0 0 0
0 0 0
0 0 0
0 0 0
0 0 0
0 2 1
0 2 1
0 2 1
0 2 1
0 2 1
0 2 1
0 2 1
0 2 1
0 2 1
0 2 1
0 2 1
0 2 1
1 1 1
1 1 1
1 1 1
1 1 1
2 1 1
3 0 1
3 0 2
3 0 3
2 1 3
1 1 5
0 0 6
1 1 8
1 4 10
0 12 19
4 17 26
14 29 40
31 51 61
81 106 120
99 127 141
89 120 137
77 107 124
77 111 130
77 115 134
76 116 136
76 116 136
76 116 136
76 116 136
76 116 136
76 116 136
76 116 136
76 116 136
76 116 136
76 116 136
76 116 136
76 116 136
76 116 136
76 116 136
75 116 137
76 115 138
76 115 138
76 115 138
76 115 138
76 115 138
76 115 138
76 115 138
76 115 138
76 115 138
76 115 138
76 115 138
76 115 138
76 115 140
76 115 140
76 115 140
76 115 140
77 114 140
77 114 140
77 114 140
77 114 138
77 115 137
77 115 136
76 114 136
77 115 134
78 115 132
78 117 135
86 122 140
89 120 137
71 97 112
55 79 91
47 64 75
4 2 0
4 2 0
4 2 0
4 2 0
4 2 0
7 1 0
7 1 0
7 1 0
7 1 0
7 1 0
7 1 0
7 1 0
7 1 0
7 1 0
7 1 0
7 1 0
7 1 0
7 1 0
7 1 0
7 1 0
4 1 2
4 1 2
4 1 2
4 1 2
4 1 2
4 1 5
4 1 5
4 1 5
4 1 5
4 1 5
4 1 5
4 1 5
4 1 5
1 0 1
0 0 0
0 0 0
0 0 0
0 0 0
0 0 0
0 0 0
0 0 0
0 0 0
0 0 0
0 0 0
0 0 0
0 0 0
0 0 0
0 0 0
0 0 0
0 0 0
0 0 0
0 0 0
0 0 0
0 0 0
0 0 0
0 0 0
0 0 0
0 0 0
0 0 0
0 0 0
0 0 0
0 0 0
0 0 1
0 0 2
0 0 2
0 2 4
2 6 12
0 8 14
0 0 5
0 8 14
31 43 53
79 97 109
95 118 134
95 118 134
93 116 131
90 113 128
84 109 126
84 109 126
81 110 128
83 113 135
82 113 136
82 113 136
82 113 136
82 116 140
82 116 140
82 116 140
82 116 140
80 117 140
80 117 140
80 117 140
80 117 140
80 117 140
80 117 140
80 117 140
80 117 140
78 116 138
77 117 137
77 117 137
77 117 137
77 117 135
77 117 135
77 117 135
77 117 135
76 117 136
75 118 134
74 117 135
74 117 135
74 117 135
74 117 135
74 117 135
74 117 135
74 117 135
73 118 135
73 118 135
73 118 135
73 118 135
72 117 135
72 117 136
72 117 136
72 117 136
72 117 136
72 117 136
72 117 136
72 117 136
72 117 136
72 117 138
72 117 138
72 117 138
72 117 138
72 117 138
72 117 138
72 117 138
72 117 138
74 116 136
74 116 136
74 116 136
74 116 136
74 116 136
74 116 136
74 116 136
74 116 136
74 116 136
74 116 136
74 116 136
74 116 136
74 116 136
74 116 136
74 116 136
74 116 136
74 116 136
74 116 136
74 116 136
74 116 136
74 116 136
74 116 136
74 116 136
74 116 136
74 116 136
74 116 136
74 116 136
74 116 136
74 116 136
74 116 136
74 116 136
75 116 134
77 116 134
79 115 132
89 120 137
97 124 139
81 101 115
39 51 61
0 0 7
0 0 0
2 0 0
3 4 2
0 3 0
0 4 1
0 4 1
0 3 2
0 2 3
0 1 4
0 1 5
0 1 5
0 2 3
0 2 3
0 2 3
0 2 3
0 2 3
0 2 3
0 2 3
0 2 3
0 2 3
0 2 3
0 2 3
0 2 3
0 2 3
0 2 3
0 2 3
0 2 3
0 1 1
0 0 0
0 0 0
0 0 0
0 0 0
0 0 0
0 0 0
0 0 0
0 0 0
0 0 0
0 0 0
0 0 0
0 0 0
0 0 0
0 0 0
0 0 0
0 0 0
0 0 0
0 0 0
0 0 0
0 0 0
0 0 0
0 0 0
0 0 0
0 0 0
0 0 0
0 0 0
0 0 0
0 0 0
1 0 0
2 0 0
2 0 0
3 0 0
4 0 0
4 0 0
4 0 0
3 0 0
3 0 0
4 2 0
4 2 0
4 2 0
2 1 0
1 1 2
0 2 4
0 2 4
0 2 4
0 3 5
0 4 5
0 4 5
0 4 5
0 3 5
0 2 3
0 1 1
1 1 1
2 0 1
3 0 1
3 0 1
3 0 1
2 0 1
1 1 1
1 1 1
1 1 1
1 1 1
1 1 1
1 1 1
1 1 1
1 1 1
0 2 1
0 2 1
0 2 1
0 2 1
0 2 1
0 2 1
0 2 1
0 2 1
0 2 1
0 2 1
0 2 1
0 2 1
0 2 1
0 2 1
0 2 1
0 2 1
0 2 1
1 1 1
1 1 1
1 1 1
1 1 1
1 1 1
1 1 1
1 1 1
1 1 1
1 1 1
1 1 1
1 1 1
1 1 1
1 1 1
1 1 1
1 1 1
1 1 1
0 2 1
0 2 1
0 2 1
0 2 1
0 2 1
0 2 1
0 2 1
0 2 1
0 2 1
0 2 1
0 2 1
0 2 1
0 2 1
0 2 1
0 2 1
0 2 1
0 2 1
1 1 1
1 1 1
1 1 1
1 1 1
1 1 1
1 1 1
1 1 1
1 1 1
2 0 1
3 0 1
3 0 1
3 0 1
3 0 1
3 0 1
2 0 1
1 1 1
1 1 2
1 3 2
1 4 1
1 4 1
1 4 1
1 4 1
1 4 1
3 2 0
2 1 0
3 1 0
3 1 0
3 1 0
3 1 0
4 0 0
4 0 0
4 0 0
4 0 0
3 0 0
3 0 0
3 0 0
3 0 0
2 0 1
2 0 2
2 0 2
2 0 2
2 0 2
2 0 2
2 0 2
2 0 2
2 0 2
2 0 2
2 0 2
2 0 2
1 0 1
0 0 0
0 0 0
0 0 0
0 0 0
0 0 0
0 0 0
0 0 0
0 0 0
0 0 0
0 0 0
0 0 0
0 0 0
0 0 0
0 0 0
0 0 0
0 0 0
0 0 0
0 0 0
0 0 0
0 0 0
0 0 0
0 0 0
0 0 0
0 0 0
0 0 0
0 0 0
0 0 0
0 0 0
0 0 0
0 0 0
0 0 0
0 0 0
0 0 0
0 2 1
0 2 1
0 2 1
0 2 1
0 2 1
0 2 1
0 2 1
0 2 1
0 2 1
0 2 1
0 2 1
0 2 1
1 1 1
1 1 1
1 1 1
1 1 1
2 1 1
3 0 1
3 0 2
3 0 3
2 1 3
1 1 5
0 0 6
1 1 8
0 4 12
2 10 15
0 12 19
4 17 26
23 41 52
71 97 112
97 124 139
93 121 136
79 113 127
77 111 130
77 115 134
76 116 136
76 116 136
76 116 136
76 116 136
76 116 136
76 116 136
76 116 136
76 116 136
76 116 136
76 116 136
76 116 136
76 116 136
76 116 136
76 116 136
75 116 137
76 115 138
76 115 138
76 115 138
76 115 138
76 115 138
76 115 138
76 115 138
76 115 138
76 115 138
76 115 138
76 115 138
76 115 138
76 115 140
76 115 140
76 115 140
76 115 140
77 114 140
77 114 140
77 114 140
77 114 138
77 115 137
77 115 136
75 113 134
77 115 134
78 117 135
83 118 136
86 122 140
83 118 136
70 105 125
55 79 91
55 79 91
4 2 0
4 2 0
4 2 0
4 2 0
4 2 0
7 1 0
7 1 0
7 1 0
7 1 0
7 1 0
7 1 0
7 1 0
7 1 0
7 1 0
7 1 0
7 1 0
7 1 0
7 1 0
7 1 0
7 1 0
4 2 0
4 1 2
4 1 2
4 1 2
4 1 2
4 1 5
4 1 5
4 1 5
4 1 5
4 1 5
4 1 5
4 1 5
4 1 5
1 0 1
0 0 0
0 0 0
0 0 0
0 0 0
0 0 0
0 0 0
0 0 0
0 0 0
0 0 0
0 0 0
0 0 0
0 0 0
0 0 0
0 0 0
0 0 0
0 0 0
0 0 0
0 0 0
0 0 0
0 0 0
0 0 0
0 0 0
0 0 0
0 0 0
0 0 0
0 0 0
0 0 0
0 0 0
0 0 1
0 0 2
0 1 3
0 2 4
1 4 10
0 8 14
0 8 14
12 20 29
47 64 75
88 109 125
97 121 136
93 116 131
88 109 125
84 109 126
84 109 126
81 110 128
85 113 132
83 113 135
83 113 135
82 113 136
82 113 136
82 116 140
82 116 140
82 116 140
82 116 140
80 117 140
80 117 140
80 117 140
80 117 140
80 117 140
80 117 140
80 117 140
80 117 140
78 116 138
77 117 137
77 117 137
77 117 137
77 117 135
77 117 135
77 117 135
77 117 135
76 117 136
75 116 134
74 117 135
74 117 135
74 117 135
74 117 135
74 117 135
74 117 135
74 117 135
73 118 135
73 118 135
73 118 135
73 118 135
72 117 135
72 117 136
72 117 136
73 117 136
73 117 136
73 117 136
73 117 136
73 117 136
73 117 136
73 117 138
73 117 138
73 117 138
73 117 138
73 117 138
73 117 138
73 116 139
73 116 139
74 116 136
74 116 136
74 116 136
74 116 136
74 116 136
74 116 136
74 116 136
74 116 136
74 116 136
74 116 136
74 116 136
74 116 136
74 116 136
74 116 136
74 116 136
74 116 136
74 116 136
74 116 136
74 116 136
74 116 136
74 116 136
74 116 136
74 116 136
74 116 136
74 116 136
74 116 136
74 116 136
74 116 136
74 116 136
74 116 136
74 116 136
75 116 134
77 116 134
79 115 132
89 120 137
97 124 139
81 101 115
39 51 61
0 0 7
0 0 0
2 0 0
3 4 2
0 3 0
0 3 0
0 3 0
0 3 2
0 2 3
0 1 4
0 1 5
0 1 5
0 2 3
0 2 3
0 2 3
0 2 3
0 2 3
0 2 3
0 2 3
0 2 3
0 2 3
0 2 3
0 2 3
0 2 3
0 2 3
0 2 3
0 2 3
0 2 3
0 1 1
0 0 0
0 0 0
0 0 0
0 0 0
0 0 0
0 0 0
0 0 0
0 0 0
0 0 0
0 0 0
0 0 0
0 0 0
0 0 0
0 0 0
0 0 0
0 0 0
0 0 0
0 0 0
0 0 0
0 0 0
0 0 0
0 0 0
0 0 0
0 0 0
0 0 0
0 0 0
0 0 0
0 0 0
1 0 0
2 0 0
3 0 0
3 0 0
4 0 0
4 0 0
4 0 0
3 0 0
3 0 0
4 2 0
4 2 0
4 2 0
3 1 0
2 1 1
1 1 2
0 2 3
0 2 4
0 3 5
0 4 5
0 4 5
0 4 5
0 3 2
0 2 2
0 2 1
0 2 1
1 1 1
2 1 0
2 1 0
2 1 0
1 1 0
0 2 0
0 2 0
0 2 0
0 2 0
0 2 0
0 2 0
0 2 0
0 2 0
0 2 0
0 2 0
0 2 0
0 2 0
0 2 0
0 2 0
0 2 0
0 2 0
0 2 0
0 2 0
0 2 0
0 2 0
0 2 0
0 2 0
0 2 0
0 2 0
0 2 0
0 2 0
0 2 0
0 2 0
0 2 0
0 2 0
0 2 0
0 2 0
0 2 0
0 2 0
0 2 0
0 2 0
0 2 0
0 2 0
0 2 0
0 2 0
0 2 0
0 2 0
0 2 0
0 2 0
0 2 0
0 2 0
0 2 0
0 2 0
0 2 0
0 2 0
0 2 0
0 2 0
0 2 0
0 2 0
0 2 0
0 2 0
0 2 0
0 2 0
0 2 0
0 2 0
0 2 0
0 2 0
0 2 0
0 2 0
0 2 0
0 2 0
1 1 0
2 1 0
2 1 0
2 1 0
2 1 0
2 1 0
1 1 0
1 2 0
1 3 2
1 4 1
1 4 1
1 4 1
1 4 1
1 4 1
1 4 1
3 2 0
2 1 0
4 2 0
4 0 0
4 2 0
4 2 0
4 0 0
4 0 0
4 0 0
4 0 0
3 0 0
3 0 0
3 0 0
3 0 0
2 0 1
2 0 2
2 0 2
2 0 2
2 0 2
2 0 2
2 0 2
2 0 2
2 0 2
2 0 2
2 0 2
2 0 2
1 0 1
0 0 0
0 0 0
0 0 0
0 0 0
0 0 0
0 0 0
0 0 0
0 0 0
0 0 0
0 0 0
0 0 0
0 0 0
0 0 0
0 0 0
0 0 0
0 0 0
0 0 0
0 0 0
0 0 0
0 0 0
0 0 0
0 0 0
0 0 0
0 0 0
0 0 0
0 0 0
0 0 0
0 0 0
0 0 0
0 0 0
0 0 0
0 0 0
0 0 0
0 2 1
0 2 1
0 2 1
0 2 1
0 2 1
0 2 1
0 2 1
0 2 1
0 2 1
0 2 1
0 2 1
0 2 1
1 1 1
1 1 1
1 1 1
1 1 1
2 1 1
3 0 1
3 0 2
3 0 3
2 1 3
1 1 5
0 0 6
1 1 8
0 4 12
2 10 15
0 4 16
0 8 14
24 35 46
68 87 100
93 121 136
93 121 136
82 115 132
79 115 132
75 113 134
76 115 135
76 116 136
76 116 136
76 116 136
76 116 136
76 116 136
76 116 136
76 116 136
76 116 136
76 116 136
76 116 136
76 116 136
76 116 136
76 116 136
75 116 137
76 115 138
76 115 138
76 115 138
76 115 138
76 115 138
76 115 138
76 115 138
76 115 138
76 115 138
76 115 138
76 115 138
76 115 138
76 115 140
76 115 140
76 115 140
76 115 140
77 114 140
77 114 140
77 114 140
77 114 138
77 115 137
77 115 136
75 113 134
76 115 135
82 117 137
86 122 140
86 122 140
78 115 132
71 97 112
55 79 91
55 79 91
4 2 0
4 2 0
4 2 0
4 2 0
4 2 0
7 1 0
7 1 0
7 1 0
7 1 0
7 1 0
7 1 0
7 1 0
7 1 0
7 1 0
7 1 0
7 1 0
7 1 0
7 1 0
4 2 0
4 2 0
4 2 0
4 1 2
4 1 2
4 1 2
4 1 2
4 1 5
4 1 5
4 1 5
4 1 5
4 1 5
4 1 5
4 1 5
4 1 5
1 0 1
0 0 0
0 0 0
0 0 0
0 0 0
0 0 0
0 0 0
0 0 0
0 0 0
0 0 0
0 0 0
0 0 0
0 0 0
0 0 0
0 0 0
0 0 0
0 0 0
0 0 0
0 0 0
0 0 0
0 0 0
0 0 0
0 0 0
0 0 0
0 0 0
0 0 0
0 0 0
0 0 0
0 0 0
0 0 1
0 0 2
0 1 3
0 2 4
0 4 9
0 8 14
0 12 19
14 29 40
39 51 61
68 87 100
88 109 125
88 109 125
88 109 125
84 109 126
84 109 126
85 113 132
85 113 132
83 113 135
83 113 135
82 113 136
82 113 136
80 115 140
82 116 140
82 116 140
82 116 140
80 117 140
80 117 140
80 117 140
80 117 140
80 117 140
80 117 140
80 117 140
80 117 140
78 116 138
77 117 137
77 117 137
77 117 137
77 117 137
77 117 137
77 117 137
77 117 137
76 117 136
75 116 136
74 116 136
74 116 136
74 116 136
74 116 136
74 116 136
74 116 136
74 116 136
73 117 136
72 117 136
72 117 136
72 117 136
72 117 136
72 117 136
73 117 136
74 116 136
74 116 136
74 116 136
74 116 136
74 116 136
75 116 137
74 116 138
74 116 138
74 116 138
74 116 138
74 116 138
74 116 138
74 116 138
74 116 138
74 116 136
74 116 136
74 116 136
74 116 136
74 116 136
74 116 136
74 116 136
74 116 136
74 116 136
74 116 136
74 116 136
74 116 136
74 116 136
74 116 136
74 116 136
74 116 136
74 116 136
74 116 136
74 116 136
74 116 136
74 116 136
74 116 136
74 116 136
74 116 136
74 116 136
74 116 136
74 116 136
74 116 136
74 116 136
74 116 136
74 116 136
75 116 134
77 116 134
79 115 132
89 120 137
97 124 139
81 101 115
39 51 61
0 0 7
0 0 0
2 0 0
3 4 2
0 3 0
0 3 0
0 3 0
0 3 2
0 2 3
0 1 4
0 1 5
0 1 5
0 2 3
0 2 3
0 2 3
0 2 3
0 2 3
0 2 3
0 2 3
0 2 3
0 2 3
0 2 3
0 2 3
0 2 3
0 2 3
0 2 3
0 2 3
0 2 3
0 1 1
0 0 0
0 0 0
0 0 0
0 0 0
0 0 0
0 0 0
0 0 0
0 0 0
0 0 0
0 0 0
0 0 0
0 0 0
0 0 0
0 0 0
0 0 0
0 0 0
0 0 0
0 0 0
0 0 0
0 0 0
0 0 0
0 0 0
0 0 0
0 0 0
0 0 0
0 0 0
0 0 0
0 0 0
1 0 0
2 0 0
3 0 0
3 0 0
3 0 0
3 0 0
3 0 0
3 0 0
3 0 0
4 0 0
4 0 0
3 1 0
3 1 0
2 1 1
1 1 1
0 1 1
0 2 3
0 3 5
0 4 5
0 4 5
0 4 5
0 3 2
0 2 1
0 2 1
0 2 1
0 2 1
1 2 0
1 2 0
1 2 0
1 2 0
0 2 0
0 2 0
0 2 0
0 2 0
0 2 0
0 2 0
0 2 0
0 2 0
0 2 0
0 2 0
0 2 0
0 2 0
0 2 0
0 2 0
0 2 0
0 2 0
0 2 0
0 2 0
0 2 0
0 2 0
0 2 0
0 2 0
0 2 0
0 2 0
0 2 0
0 2 0
0 2 0
0 2 0
0 2 0
0 2 0
0 2 0
0 2 0
0 2 0
0 2 0
0 2 0
0 2 0
0 2 0
0 2 0
0 2 0
0 2 0
0 2 0
0 2 0
0 2 0
0 2 0
0 2 0
0 2 0
0 2 0
0 2 0
0 2 0
0 2 0
0 2 0
0 2 0
0 2 0
0 2 0
0 2 0
0 2 0
0 2 0
0 2 0
0 2 0
0 2 0
0 2 0
0 2 0
0 2 0
0 2 0
0 2 0
0 2 0
1 2 0
1 2 0
1 2 0
1 2 0
1 2 0
1 2 0
1 2 0
1 2 0
0 3 0
1 4 1
1 4 1
1 4 1
0 3 0
3 2 0
3 2 0
3 2 0
2 1 0
3 1 0
3 0 0
4 0 0
4 0 0
4 0 0
4 0 0
4 0 0
4 0 0
3 0 0
3 0 0
2 0 0
2 0 0
2 0 1
2 0 2
2 0 2
2 0 2
2 0 2
2 0 2
2 0 2
2 0 2
2 0 2
2 0 2
2 0 2
2 0 2
1 0 1
0 0 0
0 0 0
0 0 0
0 0 0
0 0 0
0 0 0
0 0 0
0 0 0
0 0 0
0 0 0
0 0 0
0 0 0
0 0 0
0 0 0
0 0 0
0 0 0
0 0 0
0 0 0
0 0 0
0 0 0
0 0 0
0 0 0
0 0 0
0 0 0
0 0 0
0 0 0
0 0 0
0 0 0
0 0 0
0 0 0
0 0 0
0 0 0
0 0 0
0 2 1
0 2 1
0 2 1
0 2 1
0 2 1
0 2 1
0 2 1
0 2 1
0 2 1
0 2 1
0 2 1
0 2 1
1 1 1
1 1 1
1 1 1
1 1 1
2 1 1
3 0 1
3 0 2
3 0 3
2 1 3
1 1 5
0 0 6
1 1 8
0 4 12
2 10 15
0 1 13
0 4 16
14 29 40
55 79 91
83 113 128
93 121 136
85 116 133
83 118 136
75 113 134
76 115 135
76 116 136
76 116 136
76 116 136
76 116 136
76 116 136
76 116 136
76 116 136
76 116 136
76 116 136
76 116 136
76 116 136
76 116 136
76 116 136
75 116 137
76 115 138
76 115 138
76 115 138
76 115 138
76 115 138
76 115 138
76 115 138
76 115 138
76 115 138
76 115 138
76 115 138
76 115 138
76 115 138
76 115 138
76 115 140
76 115 140
77 114 140
77 114 140
77 114 140
77 114 138
77 115 137
77 115 136
76 114 136
76 114 136
80 117 140
86 122 140
82 120 140
76 113 132
71 97 112
55 79 91
55 79 91
3 1 0
3 1 0
3 1 0
3 1 0
4 2 0
4 2 0
4 2 0
4 2 0
4 2 0
4 2 0
4 2 0
4 2 0
4 2 0
4 2 0
4 2 0
4 2 0
4 2 0
4 2 0
3 1 0
2 1 0
2 1 1
2 1 1
2 1 1
2 1 1
2 1 1
2 1 2
2 1 2
2 1 2
2 1 2
2 1 2
2 1 2
2 1 2
2 1 2
1 0 1
0 0 0
0 0 0
0 0 0
0 0 0
0 0 0
0 0 0
0 0 0
0 0 0
0 0 0
0 0 0
0 0 0
0 0 0
0 0 0
0 0 0
0 0 0
0 0 0
0 0 0
0 0 0
0 0 0
0 0 0
0 0 0
0 0 0
0 0 0
0 0 0
0 0 0
0 0 0
0 0 0
0 0 0
0 0 1
0 0 2
0 1 3
0 2 4
0 4 9
1 6 12
2 10 15
12 20 29
24 35 46
47 64 75
70 92 106
90 113 128
93 116 131
83 113 128
77 107 124
81 110 128
83 113 135
82 113 136
82 113 136
82 113 136
82 115 136
82 116 140
82 118 141
82 116 140
82 116 140
80 117 140
80 117 140
80 117 140
80 117 140
80 117 140
80 117 140
80 117 140
80 117 140
78 117 140
78 117 140
78 117 140
77 117 139
77 117 139
75 116 138
75 116 138
76 117 138
76 117 138
75 116 137
75 116 137
75 116 137
75 116 137
75 116 137
75 116 137
75 116 137
75 116 137
73 117 138
73 117 138
73 117 138
73 117 138
73 117 136
73 117 136
74 116 136
75 116 137
75 116 137
75 116 137
75 116 137
75 116 137
75 116 137
75 116 138
75 116 138
75 116 138
75 116 138
75 116 138
75 116 138
74 116 138
74 116 138
74 116 136
74 116 136
74 116 136
74 116 136
74 116 136
74 116 136
74 116 136
74 116 136
74 116 136
74 116 136
74 116 136
74 116 136
74 116 136
74 116 136
74 116 136
74 116 136
74 116 136
74 116 136
74 116 136
74 116 136
74 116 136
74 116 136
74 116 136
74 116 136
74 116 136
74 116 136
74 116 136
74 116 136
74 116 136
74 116 136
74 116 136
75 116 134
77 116 134
79 113 132
89 120 137
97 124 139
81 101 115
39 51 61
0 0 7
0 0 0
2 0 1
3 4 2
0 3 0
0 3 0
0 3 0
0 3 2
0 2 4
0 1 5
0 1 5
0 1 5
0 2 3
0 2 3
0 2 2
0 2 2
0 2 2
0 2 2
0 2 2
0 2 2
0 2 2
0 2 2
0 2 2
0 2 2
0 2 2
0 2 2
0 2 2
0 2 2
0 1 1
0 0 0
0 0 0
0 0 0
0 0 0
0 0 0
0 0 0
0 0 0
0 0 0
0 0 0
0 0 0
0 0 0
0 0 0
0 0 0
0 0 0
0 0 0
0 0 0
0 0 0
0 0 0
0 0 0
0 0 0
0 0 0
0 0 0
0 0 0
0 0 0
0 0 0
0 0 0
0 0 0
0 0 0
1 0 0
1 0 0
2 0 0
3 0 0
3 0 0
2 0 0
3 0 0
3 0 0
3 0 0
3 0 0
3 0 0
1 1 0
2 1 0
1 0 0
1 0 0
0 0 1
0 1 1
0 2 2
0 3 2
0 3 2
0 3 2
0 2 1
0 1 0
0 1 0
0 1 1
0 1 1
0 1 0
0 1 0
0 1 0
0 1 0
0 1 0
0 1 0
0 1 0
0 1 0
0 1 0
0 1 0
0 1 0
0 1 0
0 1 0
0 1 0
0 1 0
0 1 0
0 1 0
0 1 0
0 1 0
0 1 0
0 1 0
0 1 0
0 1 0
0 1 0
0 1 0
0 1 0
0 1 0
0 1 0
0 1 0
0 1 0
0 1 0
0 1 0
0 1 0
0 1 0
0 1 0
0 1 0
0 1 0
0 1 0
0 1 0
0 1 0
0 1 0
0 1 0
0 1 0
0 1 0
0 1 0
0 1 0
0 1 0
0 1 0
0 1 0
0 1 0
0 1 0
0 1 0
0 1 0
0 1 0
0 1 0
0 1 0
0 1 0
0 1 0
0 1 0
0 1 0
0 1 0
0 1 0
0 1 0
0 1 0
0 1 0
0 1 0
0 1 0
0 1 0
0 1 0
0 1 0
0 1 0
0 1 0
0 1 0
0 1 0
0 1 0
0 1 0
0 1 0
1 1 0
1 2 0
1 2 0
1 2 0
1 2 0
1 1 0
1 1 0
1 1 0
1 2 0
1 1 0
2 1 0
2 0 0
3 0 0
3 0 0
3 0 0
3 0 0
3 0 0
3 0 0
3 0 0
3 0 0
2 0 0
1 0 0
1 0 1
1 0 1
1 0 1
1 0 1
1 0 1
1 0 1
1 0 1
1 0 1
1 0 1
1 0 1
1 0 1
1 0 1
1 0 1
0 0 0
0 0 0
0 0 0
0 0 0
0 0 0
0 0 0
0 0 0
0 0 0
0 0 0
0 0 0
0 0 0
0 0 0
0 0 0
0 0 0
0 0 0
0 0 0
0 0 0
0 0 0
0 0 0
0 0 0
0 0 0
0 0 0
0 0 0
0 0 0
0 0 0
0 0 0
0 0 0
0 0 0
0 0 0
0 0 0
0 0 0
0 0 0
0 0 0
0 2 1
0 2 1
0 2 1
0 2 1
0 2 1
0 2 1
0 2 1
0 2 1
0 2 1
0 2 1
0 2 1
0 2 1
1 1 1
1 1 1
1 1 1
1 1 1
2 1 1
3 0 1
3 0 2
3 0 3
2 1 3
1 1 5
0 0 6
0 1 6
0 1 10
0 4 16
0 0 12
0 1 10
14 29 40
53 72 83
84 109 126
89 118 136
85 116 133
79 115 132
75 113 134
76 115 135
75 116 136
75 116 136
75 116 136
75 116 136
75 116 136
75 116 136
75 116 136
75 116 136
75 116 136
75 116 136
75 116 136
75 116 136
75 116 136
75 116 137
77 115 137
77 115 137
77 115 137
77 115 137
77 115 137
77 115 137
77 115 137
77 115 137
77 115 137
77 115 137
77 115 137
77 115 137
77 115 137
77 115 137
76 115 138
76 115 140
77 114 140
77 114 140
77 114 138
77 114 138
77 115 137
77 115 136
76 114 136
76 114 136
80 117 140
82 120 140
82 120 140
76 113 132
70 105 125
70 92 106
55 79 91
2 0 0
2 0 0
2 0 0
2 0 0
2 0 0
2 0 0
2 0 0
2 0 0
2 0 0
2 0 0
2 0 0
2 0 0
2 0 0
2 0 0
2 0 0
2 0 0
2 0 0
2 0 0
1 0 0
0 0 0
0 0 0
0 0 0
0 0 0
0 0 0
0 0 0
0 0 0
0 0 0
0 0 0
0 0 0
0 0 0
0 0 0
0 0 0
0 0 0
0 0 0
0 0 0
0 0 0
0 0 0
0 0 0
0 0 0
0 0 0
0 0 0
0 0 0
0 0 0
0 0 0
0 0 0
0 0 0
0 0 0
0 0 0
0 0 0
0 0 0
0 0 0
0 0 0
0 0 0
0 0 0
0 0 0
0 0 0
0 0 0
0 0 0
0 0 0
0 0 0
0 0 0
0 0 0
0 0 1
0 0 2
0 0 3
0 1 4
0 4 9
0 4 9
0 1 5
0 1 6
2 10 15
24 35 46
53 72 83
81 106 120
93 116 131
90 116 132
84 109 126
83 113 128
81 110 128
79 113 132
79 113 135
79 114 136
82 117 137
82 118 141
82 118 141
82 118 141
80 117 140
80 117 140
80 117 140
80 117 140
80 117 140
80 117 140
80 117 140
80 117 140
80 117 140
80 117 140
80 117 140
78 117 140
78 117 140
77 116 140
76 115 138
75 116 138
74 116 138
74 116 138
74 116 138
74 116 138
74 116 138
74 116 138
74 116 138
74 116 138
74 116 138
74 116 138
74 116 138
74 116 138
74 116 138
74 116 138
74 116 138
74 116 138
75 116 138
76 115 138
76 115 138
76 115 138
76 115 138
76 115 138
76 115 138
76 115 138
76 115 138
76 115 138
76 115 138
76 115 138
75 116 138
74 116 138
74 116 138
74 116 136
74 116 136
74 116 136
74 116 136
74 116 136
74 116 136
74 116 136
74 116 136
74 116 136
74 116 136
74 116 136
74 116 136
74 116 136
74 116 136
74 116 136
74 116 136
74 116 136
74 116 136
74 116 136
74 116 136
74 116 136
74 116 136
74 116 136
74 116 136
74 116 136
74 116 136
74 116 136
74 116 136
74 116 136
74 116 136
74 116 136
75 116 134
77 116 134
79 114 134
89 120 137
97 124 139
81 101 115
39 51 61
0 0 7
0 0 0
2 0 2
3 4 2
0 2 0
0 3 0
0 3 0
0 2 2
0 1 5
0 1 6
0 1 5
0 1 4
0 2 3
0 2 2
0 2 1
0 2 1
0 2 1
0 2 1
0 2 1
0 2 1
0 2 1
0 2 1
0 2 1
0 2 1
0 2 1
0 2 1
0 2 1
0 2 1
0 1 0
0 0 0
0 0 0
0 0 0
0 0 0
0 0 0
0 0 0
0 0 0
0 0 0
0 0 0
0 0 0
0 0 0
0 0 0
0 0 0
0 0 0
0 0 0
0 0 0
0 0 0
0 0 0
0 0 0
0 0 0
0 0 0
0 0 0
0 0 0
0 0 0
0 0 0
0 0 0
0 0 0
0 0 0
0 0 0
0 0 0
1 0 0
2 0 0
2 0 0
2 0 0
2 0 0
2 0 0
2 0 0
2 0 0
2 0 0
0 0 0
0 0 0
0 0 0
0 0 0
0 0 0
0 0 0
0 1 0
0 1 0
0 1 0
0 1 0
0 0 0
0 0 0
0 0 0
0 0 0
0 0 0
0 0 0
0 0 0
0 0 0
0 0 0
0 0 0
0 0 0
0 0 0
0 0 0
0 0 0
0 0 0
0 0 0
0 0 0
0 0 0
0 0 0
0 0 0
0 0 0
0 0 0
0 0 0
0 0 0
0 0 0
0 0 0
0 0 0
0 0 0
0 0 0
0 0 0
0 0 0
0 0 0
0 0 0
0 0 0
0 0 0
0 0 0
0 0 0
0 0 0
0 0 0
0 0 0
0 0 0
0 0 0
0 0 0
0 0 0
0 0 0
0 0 0
0 0 0
0 0 0
0 0 0
0 0 0
0 0 0
0 0 0
0 0 0
0 0 0
0 0 0
0 0 0
0 0 0
0 0 0
0 0 0
0 0 0
0 0 0
0 0 0
0 0 0
0 0 0
0 0 0
0 0 0
0 0 0
0 0 0
0 0 0
0 0 0
0 0 0
0 0 0
0 0 0
0 0 0
0 0 0
0 0 0
0 0 0
0 0 0
0 0 0
0 0 0
0 0 0
0 0 0
0 0 0
0 0 0
0 0 0
0 0 0
0 0 0
0 0 0
0 0 0
0 0 0
0 0 0
0 0 0
0 0 0
1 0 0
2 0 0
2 0 0
2 0 0
2 0 0
2 0 0
2 0 0
2 0 0
2 0 0
1 0 0
0 0 0
0 0 0
0 0 0
0 0 0
0 0 0
0 0 0
0 0 0
0 0 0
0 0 0
0 0 0
0 0 0
0 0 0
0 0 0
0 0 0
0 0 0
0 0 0
0 0 0
0 0 0
0 0 0
0 0 0
0 0 0
0 0 0
0 0 0
0 0 0
0 0 0
0 0 0
0 0 0
0 0 0
0 0 0
0 0 0
0 0 0
0 0 0
0 0 0
0 0 0
0 0 0
0 0 0
0 0 0
0 0 0
0 0 0
0 0 0
0 0 0
0 0 0
0 0 0
0 0 0
0 0 0
0 0 0
0 0 0
0 2 1
0 2 1
0 2 1
0 2 1
0 2 1
0 2 1
0 2 1
0 2 1
0 2 1
0 2 1
0 2 1
0 2 1
1 2 0
1 2 0
1 2 0
1 2 0
2 1 0
3 0 1
3 0 2
3 0 3
3 0 3
3 1 6
1 1 5
0 0 6
0 2 9
0 4 16
0 0 9
0 0 7
12 20 29
53 72 83
81 106 120
83 113 128
79 113 127
78 115 132
76 115 135
75 116 136
74 116 136
74 116 136
74 116 136
74 116 136
74 116 136
74 116 136
74 116 136
74 116 136
74 116 136
74 116 136
74 116 136
74 116 136
74 116 136
75 116 136
76 116 136
76 116 136
76 116 136
76 116 136
76 116 136
76 116 136
76 116 136
76 116 136
76 116 136
76 116 136
76 116 136
76 116 136
76 116 136
76 116 136
75 116 137
76 115 138
77 114 138
77 114 138
77 114 138
77 114 138
77 115 137
77 115 136
76 114 136
77 115 134
78 118 139
82 120 140
82 120 140
75 116 134
71 110 131
70 105 125
70 105 125
1 0 1
1 0 1
1 0 1
1 0 1
1 0 1
1 0 1
1 0 1
1 0 1
1 0 1
1 0 1
1 0 1
1 0 1
1 0 1
1 0 1
1 0 1
1 0 1
1 0 0
1 0 0
0 0 0
0 0 0
0 0 0
0 0 0
0 0 0
0 0 0
0 0 0
0 0 0
0 0 0
0 0 0
0 0 0
0 0 0
0 0 0
0 0 0
0 0 0
0 0 0
0 0 0
0 0 0
0 0 0
0 0 0
0 0 0
0 0 0
0 0 0
0 0 0
0 0 0
0 0 0
0 0 0
0 0 0
0 0 0
0 0 0
0 0 0
0 0 0
0 0 0
0 0 0
0 0 0
0 0 0
0 0 0
0 0 0
0 0 0
0 0 0
0 0 0
0 0 0
0 0 0
0 0 0
0 0 1
0 0 2
0 0 3
0 1 3
1 4 5
0 3 5
0 0 3
0 0 3
0 4 9
4 17 26
23 41 52
53 72 83
81 101 115
90 116 132
93 121 136
85 116 133
81 110 128
77 107 124
77 111 130
76 114 136
82 116 140
82 116 140
82 118 141
80 117 140
80 117 140
80 117 140
80 117 140
80 117 140
80 117 140
80 117 140
80 117 140
80 117 140
80 117 140
80 117 140
80 117 140
80 117 140
78 117 140
77 116 140
76 115 138
75 116 138
74 116 138
74 116 138
74 116 138
74 116 138
74 116 138
74 116 138
74 116 138
74 116 138
74 116 138
74 116 138
74 116 138
74 116 138
74 116 138
74 116 138
75 116 138
75 116 138
76 115 138
76 115 138
76 115 138
76 115 138
76 115 138
76 115 138
76 115 138
76 115 138
76 115 138
76 115 138
76 115 138
76 115 138
75 116 138
75 116 138
75 116 138
74 116 136
74 116 136
74 116 136
74 116 136
74 116 136
74 116 136
74 116 136
74 116 136
74 116 136
74 116 136
74 116 136
74 116 136
74 116 136
74 116 136
74 116 136
74 116 136
74 116 136
74 116 136
74 116 136
74 116 136
74 116 136
74 116 136
74 116 136
74 116 136
74 116 136
74 116 136
74 116 136
74 116 136
74 116 136
74 116 136
74 116 136
75 116 134
77 116 134
79 114 134
89 120 137
97 124 139
81 101 115
39 51 61
0 0 9
0 0 0
2 0 2
3 4 2
0 2 0
0 3 0
0 3 0
0 2 2
0 1 5
0 1 6
0 1 5
0 1 4
0 2 3
0 2 2
0 2 1
0 2 1
0 2 1
0 2 1
0 2 1
0 2 1
0 2 1
0 2 1
0 2 1
0 2 1
0 2 1
0 2 1
0 2 1
0 2 1
0 1 0
0 0 0
0 0 0
0 0 0
0 0 0
0 0 0
0 0 0
0 0 0
0 0 0
0 0 0
0 0 0
0 0 0
0 0 0
0 0 0
0 0 0
0 0 0
0 0 0
0 0 0
0 0 0
0 0 0
0 0 0
0 0 0
0 0 0
0 0 0
0 0 0
0 0 0
0 0 0
0 0 0
0 0 0
0 0 0
0 0 0
0 0 0
1 0 0
1 0 0
1 0 0
1 0 0
1 0 0
1 0 0
1 0 0
1 0 0
0 0 0
0 0 0
0 0 0
0 0 0
0 0 0
0 0 0
0 0 0
0 0 0
0 0 0
0 0 0
0 0 0
0 0 0
0 0 0
0 0 0
0 0 0
0 0 0
0 0 0
0 0 0
0 0 0
0 0 0
0 0 0
0 0 0
0 0 0
0 0 0
0 0 0
0 0 0
0 0 0
0 0 0
0 0 0
0 0 0
0 0 0
0 0 0
0 0 0
0 0 0
0 0 0
0 0 0
0 0 0
0 0 0
0 0 0
0 0 0
0 0 0
0 0 0
0 0 0
0 0 0
0 0 0
0 0 0
0 0 0
0 0 0
0 0 0
0 0 0
0 0 0
0 0 0
0 0 0
0 0 0
0 0 0
0 0 0
0 0 0
0 0 0
0 0 0
0 0 0
0 0 0
0 0 0
0 0 0
0 0 0
0 0 0
0 0 0
0 0 0
0 0 0
0 0 0
0 0 0
0 0 0
0 0 0
0 0 0
0 0 0
0 0 0
0 0 0
0 0 0
0 0 0
0 0 0
0 0 0
0 0 0
0 0 0
0 0 0
0 0 0
0 0 0
0 0 0
0 0 0
0 0 0
0 0 0
0 0 0
0 0 0
0 0 0
0 0 0
0 0 0
0 0 0
0 0 0
0 0 0
0 0 0
0 0 0
0 0 0
0 0 0
0 0 0
0 0 0
0 0 0
1 0 0
1 0 0
1 0 0
1 0 0
1 0 0
1 0 0
1 0 0
1 0 0
0 0 0
0 0 0
0 0 0
0 0 0
0 0 0
0 0 0
0 0 0
0 0 0
0 0 0
0 0 0
0 0 0
0 0 0
0 0 0
0 0 0
0 0 0
0 0 0
0 0 0
0 0 0
0 0 0
0 0 0
0 0 0
0 0 0
0 0 0
0 0 0
0 0 0
0 0 0
0 0 0
0 0 0
0 0 0
0 0 0
0 0 0
0 0 0
0 0 0
0 0 0
0 0 0
0 0 0
0 0 0
0 0 0
0 0 0
0 0 0
0 0 0
0 0 0
0 0 0
0 0 0
0 0 0
0 0 0
0 0 0
0 0 0
0 2 1
0 2 1
0 2 1
0 2 1
0 2 1
0 2 1
0 2 1
0 2 1
0 2 1
0 2 1
0 2 1
0 2 1
1 2 0
1 2 0
1 2 0
1 2 0
2 1 0
3 0 1
3 0 2
3 0 3
3 0 3
3 1 6
3 1 6
2 1 7
0 1 10
2 6 12
0 0 9
0 0 7
12 20 29
53 72 83
81 101 115
83 113 128
79 113 127
78 115 132
76 115 135
75 116 136
74 116 136
74 116 136
74 116 136
74 116 136
74 116 136
74 116 136
74 116 136
74 116 136
74 116 136
74 116 136
74 116 136
74 116 136
74 116 136
75 116 136
76 116 136
76 116 136
76 116 136
76 116 136
76 116 136
76 116 136
76 116 136
76 116 136
76 116 136
76 116 136
76 116 136
76 116 136
76 116 136
76 116 136
76 116 136
77 115 137
77 115 137
77 114 138
77 114 138
77 114 138
77 115 137
77 115 136
76 114 136
78 116 135
78 118 139
78 118 139
78 118 139
75 116 137
71 110 131
71 110 131
70 105 125
0 0 2
0 0 2
0 0 2
0 0 2
0 0 2
0 0 2
0 0 2
0 0 2
0 0 2
0 0 2
0 0 2
0 0 2
0 0 2
0 0 2
0 0 2
0 0 2
0 0 1
0 0 0
0 0 0
0 0 0
0 0 0
0 0 0
0 0 0
0 0 0
0 0 0
0 0 0
0 0 0
0 0 0
0 0 0
0 0 0
0 0 0
0 0 0
0 0 0
0 0 0
0 0 0
0 0 0
0 0 0
0 0 0
0 0 0
0 0 0
0 0 0
0 0 0
0 0 0
0 0 0
0 0 0
0 0 0
0 0 0
0 0 0
0 0 0
0 0 0
0 0 0
0 0 0
0 0 0
0 0 0
0 0 0
0 0 0
0 0 0
0 0 0
0 0 0
0 0 0
0 0 0
0 0 0
0 0 1
0 0 2
0 1 1
0 1 1
0 1 1
0 2 4
0 4 5
0 8 14
0 12 19
4 17 26
4 17 26
23 41 52
53 72 83
84 109 126
97 124 139
91 117 133
77 107 124
70 105 125
70 105 125
76 113 132
80 115 137
82 116 140
82 116 140
80 117 140
80 117 140
80 117 140
80 117 140
80 117 140
80 117 140
80 117 140
80 117 140
80 117 140
80 117 140
80 117 140
80 117 140
80 117 140
80 117 140
80 115 140
77 116 138
75 116 138
74 116 138
74 116 138
74 116 138
74 116 138
74 116 138
74 116 138
74 116 138
74 116 138
74 116 138
74 116 138
74 116 138
74 116 138
74 116 138
74 116 138
75 116 138
76 115 138
76 115 138
76 115 138
76 115 138
76 115 138
76 115 138
76 115 138
76 115 138
76 115 138
76 115 138
76 115 138
76 115 138
76 115 138
76 115 138
76 115 138
76 115 138
74 116 136
74 116 136
74 116 136
74 116 136
74 116 136
74 116 136
74 116 136
74 116 136
74 116 136
74 116 136
74 116 136
74 116 136
74 116 136
74 116 136
74 116 136
74 116 136
74 116 136
74 116 136
74 116 136
74 116 136
74 116 136
74 116 136
74 116 136
74 116 136
74 116 136
74 116 136
74 116 136
74 116 136
74 116 136
74 116 136
74 116 136
75 116 134
77 116 134
79 115 132
89 120 137
97 124 139
81 101 115
39 51 61
0 0 9
0 0 0
2 0 2
3 4 2
0 2 0
0 3 0
0 3 0
0 2 2
0 1 5
0 1 6
0 1 5
0 1 4
0 2 3
0 2 2
0 2 1
0 2 1
0 2 1
0 2 1
0 2 1
0 2 1
0 2 1
0 2 1
0 2 1
0 2 1
0 2 1
0 2 1
0 2 1
0 2 1
0 1 0
0 0 0
0 0 0
0 0 0
0 0 0
0 0 0
0 0 0
0 0 0
0 0 0
0 0 0
0 0 0
0 0 0
0 0 0
0 0 0
0 0 0
0 0 0
0 0 0
0 0 0
0 0 0
0 0 0
0 0 0
0 0 0
0 0 0
0 0 0
0 0 0
0 0 0
0 0 0
0 0 0
0 0 0
0 0 0
0 0 0
0 0 0
0 0 0
0 0 0
0 0 0
0 0 0
0 0 0
0 0 0
0 0 0
0 0 0
0 0 0
0 0 0
0 0 0
0 0 0
0 0 0
0 0 0
0 0 0
0 0 0
0 0 0
0 0 0
0 0 0
0 0 0
0 0 0
0 0 0
0 0 0
0 0 0
0 0 0
0 0 0
0 0 0
0 0 0
0 0 0
0 0 0
0 0 0
0 0 0
0 0 0
0 0 0
0 0 0
0 0 0
0 0 0
0 0 0
0 0 0
0 0 0
0 0 0
0 0 0
0 0 0
0 0 0
0 0 0
0 0 0
0 0 0
0 0 0
0 0 0
0 0 0
0 0 0
0 0 0
0 0 0
0 0 0
0 0 0
0 0 0
0 0 0
0 0 0
0 0 0
0 0 0
0 0 0
0 0 0
0 0 0
0 0 0
0 0 0
0 0 0
0 0 0
0 0 0
0 0 0
0 0 0
0 0 0
0 0 0
0 0 0
0 0 0
0 0 0
0 0 0
0 0 0
0 0 0
0 0 0
0 0 0
0 0 0
0 0 0
0 0 0
0 0 0
0 0 0
0 0 0
0 0 0
0 0 0
0 0 0
0 0 0
0 0 0
0 0 0
0 0 0
0 0 0
0 0 0
0 0 0
0 0 0
0 0 0
0 0 0
0 0 0
0 0 0
0 0 0
0 0 0
0 0 0
0 0 0
0 0 0
0 0 0
0 0 0
0 0 0
0 0 0
0 0 0
0 0 0
0 0 0
0 0 0
0 0 0
0 0 0
0 0 0
0 0 0
0 0 0
0 0 0
0 0 0
0 0 0
0 0 0
0 0 0
0 0 0
0 0 0
0 0 0
0 0 0
0 0 0
0 0 0
0 0 0
0 0 0
0 0 0
0 0 0
0 0 0
0 0 0
0 0 0
0 0 0
0 0 0
0 0 0
0 0 0
0 0 0
0 0 0
0 0 0
0 0 0
0 0 0
0 0 0
0 0 0
0 0 0
0 0 0
0 0 0
0 0 0
0 0 0
0 0 0
0 0 0
0 0 0
0 0 0
0 0 0
0 0 0
0 0 0
0 0 0
0 0 0
0 0 0
0 0 0
0 0 0
0 0 0
0 0 0
0 0 0
0 2 1
0 2 1
0 2 1
0 2 1
0 2 1
0 2 1
0 2 1
0 2 1
0 2 1
0 2 1
0 2 1
0 2 1
1 2 0
1 2 0
1 2 0
1 2 0
2 1 0
3 0 1
3 0 2
3 0 3
3 0 3
3 1 6
3 1 6
3 1 6
2 1 7
6 8 13
0 1 10
0 0 9
12 20 29
47 64 75
71 97 112
84 109 126
82 113 130
79 115 132
76 115 135
73 115 135
74 116 136
74 116 136
74 116 136
74 116 136
74 116 136
74 116 136
74 116 136
74 116 136
74 116 136
74 116 136
74 116 136
74 116 136
74 116 136
75 116 136
76 116 136
76 116 136
76 116 136
76 116 136
76 116 136
76 116 136
76 116 136
76 116 136
76 116 136
76 116 136
76 116 136
76 116 136
76 116 136
76 116 136
76 116 136
76 116 136
77 115 137
77 114 138
77 114 138
77 114 138
77 115 137
77 115 136
77 115 136
78 116 137
78 116 138
78 118 139
78 118 139
75 116 137
72 113 134
71 110 131
70 105 125
0 0 2
0 0 2
0 0 2
0 0 2
0 0 2
0 0 2
0 0 2
0 0 2
0 0 2
0 0 2
0 0 2
0 0 2
0 0 2
0 0 2
0 0 2
0 0 2
0 0 1
0 0 0
0 0 0
0 0 0
0 0 0
0 0 0
0 0 0
0 0 0
0 0 0
0 0 0
0 0 0
0 0 0
0 0 0
0 0 0
0 0 0
0 0 0
0 0 0
0 0 0
0 0 0
0 0 0
0 0 0
0 0 0
0 0 0
0 0 0
0 0 0
0 0 0
0 0 0
0 0 0
0 0 0
0 0 0
0 0 0
0 0 0
0 0 0
0 0 0
0 0 0
0 0 0
0 0 0
0 0 0
0 0 0
0 0 0
0 0 0
0 0 0
0 0 0
0 0 0
0 0 0
0 0 0
0 0 1
0 0 1
0 1 1
0 1 1
0 0 1
0 3 5
1 6 12
0 12 19
4 17 26
0 12 19
0 8 14
0 12 19
31 43 53
70 92 106
91 117 133
90 116 132
81 110 128
77 107 124
77 107 124
77 111 130
79 114 136
80 115 137
82 116 140
80 117 140
80 117 140
80 117 140
80 117 140
80 117 140
80 117 140
80 117 140
80 117 140
80 117 140
80 117 140
80 117 140
80 117 140
80 117 140
80 117 140
80 115 140
77 116 138
75 116 138
74 116 138
74 116 138
74 116 138
74 116 138
74 116 138
74 116 138
74 116 138
74 116 138
74 116 138
74 116 138
74 116 138
74 116 138
74 116 138
74 116 138
75 116 138
76 115 138
76 115 138
76 115 138
76 115 138
76 115 138
76 115 138
76 115 138
76 115 138
76 115 138
76 115 138
76 115 138
76 115 138
76 115 138
76 115 138
76 115 138
76 115 138
74 116 136
74 116 136
74 116 136
74 116 136
74 116 136
74 116 136
74 116 136
74 116 136
74 116 136
74 116 136
74 116 136
74 116 136
74 116 136
74 116 136
74 116 136
74 116 136
74 116 136
74 116 136
74 116 136
74 116 136
74 116 136
74 116 136
74 116 136
74 116 136
74 116 136
74 116 136
74 116 136
74 116 136
74 116 136
74 116 136
74 116 136
75 116 134
77 116 134
79 115 132
89 120 137
97 124 139
81 101 115
39 51 61
0 0 9
0 0 0
2 0 2
3 4 2
0 2 0
0 3 0
0 3 0
0 2 2
0 1 5
0 1 6
0 1 5
0 1 4
0 2 3
0 2 2
0 2 1
0 2 1
0 2 1
0 2 1
0 2 1
0 2 1
0 2 1
0 2 1
0 2 1
0 2 1
0 2 1
0 2 1
0 2 1
0 2 1
0 1 0
0 0 0
0 0 0
0 0 0
0 0 0
0 0 0
0 0 0
0 0 0
0 0 0
0 0 0
0 0 0
0 0 0
0 0 0
0 0 0
0 0 0
0 0 0
0 0 0
0 0 0
0 0 0
0 0 0
0 0 0
0 0 0
0 0 0
0 0 0
0 0 0
0 0 0
0 0 0
0 0 0
0 0 0
0 0 0
0 0 0
0 0 0
0 0 0
0 0 0
0 0 0
0 0 0
0 0 0
0 0 0
0 0 0
0 0 0
0 0 0
0 0 0
0 0 0
0 0 0
0 0 0
0 0 0
0 0 0
0 0 0
0 0 0
0 0 0
0 0 0
0 0 0
0 0 0
0 0 0
0 0 0
0 0 0
0 0 0
0 0 0
0 0 0
0 0 0
0 0 0
0 0 0
0 0 0
0 0 0
0 0 0
0 0 0
0 0 0
0 0 0
0 0 0
0 0 0
0 0 0
0 0 0
0 0 0
0 0 0
0 0 0
0 0 0
0 0 0
0 0 0
0 0 0
0 0 0
0 0 0
0 0 0
0 0 0
0 0 0
0 0 0
0 0 0
0 0 0
0 0 0
0 0 0
0 0 0
0 0 0
0 0 0
0 0 0
0 0 0
0 0 0
0 0 0
0 0 0
0 0 0
0 0 0
0 0 0
0 0 0
0 0 0
0 0 0
0 0 0
0 0 0
0 0 0
0 0 0
0 0 0
0 0 0
0 0 0
0 0 0
0 0 0
0 0 0
0 0 0
0 0 0
0 0 0
0 0 0
0 0 0
0 0 0
0 0 0
0 0 0
0 0 0
0 0 0
0 0 0
0 0 0
0 0 0
0 0 0
0 0 0
0 0 0
0 0 0
0 0 0
0 0 0
0 0 0
0 0 0
0 0 0
0 0 0
0 0 0
0 0 0
0 0 0
0 0 0
0 0 0
0 0 0
0 0 0
0 0 0
0 0 0
0 0 0
0 0 0
0 0 0
0 0 0
0 0 0
0 0 0
0 0 0
0 0 0
0 0 0
0 0 0
0 0 0
0 0 0
0 0 0
0 0 0
0 0 0
0 0 0
0 0 0
0 0 0
0 0 0
0 0 0
0 0 0
0 0 0
0 0 0
0 0 0
0 0 0
0 0 0
0 0 0
0 0 0
0 0 0
0 0 0
0 0 0
0 0 0
0 0 0
0 0 0
0 0 0
0 0 0
0 0 0
0 0 0
0 0 0
0 0 0
0 0 0
0 0 0
0 0 0
0 0 0
0 0 0
0 0 0
0 0 0
0 0 0
0 0 0
0 0 0
0 0 0
0 0 0
0 0 0
0 0 0
0 0 0
0 2 1
0 2 1
0 2 1
0 2 1
0 2 1
0 2 1
0 2 1
0 2 1
0 2 1
0 2 1
0 2 1
0 2 1
1 2 0
1 2 0
1 2 0
1 2 0
2 1 0
3 0 1
3 0 2
3 0 3
3 0 3
3 1 6
3 1 6
3 1 6
2 1 7
2 4 11
0 1 10
0 0 9
12 20 29
39 51 61
70 92 106
84 109 126
82 115 132
83 118 136
76 115 135
73 115 135
74 116 136
74 116 136
74 116 136
74 116 136
74 116 136
74 116 136
74 116 136
74 116 136
74 116 136
74 116 136
74 116 136
74 116 136
74 116 136
75 116 136
76 116 136
76 116 136
76 116 136
76 116 136
76 116 136
76 116 136
76 116 136
76 116 136
76 116 136
76 116 136
76 116 136
76 116 136
76 116 136
76 116 136
76 116 136
76 116 136
77 115 137
77 115 137
77 115 137
77 115 137
77 115 137
77 115 136
77 115 136
78 116 135
77 117 137
77 117 139
77 117 139
75 116 137
75 113 134
71 110 131
71 110 131
0 0 2
0 0 2
0 0 2
0 0 2
0 0 2
0 0 2
0 0 2
0 0 2
0 0 2
0 0 2
0 0 2
0 0 2
0 0 2
0 0 2
0 0 2
0 0 2
0 0 1
0 0 0
0 0 0
0 0 0
0 0 0
0 0 0
0 0 0
0 0 0
0 0 0
0 0 0
0 0 0
0 0 0
0 0 0
0 0 0
0 0 0
0 0 0
0 0 0
0 0 0
0 0 0
0 0 0
0 0 0
0 0 0
0 0 0
0 0 0
0 0 0
0 0 0
0 0 0
0 0 0
0 0 0
0 0 0
0 0 0
0 0 0
0 0 0
0 0 0
0 0 0
0 0 0
0 0 0
0 0 0
0 0 0
0 0 0
0 0 0
0 0 0
0 0 0
0 0 0
0 0 0
0 0 0
0 1 0
0 1 0
0 1 1
0 1 1
0 1 1
0 4 5
1 6 12
2 10 15
0 12 19
0 12 19
0 0 7
0 1 6
12 20 29
47 64 75
70 92 106
81 106 120
81 110 128
82 113 130
82 113 130
79 113 132
79 113 132
80 115 137
82 116 140
82 116 140
82 116 140
80 117 140
80 117 140
80 117 140
80 117 140
80 117 140
80 117 140
80 117 140
80 117 140
80 117 140
80 117 140
80 117 140
80 117 140
80 115 140
77 116 138
75 116 138
74 116 138
74 116 138
74 116 138
74 116 138
74 116 138
74 116 138
74 116 138
74 116 138
74 116 138
74 116 138
74 116 138
74 116 138
74 116 138
74 116 138
75 116 138
76 115 138
76 115 138
76 115 138
76 115 138
76 115 138
76 115 138
76 115 138
76 115 138
76 115 138
76 115 138
76 115 138
76 115 138
76 115 138
76 115 138
76 115 138
76 115 138
74 116 136
74 116 136
74 116 136
74 116 136
74 116 136
74 116 136
74 116 136
74 116 136
74 116 136
74 116 136
74 116 136
74 116 136
74 116 136
74 116 136
74 116 136
74 116 136
74 116 136
74 116 136
74 116 136
74 116 136
74 116 136
74 116 136
74 116 136
74 116 136
74 116 136
74 116 136
74 116 136
74 116 136
74 116 136
74 116 136
74 116 136
75 116 134
77 116 134
79 115 132
89 120 137
97 124 139
81 101 115
39 51 61
0 0 9
0 0 0
2 0 2
3 4 2
0 2 0
0 3 0
0 3 0
0 2 2
0 1 5
0 1 6
0 1 5
0 1 4
0 2 3
0 2 2
0 2 1
0 2 1
0 2 1
0 2 1
0 2 1
0 2 1
0 2 1
0 2 1
0 2 1
0 2 1
0 2 1
0 2 1
0 2 1
0 2 1
0 1 0
0 0 0
0 0 0
0 0 0
0 0 0
0 0 0
0 0 0
0 0 0
0 0 0
0 0 0
0 0 0
0 0 0
0 0 0
0 0 0
0 0 0
0 0 0
0 0 0
0 0 0
0 0 0
0 0 0
0 0 0
0 0 0
0 0 0
0 0 0
0 0 0
0 0 0
0 0 0
0 0 0
0 0 0
0 0 0
0 0 0
0 0 0
0 0 0
0 0 0
0 0 0
0 0 0
0 0 0
0 0 0
0 0 0
0 0 0
0 0 0
0 0 0
0 0 0
0 0 0
0 0 0
0 0 0
0 0 0
0 0 0
0 0 0
0 0 0
0 0 0
0 0 0
0 0 0
0 0 0
0 0 0
0 0 0
0 0 0
0 0 0
0 0 0
0 0 0
0 0 0
0 0 0
0 0 0
0 0 0
0 0 0
0 0 0
0 0 0
0 0 0
0 0 0
0 0 0
0 0 0
0 0 0
0 0 0
0 0 0
0 0 0
0 0 0
0 0 0
0 0 0
0 0 0
0 0 0
0 0 0
0 0 0
0 0 0
0 0 0
0 0 0
0 0 0
0 0 0
0 0 0
0 0 0
0 0 0
0 0 0
0 0 0
0 0 0
0 0 0
0 0 0
0 0 0
0 0 0
0 0 0
0 0 0
0 0 0
0 0 0
0 0 0
0 0 0
0 0 0
0 0 0
0 0 0
0 0 0
0 0 0
0 0 0
0 0 0
0 0 0
0 0 0
0 0 0
0 0 0
0 0 0
0 0 0
0 0 0
0 0 0
0 0 0
0 0 0
0 0 0
0 0 0
0 0 0
0 0 0
0 0 0
0 0 0
0 0 0
0 0 0
0 0 0
0 0 0
0 0 0
0 0 0
0 0 0
0 0 0
0 0 0
0 0 0
0 0 0
0 0 0
0 0 0
0 0 0
0 0 0
0 0 0
0 0 0
0 0 0
0 0 0
0 0 0
0 0 0
0 0 0
0 0 0
0 0 0
0 0 0
0 0 0
0 0 0
0 0 0
0 0 0
0 0 0
0 0 0
0 0 0
0 0 0
0 0 0
0 0 0
0 0 0
0 0 0
0 0 0
0 0 0
0 0 0
0 0 0
0 0 0
0 0 0
0 0 0
0 0 0
0 0 0
0 0 0
0 0 0
0 0 0
0 0 0
0 0 0
0 0 0
0 0 0
0 0 0
0 0 0
0 0 0
0 0 0
0 0 0
0 0 0
0 0 0
0 0 0
0 0 0
0 0 0
0 0 0
0 0 0
0 0 0
0 0 0
0 0 0
0 0 0
0 0 0
0 0 0
0 0 0
0 0 0
0 0 0
0 2 1
0 2 1
0 2 1
0 2 1
0 2 1
0 2 1
0 2 1
0 2 1
0 2 1
0 2 1
0 2 1
0 2 1
1 2 0
1 2 0
1 2 0
1 2 0
2 1 0
3 0 1
3 0 2
3 0 3
3 0 3
4 1 5
4 1 5
3 1 6
2 1 7
2 4 11
0 0 9
0 0 7
4 17 26
31 51 61
68 87 100
81 106 120
85 116 133
83 118 136
76 113 132
73 115 135
74 116 136
74 116 136
74 116 136
74 116 136
74 116 136
74 116 136
74 116 136
74 116 136
74 116 136
74 116 136
74 116 136
74 116 136
74 116 136
75 116 136
76 116 136
76 116 136
76 116 136
76 116 136
76 116 136
76 116 136
76 116 136
76 116 136
76 116 136
76 116 136
76 116 136
76 116 136
76 116 136
76 116 136
76 116 136
76 116 136
77 115 136
77 115 136
77 115 136
77 115 136
77 115 136
77 115 136
77 115 134
78 116 135
78 116 135
77 117 137
77 117 137
77 117 137
77 117 137
76 115 135
76 115 135
0 0 2
0 0 2
0 0 2
0 0 2
0 0 2
0 0 2
0 0 2
0 0 2
0 0 2
0 0 2
0 0 2
0 0 2
0 0 2
0 0 2
0 0 2
0 0 2
0 0 1
0 0 0
0 0 0
0 0 0
0 0 0
0 0 0
0 0 0
0 0 0
0 0 0
0 0 0
0 0 0
0 0 0
0 0 0
0 0 0
0 0 0
0 0 0
0 0 0
0 0 0
0 0 0
0 0 0
0 0 0
0 0 0
0 0 0
0 0 0
0 0 0
0 0 0
0 0 0
0 0 0
0 0 0
0 0 0
0 0 0
0 0 0
0 0 0
0 0 0
0 0 0
0 0 0
0 0 0
0 0 0
0 0 0
0 0 0
0 0 0
0 0 0
0 0 0
0 0 0
0 0 0
0 0 0
0 1 0
0 1 0
0 1 1
0 1 1
0 1 1
0 3 2
0 6 5
2 10 15
2 10 15
0 8 14
1 1 5
1 0 3
6 12 17
24 35 46
47 64 75
68 87 100
81 106 120
85 116 133
85 116 133
82 113 130
77 111 130
82 115 136
82 116 140
82 116 140
82 116 140
80 117 140
80 117 140
80 117 140
80 117 140
82 118 141
82 118 141
80 117 140
80 115 140
80 115 140
80 115 140
80 117 140
82 118 141
80 117 140
77 116 138
75 116 138
74 116 138
74 116 138
74 116 138
74 116 138
74 116 138
74 116 138
74 116 138
74 116 138
74 116 138
74 116 138
74 116 138
74 116 138
74 116 138
74 116 138
75 116 138
76 115 138
76 115 138
76 115 138
76 115 138
76 115 138
76 115 138
76 115 138
76 115 138
76 115 138
76 115 138
76 115 138
76 115 138
76 115 138
76 115 138
76 115 138
76 115 138
74 116 136
74 116 136
74 116 136
74 116 136
74 116 136
74 116 136
74 116 136
74 116 136
74 116 136
74 116 136
74 116 136
74 116 136
74 116 136
74 116 136
74 116 136
74 116 136
74 116 136
74 116 136
74 116 136
74 116 136
74 116 136
74 116 136
74 116 136
74 116 136
74 116 136
74 116 136
74 116 136
74 116 136
74 116 136
74 116 136
74 116 136
75 116 134
77 116 134
79 115 132
89 120 137
97 124 139
81 101 115
39 51 61
0 0 9
0 0 0
2 0 2
3 4 2
0 2 0
0 3 0
0 3 0
0 2 2
0 1 5
0 1 6
0 1 5
0 1 4
0 2 3
0 2 2
0 2 1
0 2 1
0 2 1
0 2 1
0 2 1
0 2 1
0 2 1
0 2 1
0 2 1
0 2 1
0 2 1
0 2 1
0 2 1
0 2 1
0 1 0
0 0 0
0 0 0
0 0 0
0 0 0
0 0 0
0 0 0
0 0 0
0 0 0
0 0 0
0 0 0
0 0 0
0 0 0
0 0 0
0 0 0
0 0 0
0 0 0
0 0 0
0 0 0
0 0 0
0 0 0
0 0 0
0 0 0
0 0 0
0 0 0
0 0 0
0 0 0
0 0 0
0 0 0
0 0 0
0 0 0
0 0 0
0 0 0
0 0 0
0 0 0
0 0 0
0 0 0
0 0 0
0 0 0
0 0 0
0 0 0
0 0 0
0 0 0
0 0 0
0 0 0
0 0 0
0 0 0
0 0 0
0 0 0
0 0 0
0 0 0
0 0 0
0 0 0
0 0 0
0 0 0
0 0 0
0 0 0
0 0 0
0 0 0
0 0 0
0 0 0
0 0 0
0 0 0
0 0 0
0 0 0
0 0 0
0 0 0
0 0 0
0 0 0
0 0 0
0 0 0
0 0 0
0 0 0
0 0 0
0 0 0
0 0 0
0 0 0
0 0 0
0 0 0
0 0 0
0 0 0
0 0 0
0 0 0
0 0 0
0 0 0
0 0 0
0 0 0
0 0 0
0 0 0
0 0 0
0 0 0
0 0 0
0 0 0
0 0 0
0 0 0
0 0 0
0 0 0
0 0 0
0 0 0
0 0 0
0 0 0
0 0 0
0 0 0
0 0 0
0 0 0
0 0 0
0 0 0
0 0 0
0 0 0
0 0 0
0 0 0
0 0 0
0 0 0
0 0 0
0 0 0
0 0 0
0 0 0
0 0 0
0 0 0
0 0 0
0 0 0
0 0 0
0 0 0
0 0 0
0 0 0
0 0 0
0 0 0
0 0 0
0 0 0
0 0 0
0 0 0
0 0 0
0 0 0
0 0 0
0 0 0
0 0 0
0 0 0
0 0 0
0 0 0
0 0 0
0 0 0
0 0 0
0 0 0
0 0 0
0 0 0
0 0 0
0 0 0
0 0 0
0 0 0
0 0 0
0 0 0
0 0 0
0 0 0
0 0 0
0 0 0
0 0 0
0 0 0
0 0 0
0 0 0
0 0 0
0 0 0
0 0 0
0 0 0
0 0 0
0 0 0
0 0 0
0 0 0
0 0 0
0 0 0
0 0 0
0 0 0
0 0 0
0 0 0
0 0 0
0 0 0
0 0 0
0 0 0
0 0 0
0 0 0
0 0 0
0 0 0
0 0 0
0 0 0
0 0 0
0 0 0
0 0 0
0 0 0
0 0 0
0 0 0
0 0 0
0 0 0
0 0 0
0 0 0
0 0 0
0 0 0
0 0 0
0 0 0
0 0 0
0 0 0
0 0 0
0 2 1
0 2 1
0 2 1
0 2 1
0 2 1
0 2 1
0 2 1
0 2 1
0 2 1
0 2 1
0 2 1
0 2 1
1 2 0
1 2 0
1 2 0
1 2 0
2 1 0
3 0 1
3 0 2
3 0 3
3 0 3
4 1 5
4 1 5
3 1 6
2 1 7
2 4 11
0 0 7
0 0 5
6 12 17
31 51 61
55 79 91
77 107 124
85 116 133
83 118 136
76 113 132
73 115 135
74 116 136
74 116 136
74 116 136
74 116 136
74 116 136
74 116 136
74 116 136
74 116 136
74 116 136
74 116 136
74 116 136
74 116 136
74 116 136
75 116 136
76 116 136
76 116 136
76 116 136
76 116 136
76 116 136
76 116 136
76 116 136
76 116 136
76 116 136
76 116 136
76 116 136
76 116 136
76 116 136
76 116 136
76 116 136
76 116 136
77 115 136
77 115 136
77 115 136
77 115 136
77 115 136
77 115 136
77 115 134
78 116 135
78 116 135
77 117 137
77 117 137
77 117 137
78 118 139
78 118 139
78 118 139
0 0 2
0 0 2
0 0 2
0 0 2
0 0 2
0 0 2
0 0 2
0 0 2
0 0 2
0 0 2
0 0 2
0 0 2
0 0 2
0 0 2
0 0 2
0 0 2
0 0 1
0 0 0
0 0 0
0 0 0
0 0 0
0 0 0
0 0 0
0 0 0
0 0 0
0 0 0
0 0 0
0 0 0
0 0 0
0 0 0
0 0 0
0 0 0
0 0 0
0 0 0
0 0 0
0 0 0
0 0 0
0 0 0
0 0 0
0 0 0
0 0 0
0 0 0
0 0 0
0 0 0
0 0 0
0 0 0
0 0 0
0 0 0
0 0 0
0 0 0
0 0 0
0 0 0
0 0 0
0 0 0
0 0 0
0 0 0
0 0 0
0 0 0
0 0 0
0 0 0
0 0 0
0 0 0
0 1 0
0 1 0
0 1 0
0 1 0
0 2 0
0 3 2
0 6 5
0 6 5
0 6 5
0 4 5
0 2 4
1 1 5
0 4 9
4 17 26
24 35 46
47 64 75
70 92 106
83 113 128
91 117 133
85 116 133
82 113 130
82 115 136
82 116 140
82 116 140
82 116 140
80 117 140
80 117 140
80 117 140
80 117 140
82 118 141
82 118 141
80 117 140
77 114 138
77 114 138
77 114 138
80 117 140
82 118 141
82 118 141
77 115 139
75 116 137
74 116 138
74 116 138
74 116 138
74 116 138
74 116 138
74 116 138
74 116 138
74 116 138
74 116 138
74 116 138
74 116 138
74 116 138
74 116 138
74 116 138
75 116 138
76 115 138
76 115 138
76 115 138
76 115 138
76 115 138
76 115 138
76 115 138
76 115 138
76 115 138
76 115 138
76 115 138
76 115 138
76 115 138
76 115 138
76 115 138
76 115 138
74 116 136
74 116 136
74 116 136
74 116 136
74 116 136
74 116 136
74 116 136
74 116 136
74 116 136
74 116 136
74 116 136
74 116 136
74 116 136
74 116 136
74 116 136
74 116 136
74 116 136
74 116 136
74 116 136
74 116 136
74 116 136
74 116 136
74 116 136
74 116 136
74 116 136
74 116 136
74 116 136
74 116 136
74 116 136
74 116 136
74 116 136
75 116 134
77 116 134
79 115 132
89 120 137
97 124 139
81 101 115
39 51 61
0 0 9
0 0 0
2 0 2
3 4 2
0 2 0
0 3 0
0 3 2
0 2 3
0 1 5
0 1 6
0 1 5
0 1 4
0 2 3
0 2 2
0 2 1
0 2 1
0 2 1
0 2 1
0 2 1
0 2 1
0 2 1
0 2 1
0 2 1
0 2 1
0 2 1
0 2 1
0 2 1
0 2 1
0 1 0
0 0 0
0 0 0
0 0 0
0 0 0
0 0 0
0 0 0
0 0 0
0 0 0
0 0 0
0 0 0
0 0 0
0 0 0
0 0 0
0 0 0
0 0 0
0 0 0
0 0 0
0 0 0
0 0 0
0 0 0
0 0 0
0 0 0
0 0 0
0 0 0
0 0 0
0 0 0
0 0 0
0 0 0
0 0 0
0 0 0
0 0 0
0 0 0
0 0 0
0 0 0
0 0 0
0 0 0
0 0 0
0 0 0
0 0 0
0 0 0
0 0 0
0 0 0
0 0 0
0 0 0
0 0 0
0 0 0
0 0 0
0 0 0
0 0 0
0 0 0
0 0 0
0 0 0
0 0 0
0 0 0
0 0 0
0 0 0
0 0 0
0 0 0
0 0 0
0 0 0
0 0 0
0 0 0
0 0 0
0 0 0
0 0 0
0 0 0
0 0 0
0 0 0
0 0 0
0 0 0
0 0 0
0 0 0
0 0 0
0 0 0
0 0 0
0 0 0
0 0 0
0 0 0
0 0 0
0 0 0
0 0 0
0 0 0
0 0 0
0 0 0
0 0 0
0 0 0
0 0 0
0 0 0
0 0 0
0 0 0
0 0 0
0 0 0
0 0 0
0 0 0
0 0 0
0 0 0
0 0 0
0 0 0
0 0 0
0 0 0
0 0 0
0 0 0
0 0 0
0 0 0
0 0 0
0 0 0
0 0 0
0 0 0
0 0 0
0 0 0
0 0 0
0 0 0
0 0 0
0 0 0
0 0 0
0 0 0
0 0 0
0 0 0
0 0 0
0 0 0
0 0 0
0 0 0
0 0 0
0 0 0
0 0 0
0 0 0
0 0 0
0 0 0
0 0 0
0 0 0
0 0 0
0 0 0
0 0 0
0 0 0
0 0 0
0 0 0
0 0 0
0 0 0
0 0 0
0 0 0
0 0 0
0 0 0
0 0 0
0 0 0
0 0 0
0 0 0
0 0 0
0 0 0
0 0 0
0 0 0
0 0 0
0 0 0
0 0 0
0 0 0
0 0 0
0 0 0
0 0 0
0 0 0
0 0 0
0 0 0
0 0 0
0 0 0
0 0 0
0 0 0
0 0 0
0 0 0
0 0 0
0 0 0
0 0 0
0 0 0
0 0 0
0 0 0
0 0 0
0 0 0
0 0 0
0 0 0
0 0 0
0 0 0
0 0 0
0 0 0
0 0 0
0 0 0
0 0 0
0 0 0
0 0 0
0 0 0
0 0 0
0 0 0
0 0 0
0 0 0
0 0 0
0 0 0
0 0 0
0 0 0
0 0 0
0 0 0
0 0 0
0 0 0
0 0 0
0 2 1
0 2 1
0 2 1
0 2 1
0 2 1
0 2 1
0 2 1
0 2 1
0 2 1
0 2 1
0 2 1
0 2 1
1 2 0
1 2 0
1 2 0
1 2 0
2 1 0
3 0 1
3 0 2
3 0 3
3 0 3
4 1 5
4 1 5
3 1 6
2 1 7
2 4 11
0 0 7
0 0 4
6 12 17
31 43 53
55 79 91
77 107 124
89 118 136
83 118 136
75 113 134
72 113 134
74 116 136
74 116 136
74 116 136
74 116 136
74 116 136
74 116 136
74 116 136
74 116 136
74 116 136
74 116 136
74 116 136
74 116 136
74 116 136
75 116 136
76 116 136
76 116 136
76 116 136
76 116 136
76 116 136
76 116 136
76 116 136
76 116 136
76 116 136
76 116 136
76 116 136
76 116 136
76 116 136
76 116 136
76 116 136
76 116 136
77 115 136
77 115 136
77 115 136
77 115 136
77 115 137
78 116 137
78 116 135
78 116 135
78 116 135
77 117 137
77 117 137
77 117 137
78 118 139
78 118 139
78 118 139
0 0 2
0 0 2
0 0 2
0 0 2
0 0 2
0 0 2
0 0 2
0 0 2
0 0 2
0 0 2
0 0 2
0 0 2
0 0 2
0 0 2
0 0 2
0 0 2
0 0 1
0 0 0
0 0 0
0 0 0
0 0 0
0 0 0
0 0 0
0 0 0
0 0 0
0 0 0
0 0 0
0 0 0
0 0 0
0 0 0
0 0 0
0 0 0
0 0 0
0 0 0
0 0 0
0 0 0
0 0 0
0 0 0
0 0 0
0 0 0
0 0 0
0 0 0
0 0 0
0 0 0
0 0 0
0 0 0
0 0 0
0 0 0
0 0 0
0 0 0
0 0 0
0 0 0
0 0 0
0 0 0
0 0 0
0 0 0
0 0 0
0 0 0
0 0 0
0 0 0
0 0 0
0 0 0
0 1 0
0 1 0
0 1 0
0 1 0
0 2 0
0 3 0
0 4 1
0 3 2
0 3 2
0 4 5
1 4 5
1 4 10
0 3 5
0 4 12
4 17 26
23 41 52
55 79 91
81 106 120
96 123 138
96 123 138
89 118 136
85 116 133
82 113 136
79 114 136
80 115 137
78 115 139
80 115 140
80 117 140
80 117 140
82 118 141
82 118 141
80 117 140
76 113 137
76 112 136
76 113 137
80 117 140
82 118 141
82 118 141
77 115 139
75 116 137
74 116 138
74 116 138
74 116 138
74 116 138
74 116 138
74 116 138
74 116 138
74 116 138
74 116 138
74 116 138
74 116 138
74 116 138
74 116 138
74 116 138
75 116 138
76 115 138
76 115 138
76 115 138
76 115 138
76 115 138
76 115 138
76 115 138
76 115 138
76 115 138
76 115 138
76 115 138
76 115 138
76 115 138
76 115 138
76 115 138
76 115 138
74 116 136
74 116 136
74 116 136
74 116 136
74 116 136
74 116 136
74 116 136
74 116 136
74 116 136
74 116 136
74 116 136
74 116 136
74 116 136
74 116 136
74 116 136
74 116 136
74 116 136
74 116 136
74 116 136
74 116 136
74 116 136
74 116 136
74 116 136
74 116 136
74 116 136
74 116 136
74 116 136
74 116 136
74 116 136
74 116 136
74 116 136
75 116 134
77 116 134
79 115 132
89 120 137
97 124 139
81 101 115
39 51 61
0 0 9
0 0 0
2 1 3
3 4 6
0 2 0
0 3 0
0 3 2
0 2 3
0 1 5
0 1 6
0 1 6
0 1 5
0 2 3
0 2 2
0 2 1
0 2 1
0 2 1
0 2 1
0 2 1
0 2 1
0 2 1
0 2 1
0 2 1
0 2 1
0 2 1
0 2 1
0 2 1
0 2 1
0 1 0
0 0 0
0 0 0
0 0 0
0 0 0
0 0 0
0 0 0
0 0 0
0 0 0
0 0 0
0 0 0
0 0 0
0 0 0
0 0 0
0 0 0
0 0 0
0 0 0
0 0 0
0 0 0
0 0 0
0 0 0
0 0 0
0 0 0
0 0 0
0 0 0
0 0 0
0 0 0
0 0 0
0 0 0
0 0 0
0 0 0
0 0 0
0 0 0
0 0 0
0 0 0
0 0 0
0 0 0
0 0 0
0 0 0
0 0 0
0 0 0
0 0 0
0 0 0
0 0 0
0 0 0
0 0 0
0 0 0
0 0 0
0 0 0
0 0 0
0 0 0
0 0 0
0 0 0
0 0 0
0 0 0
0 0 0
0 0 0
0 0 0
0 0 0
0 0 0
0 0 0
0 0 0
0 0 0
0 0 0
0 0 0
0 0 0
0 0 0
0 0 0
0 0 0
0 0 0
0 0 0
0 0 0
0 0 0
0 0 0
0 0 0
0 0 0
0 0 0
0 0 0
0 0 0
0 0 0
0 0 0
0 0 0
0 0 0
0 0 0
0 0 0
0 0 0
0 0 0
0 0 0
0 0 0
0 0 0
0 0 0
0 0 0
0 0 0
0 0 0
0 0 0
0 0 0
0 0 0
0 0 0
0 0 0
0 0 0
0 0 0
0 0 0
0 0 0
0 0 0
0 0 0
0 0 0
0 0 0
0 0 0
0 0 0
0 0 0
0 0 0
0 0 0
0 0 0
0 0 0
0 0 0
0 0 0
0 0 0
0 0 0
0 0 0
0 0 0
0 0 0
0 0 0
0 0 0
0 0 0
0 0 0
0 0 0
0 0 0
0 0 0
0 0 0
0 0 0
0 0 0
0 0 0
0 0 0
0 0 0
0 0 0
0 0 0
0 0 0
0 0 0
0 0 0
0 0 0
0 0 0
0 0 0
0 0 0
0 0 0
0 0 0
0 0 0
0 0 0
0 0 0
0 0 0
0 0 0
0 0 0
0 0 0
0 0 0
0 0 0
0 0 0
0 0 0
0 0 0
0 0 0
0 0 0
0 0 0
0 0 0
0 0 0
0 0 0
0 0 0
0 0 0
0 0 0
0 0 0
0 0 0
0 0 0
0 0 0
0 0 0
0 0 0
0 0 0
0 0 0
0 0 0
0 0 0
0 0 0
0 0 0
0 0 0
0 0 0
0 0 0
0 0 0
0 0 0
0 0 0
0 0 0
0 0 0
0 0 0
0 0 0
0 0 0
0 0 0
0 0 0
0 0 0
0 0 0
0 0 0
0 0 0
0 0 0
0 0 0
0 0 0
0 0 0
0 0 0
0 2 1
0 2 1
0 2 1
0 2 1
0 2 1
0 2 1
0 2 1
0 2 1
0 2 1
0 2 1
0 2 1
0 2 1
1 2 0
1 2 0
1 2 0
1 2 0
2 1 0
3 0 1
3 0 2
3 0 3
3 0 3
4 1 5
4 1 5
3 1 6
2 1 7
2 4 11
0 1 10
1 1 8
2 10 15
24 35 46
53 72 83
81 106 120
89 120 137
86 121 140
75 113 134
72 113 134
74 116 136
74 116 136
74 116 136
74 116 136
74 116 136
74 116 136
74 116 136
74 116 136
74 116 136
74 116 136
74 116 136
74 116 136
74 116 136
75 116 136
76 116 136
76 116 136
76 116 136
76 116 136
76 116 136
76 116 136
76 116 136
76 116 136
76 116 136
76 116 136
76 116 136
76 116 136
76 116 136
76 116 136
76 116 136
76 116 136
77 115 136
77 115 137
77 115 137
77 115 137
77 115 137
78 116 137
78 116 135
78 116 135
78 116 135
77 117 137
77 117 137
77 117 137
78 118 139
78 118 139
78 118 139
0 0 2
0 0 2
0 0 2
0 0 2
0 0 2
0 0 2
0 0 2
0 0 2
0 0 2
0 0 2
0 0 2
0 0 2
0 0 2
0 0 2
0 0 2
0 0 2
0 0 1
0 0 0
0 0 0
0 0 0
0 0 0
0 0 0
0 0 0
0 0 0
0 0 0
0 0 0
0 0 0
0 0 0
0 0 0
0 0 0
0 0 0
0 0 0
0 0 0
0 0 0
0 0 0
0 0 0
0 0 0
0 0 0
0 0 0
0 0 0
0 0 0
0 0 0
0 0 0
0 0 0
0 0 0
0 0 0
0 0 0
0 0 0
0 0 0
0 0 0
0 0 0
0 0 0
0 0 0
0 0 0
0 0 0
0 0 0
0 0 0
0 0 0
0 0 0
0 0 0
0 0 0
0 0 0
1 1 0
1 2 0
1 2 0
1 2 0
0 3 0
1 4 1
0 3 0
0 3 0
0 4 1
0 5 1
0 6 5
0 6 5
0 4 5
0 3 5
0 8 14
14 29 40
31 51 61
70 92 106
90 116 132
99 127 141
96 123 138
85 116 133
79 113 132
77 111 130
79 113 135
79 114 138
78 115 139
80 115 140
80 117 140
82 118 141
82 118 141
80 117 140
76 113 137
75 113 134
76 113 137
80 117 140
82 118 141
82 118 141
77 116 139
74 116 136
74 116 138
74 116 138
74 116 138
74 116 138
74 116 138
74 116 138
74 116 138
74 116 138
74 116 138
74 116 138
74 116 138
74 116 138
74 116 138
74 116 138
75 116 138
76 115 138
76 115 138
76 115 138
76 115 138
76 115 138
76 115 138
76 115 138
76 115 138
76 115 138
76 115 138
76 115 138
76 115 138
76 115 138
76 115 138
76 115 138
76 115 138
74 116 136
74 116 136
74 116 136
74 116 136
74 116 136
74 116 136
74 116 136
74 116 136
74 116 136
74 116 136
74 116 136
74 116 136
74 116 136
74 116 136
74 116 136
74 116 136
74 116 136
74 116 136
74 116 136
74 116 136
74 116 136
74 116 136
74 116 136
74 116 136
74 116 136
74 116 136
74 116 136
74 116 136
74 116 136
74 116 136
74 116 136
75 116 134
77 116 134
79 115 132
89 120 137
97 124 139
81 101 115
39 51 61
0 0 9
0 0 0
2 1 3
3 4 6
0 2 1
0 3 0
0 3 2
0 2 3
0 1 6
1 1 8
0 1 6
0 1 6
0 2 4
0 2 2
0 2 1
0 2 1
0 2 1
0 2 1
0 2 1
0 2 1
0 2 1
0 2 1
0 2 1
0 2 1
0 2 1
0 2 1
0 2 1
0 2 1
0 1 0
0 0 0
0 0 0
0 0 0
0 0 0
0 0 0
0 0 0
0 0 0
0 0 0
0 0 0
0 0 0
0 0 0
0 0 0
0 0 0
0 0 0
0 0 0
0 0 0
0 0 0
0 0 0
0 0 0
0 0 0
0 0 0
0 0 0
0 0 0
0 0 0
0 0 0
0 0 0
0 0 0
0 0 0
0 0 0
0 0 0
0 0 0
0 0 0
0 0 0
0 0 0
0 0 0
0 0 0
0 0 0
0 0 0
0 0 0
0 0 0
0 0 0
0 0 0
0 0 0
0 0 0
0 0 0
0 0 0
0 0 0
0 0 0
0 0 0
0 0 0
0 0 0
0 0 0
0 0 0
0 0 0
0 0 0
0 0 0
0 0 0
0 0 0
0 0 0
0 0 0
0 0 0
0 0 0
0 0 0
0 0 0
0 0 0
0 0 0
0 0 0
0 0 0
0 0 0
0 0 0
0 0 0
0 0 0
0 0 0
0 0 0
0 0 0
0 0 0
0 0 0
0 0 0
0 0 0
0 0 0
0 0 0
0 0 0
0 0 0
0 0 0
0 0 0
0 0 0
0 0 0
0 0 0
0 0 0
0 0 0
0 0 0
0 0 0
0 0 0
0 0 0
0 0 0
0 0 0
0 0 0
0 0 0
0 0 0
0 0 0
0 0 0
0 0 0
0 0 0
0 0 0
0 0 0
0 0 0
0 0 0
0 0 0
0 0 0
0 0 0
0 0 0
0 0 0
0 0 0
0 0 0
0 0 0
0 0 0
0 0 0
0 0 0
0 0 0
0 0 0
0 0 0
0 0 0
0 0 0
0 0 0
0 0 0
0 0 0
0 0 0
0 0 0
0 0 0
0 0 0
0 0 0
0 0 0
0 0 0
0 0 0
0 0 0
0 0 0
0 0 0
0 0 0
0 0 0
0 0 0
0 0 0
0 0 0
0 0 0
0 0 0
0 0 0
0 0 0
0 0 0
0 0 0
0 0 0
0 0 0
0 0 0
0 0 0
0 0 0
0 0 0
0 0 0
0 0 0
0 0 0
0 0 0
0 0 0
0 0 0
0 0 0
0 0 0
0 0 0
0 0 0
0 0 0
0 0 0
0 0 0
0 0 0
0 0 0
0 0 0
0 0 0
0 0 0
0 0 0
0 0 0
0 0 0
0 0 0
0 0 0
0 0 0
0 0 0
0 0 0
0 0 0
0 0 0
0 0 0
0 0 0
0 0 0
0 0 0
0 0 0
0 0 0
0 0 0
0 0 0
0 0 0
0 0 0
0 0 0
0 0 0
0 0 0
0 0 0
0 0 0
0 0 0
0 0 0
1 1 1
1 1 1
1 1 1
1 1 1
1 1 1
1 1 1
1 1 1
1 1 1
1 1 1
1 1 1
1 1 1
1 1 1
1 1 0
1 2 0
1 2 0
1 2 0
2 1 0
3 0 1
3 0 2
3 0 3
3 0 3
4 1 5
4 1 5
4 1 5
3 1 6
2 4 11
0 1 13
0 4 16
0 12 19
14 29 40
47 64 75
81 101 115
96 123 138
87 124 142
76 113 132
72 113 134
74 116 136
74 116 136
74 116 136
74 116 136
74 116 136
74 116 136
74 116 136
74 116 136
74 116 136
74 116 136
74 116 136
74 116 136
74 116 136
75 116 136
76 116 136
76 116 136
76 116 136
76 116 136
76 116 136
76 116 136
76 116 136
76 116 136
76 116 136
76 116 136
76 116 136
76 116 136
76 116 136
76 116 136
76 116 136
76 116 136
77 115 137
77 114 138
77 114 138
77 114 138
77 115 137
77 115 136
77 115 136
77 115 136
77 116 137
77 117 137
77 117 137
77 117 137
77 117 137
77 117 137
77 117 139
0 0 2
0 0 2
0 0 2
0 0 2
0 0 2
0 0 2
0 0 2
0 0 2
0 0 2
0 0 2
0 0 2
0 0 2
0 0 2
0 0 2
0 0 2
0 0 2
0 0 1
0 0 0
0 0 0
0 0 0
0 0 0
0 0 0
0 0 0
0 0 0
0 0 0
0 0 0
0 0 0
0 0 0
0 0 0
0 0 0
0 0 0
0 0 0
0 0 0
0 0 0
0 0 0
0 0 0
0 0 0
0 0 0
0 0 0
0 0 0
0 0 0
0 0 0
0 0 0
0 0 0
0 0 0
0 0 0
0 0 0
0 0 0
0 0 0
0 0 0
0 0 0
0 0 0
0 0 0
0 0 0
0 0 0
0 0 0
0 0 0
0 0 0
0 0 0
0 0 0
0 0 0
0 0 0
1 1 0
1 2 0
1 2 0
1 2 0
0 3 0
1 4 1
0 3 0
0 3 0
0 4 1
0 6 5
0 6 5
0 6 5
0 6 5
0 4 9
0 8 14
4 17 26
24 35 46
47 64 75
70 92 106
90 116 132
96 123 138
89 120 137
82 115 132
79 113 135
79 114 138
79 114 138
78 115 139
80 115 140
80 117 140
82 118 141
82 118 141
80 117 140
76 113 137
75 113 134
76 113 137
80 117 140
82 118 141
82 118 141
77 116 139
74 116 136
74 116 138
74 116 138
74 116 138
74 116 138
74 116 138
74 116 138
74 116 138
74 116 138
74 116 138
74 116 138
74 116 138
74 116 138
74 116 138
74 116 138
75 116 138
76 115 138
76 115 138
76 115 138
76 115 138
76 115 138
76 115 138
76 115 138
76 115 138
76 115 138
76 115 138
76 115 138
76 115 138
76 115 138
76 115 138
76 115 138
76 115 138
74 116 136
74 116 136
74 116 136
74 116 136
74 116 136
74 116 136
74 116 136
74 116 136
74 116 136
74 116 136
74 116 136
74 116 136
74 116 136
74 116 136
74 116 136
74 116 136
74 116 136
74 116 136
74 116 136
74 116 136
74 116 136
74 116 136
74 116 136
74 116 136
74 116 136
74 116 136
74 116 136
74 116 136
74 116 136
74 116 136
74 116 136
75 116 134
77 116 134
79 115 132
89 120 137
97 124 139
81 101 115
39 51 61
0 0 9
0 0 0
2 1 3
3 4 6
0 2 1
0 3 0
0 3 2
0 2 3
0 1 6
1 1 8
0 1 6
0 1 6
0 2 4
0 2 2
0 2 1
0 2 1
0 2 1
0 2 1
0 2 1
0 2 1
0 2 1
0 2 1
0 2 1
0 2 1
0 2 1
0 2 1
0 2 1
0 2 1
0 1 0
0 0 0
0 0 0
0 0 0
0 0 0
0 0 0
0 0 0
0 0 0
0 0 0
0 0 0
0 0 0
0 0 0
0 0 0
0 0 0
0 0 0
0 0 0
0 0 0
0 0 0
0 0 0
0 0 0
0 0 0
0 0 0
0 0 0
0 0 0
0 0 0
0 0 0
0 0 0
0 0 0
0 0 0
0 0 0
0 0 0
0 0 0
0 0 0
0 0 0
0 0 0
0 0 0
0 0 0
0 0 0
0 0 0
0 0 0
0 0 0
0 0 0
0 0 0
0 0 0
0 0 0
0 0 0
0 0 0
0 0 0
0 0 0
0 0 0
0 0 0
0 0 0
0 0 0
0 0 0
0 0 0
0 0 0
0 0 0
0 0 0
0 0 0
0 0 0
0 0 0
0 0 0
0 0 0
0 0 0
0 0 0
0 0 0
0 0 0
0 0 0
0 0 0
0 0 0
0 0 0
0 0 0
0 0 0
0 0 0
0 0 0
0 0 0
0 0 0
0 0 0
0 0 0
0 0 0
0 0 0
0 0 0
0 0 0
0 0 0
0 0 0
0 0 0
0 0 0
0 0 0
0 0 0
0 0 0
0 0 0
0 0 0
0 0 0
0 0 0
0 0 0
0 0 0
0 0 0
0 0 0
0 0 0
0 0 0
0 0 0
0 0 0
0 0 0
0 0 0
0 0 0
0 0 0
0 0 0
0 0 0
0 0 0
0 0 0
0 0 0
0 0 0
0 0 0
0 0 0
0 0 0
0 0 0
0 0 0
0 0 0
0 0 0
0 0 0
0 0 0
0 0 0
0 0 0
0 0 0
0 0 0
0 0 0
0 0 0
0 0 0
0 0 0
0 0 0
0 0 0
0 0 0
0 0 0
0 0 0
0 0 0
0 0 0
0 0 0
0 0 0
0 0 0
0 0 0
0 0 0
0 0 0
0 0 0
0 0 0
0 0 0
0 0 0
0 0 0
0 0 0
0 0 0
0 0 0
0 0 0
0 0 0
0 0 0
0 0 0
0 0 0
0 0 0
0 0 0
0 0 0
0 0 0
0 0 0
0 0 0
0 0 0
0 0 0
0 0 0
0 0 0
0 0 0
0 0 0
0 0 0
0 0 0
0 0 0
0 0 0
0 0 0
0 0 0
0 0 0
0 0 0
0 0 0
0 0 0
0 0 0
0 0 0
0 0 0
0 0 0
0 0 0
0 0 0
0 0 0
0 0 0
0 0 0
0 0 0
0 0 0
0 0 0
0 0 0
0 0 0
0 0 0
0 0 0
0 0 0
0 0 0
0 0 0
0 0 0
0 0 0
0 0 0
0 0 0
1 1 1
1 1 1
1 1 1
1 1 1
1 1 1
1 1 1
1 1 1
1 1 1
1 1 1
1 1 1
1 1 1
1 1 1
1 1 0
1 2 0
1 2 0
1 2 0
2 1 0
3 0 1
3 0 2
3 0 3
3 0 3
4 1 5
4 1 5
4 1 5
3 1 6
2 4 11
0 4 16
0 4 16
0 12 19
14 29 40
39 51 61
81 101 115
97 124 139
87 124 142
76 113 132
72 113 134
74 116 136
74 116 136
74 116 136
74 116 136
74 116 136
74 116 136
74 116 136
74 116 136
74 116 136
74 116 136
74 116 136
74 116 136
74 116 136
75 116 136
76 116 136
76 116 136
76 116 136
76 116 136
76 116 136
76 116 136
76 116 136
76 116 136
76 116 136
76 116 136
76 116 136
76 116 136
76 116 136
76 116 136
76 116 136
76 116 136
77 115 137
77 114 138
77 114 138
77 114 138
77 115 137
77 115 136
77 115 136
77 115 136
77 116 137
77 117 137
77 117 137
77 117 137
77 117 137
77 117 137
77 117 137
0 0 2
0 0 2
0 0 2
0 0 2
0 0 2
0 0 2
0 0 2
0 0 2
0 0 2
0 0 2
0 0 2
0 0 2
0 0 2
0 0 2
0 0 2
0 0 2
0 0 1
0 0 0
0 0 0
0 0 0
0 0 0
0 0 0
0 0 0
0 0 0
0 0 0
0 0 0
0 0 0
0 0 0
0 0 0
0 0 0
0 0 0
0 0 0
0 0 0
0 0 0
0 0 0
0 0 0
0 0 0
0 0 0
0 0 0
0 0 0
0 0 0
0 0 0
0 0 0
0 0 0
0 0 0
0 0 0
0 0 0
0 0 0
0 0 0
0 0 0
0 0 0
0 0 0
0 0 0
0 0 0
0 0 0
0 0 0
0 0 0
0 0 0
0 0 0
0 0 0
0 0 0
0 0 0
1 1 0
1 2 0
1 2 0
1 2 0
0 3 0
3 2 0
3 2 0
3 2 0
1 4 1
0 5 1
0 5 1
0 6 5
0 6 5
0 6 5
1 6 12
0 12 19
4 17 26
14 29 40
47 64 75
70 92 106
83 113 128
89 120 137
89 118 136
86 121 140
82 116 140
80 115 140
80 115 140
80 115 140
80 117 140
82 118 141
82 118 141
80 115 140
76 113 137
76 112 136
76 113 137
78 117 140
82 118 141
78 117 140
75 117 139
74 116 136
74 116 138
74 116 138
74 116 138
74 116 138
74 116 138
74 116 138
74 116 138
74 116 138
74 116 138
74 116 138
74 116 138
74 116 138
74 116 138
74 116 138
75 116 138
76 115 138
76 115 138
76 115 138
76 115 138
76 115 138
76 115 138
76 115 138
76 115 138
76 115 138
76 115 138
76 115 138
76 115 138
76 115 138
76 115 138
76 115 138
76 115 138
74 116 136
74 116 136
74 116 136
74 116 136
74 116 136
74 116 136
74 116 136
74 116 136
74 116 136
74 116 136
74 116 136
74 116 136
74 116 136
74 116 136
74 116 136
74 116 136
74 116 136
74 116 136
74 116 136
74 116 136
74 116 136
74 116 136
74 116 136
74 116 136
74 116 136
74 116 136
74 116 136
74 116 136
74 116 136
74 116 136
74 116 136
75 116 134
77 116 134
79 115 132
89 120 137
97 124 139
81 101 115
39 51 61
0 0 9
0 0 0
2 1 3
3 4 6
0 2 1
0 3 0
0 3 2
0 2 3
0 1 6
1 1 8
0 1 6
0 1 6
0 2 4
0 2 2
0 2 1
0 2 1
0 2 1
0 2 1
0 2 1
0 2 1
0 2 1
0 2 1
0 2 1
0 2 1
0 2 1
0 2 1
0 2 1
0 2 1
0 1 0
0 0 0
0 0 0
0 0 0
0 0 0
0 0 0
0 0 0
0 0 0
0 0 0
0 0 0
0 0 0
0 0 0
0 0 0
0 0 0
0 0 0
0 0 0
0 0 0
0 0 0
0 0 0
0 0 0
0 0 0
0 0 0
0 0 0
0 0 0
0 0 0
0 0 0
0 0 0
0 0 0
0 0 0
0 0 0
0 0 0
0 0 0
0 0 0
0 0 0
0 0 0
0 0 0
0 0 0
0 0 0
0 0 0
0 0 0
0 0 0
0 0 0
0 0 0
0 0 0
0 0 0
0 0 0
0 0 0
0 0 0
0 0 0
0 0 0
0 0 0
0 0 0
0 0 0
0 0 0
0 0 0
0 0 0
0 0 0
0 0 0
0 0 0
0 0 0
0 0 0
0 0 0
0 0 0
0 0 0
0 0 0
0 0 0
0 0 0
0 0 0
0 0 0
0 0 0
0 0 0
0 0 0
0 0 0
0 0 0
0 0 0
0 0 0
0 0 0
0 0 0
0 0 0
0 0 0
0 0 0
0 0 0
0 0 0
0 0 0
0 0 0
0 0 0
0 0 0
0 0 0
0 0 0
0 0 0
0 0 0
0 0 0
0 0 0
0 0 0
0 0 0
0 0 0
0 0 0
0 0 0
0 0 0
0 0 0
0 0 0
0 0 0
0 0 0
0 0 0
0 0 0
0 0 0
0 0 0
0 0 0
0 0 0
0 0 0
0 0 0
0 0 0
0 0 0
0 0 0
0 0 0
0 0 0
0 0 0
0 0 0
0 0 0
0 0 0
0 0 0
0 0 0
0 0 0
0 0 0
0 0 0
0 0 0
0 0 0
0 0 0
0 0 0
0 0 0
0 0 0
0 0 0
0 0 0
0 0 0
0 0 0
0 0 0
0 0 0
0 0 0
0 0 0
0 0 0
0 0 0
0 0 0
0 0 0
0 0 0
0 0 0
0 0 0
0 0 0
0 0 0
0 0 0
0 0 0
0 0 0
0 0 0
0 0 0
0 0 0
0 0 0
0 0 0
0 0 0
0 0 0
0 0 0
0 0 0
0 0 0
0 0 0
0 0 0
0 0 0
0 0 0
0 0 0
0 0 0
0 0 0
0 0 0
0 0 0
0 0 0
0 0 0
0 0 0
0 0 0
0 0 0
0 0 0
0 0 0
0 0 0
0 0 0
0 0 0
0 0 0
0 0 0
0 0 0
0 0 0
0 0 0
0 0 0
0 0 0
0 0 0
0 0 0
0 0 0
0 0 0
0 0 0
0 0 0
0 0 0
0 0 0
0 0 0
0 0 0
0 0 0
0 0 0
0 0 0
1 1 1
1 1 1
1 1 1
1 1 1
1 1 1
1 1 1
1 1 1
1 1 1
1 1 1
1 1 1
1 1 1
1 1 1
1 1 0
1 2 0
1 2 0
1 2 0
2 1 0
3 0 1
3 0 2
3 0 3
6 1 4
6 1 4
4 1 5
4 1 5
2 1 7
6 8 13
0 1 13
0 4 16
0 12 19
14 29 40
47 64 75
81 101 115
96 123 138
86 122 140
75 113 134
72 113 134
74 116 136
74 116 136
74 116 136
74 116 136
74 116 136
74 116 136
74 116 136
74 116 136
74 116 136
74 116 136
74 116 136
74 116 136
74 116 136
75 116 136
76 116 136
76 116 136
76 116 136
76 116 136
76 116 136
76 116 136
76 116 136
76 116 136
76 116 136
76 116 136
76 116 136
76 116 136
76 116 136
76 116 136
76 116 136
76 116 136
75 116 137
76 115 138
76 115 138
77 114 138
77 115 137
77 115 136
76 115 135
76 116 136
76 116 136
77 117 137
77 117 137
77 117 137
77 117 137
77 117 137
77 117 137
0 0 2
0 0 2
0 0 2
0 0 2
0 0 2
0 0 2
0 0 2
0 0 2
0 0 2
0 0 2
0 0 2
0 0 2
0 0 2
0 0 2
0 0 2
0 0 2
0 0 1
0 0 0
0 0 0
0 0 0
0 0 0
0 0 0
0 0 0
0 0 0
0 0 0
0 0 0
0 0 0
0 0 0
0 0 0
0 0 0
0 0 0
0 0 0
0 0 0
0 0 0
0 0 0
0 0 0
0 0 0
0 0 0
0 0 0
0 0 0
0 0 0
0 0 0
0 0 0
0 0 0
0 0 0
0 0 0
0 0 0
0 0 0
0 0 0
0 0 0
0 0 0
0 0 0
0 0 0
0 0 0
0 0 0
0 0 0
0 0 0
0 0 0
0 0 0
0 0 0
0 0 0
0 0 0
1 1 0
1 2 0
1 2 0
1 2 0
2 1 0
3 2 0
3 2 0
3 2 0
1 4 1
1 4 1
0 5 1
0 5 1
0 6 5
1 6 12
2 10 15
0 12 19
2 10 15
0 12 19
14 29 40
47 64 75
70 92 106
85 113 132
86 121 140
87 124 142
87 124 142
86 121 140
82 116 140
80 115 140
80 115 140
80 117 140
80 117 140
80 115 140
78 115 139
77 115 139
78 115 139
78 117 140
78 117 140
78 117 140
75 117 139
74 116 136
74 116 138
74 116 138
74 116 138
74 116 138
74 116 138
74 116 138
74 116 138
74 116 138
74 116 138
74 116 138
74 116 138
74 116 138
74 116 138
74 116 138
75 116 138
76 115 138
76 115 138
76 115 138
76 115 138
76 115 138
76 115 138
76 115 138
76 115 138
76 115 138
76 115 138
76 115 138
76 115 138
76 115 138
76 115 138
76 115 138
76 115 138
74 116 136
74 116 136
74 116 136
74 116 136
74 116 136
74 116 136
74 116 136
74 116 136
74 116 136
74 116 136
74 116 136
74 116 136
74 116 136
74 116 136
74 116 136
74 116 136
74 116 136
74 116 136
74 116 136
74 116 136
74 116 136
74 116 136
74 116 136
74 116 136
74 116 136
74 116 136
74 116 136
74 116 136
74 116 136
74 116 136
74 116 136
75 116 134
77 116 134
79 115 132
89 120 137
97 124 139
81 101 115
39 51 61
0 0 9
0 0 0
2 1 3
3 4 6
0 2 1
0 3 0
0 3 2
0 2 3
0 1 6
0 1 6
0 1 6
0 1 6
0 2 4
0 2 2
0 2 1
0 2 1
0 2 1
0 2 1
0 2 1
0 2 1
0 2 1
0 2 1
0 2 1
0 2 1
0 2 1
0 2 1
0 2 1
0 2 1
0 1 0
0 0 0
0 0 0
0 0 0
0 0 0
0 0 0
0 0 0
0 0 0
0 0 0
0 0 0
0 0 0
0 0 0
0 0 0
0 0 0
0 0 0
0 0 0
0 0 0
0 0 0
0 0 0
0 0 0
0 0 0
0 0 0
0 0 0
0 0 0
0 0 0
0 0 0
0 0 0
0 0 0
0 0 0
0 0 0
0 0 0
0 0 0
0 0 0
0 0 0
0 0 0
0 0 0
0 0 0
0 0 0
0 0 0
0 0 0
0 0 0
0 0 0
0 0 0
0 0 0
0 0 0
0 0 0
0 0 0
0 0 0
0 0 0
0 0 0
0 0 0
0 0 0
0 0 0
0 0 0
0 0 0
0 0 0
0 0 0
0 0 0
0 0 0
0 0 0
0 0 0
0 0 0
0 0 0
0 0 0
0 0 0
0 0 0
0 0 0
0 0 0
0 0 0
0 0 0
0 0 0
0 0 0
0 0 0
0 0 0
0 0 0
0 0 0
0 0 0
0 0 0
0 0 0
0 0 0
0 0 0
0 0 0
0 0 0
0 0 0
0 0 0
0 0 0
0 0 0
0 0 0
0 0 0
0 0 0
0 0 0
0 0 0
0 0 0
0 0 0
0 0 0
0 0 0
0 0 0
0 0 0
0 0 0
0 0 0
0 0 0
0 0 0
0 0 0
0 0 0
0 0 0
0 0 0
0 0 0
0 0 0
0 0 0
0 0 0
0 0 0
0 0 0
0 0 0
0 0 0
0 0 0
0 0 0
0 0 0
0 0 0
0 0 0
0 0 0
0 0 0
0 0 0
0 0 0
0 0 0
0 0 0
0 0 0
0 0 0
0 0 0
0 0 0
0 0 0
0 0 0
0 0 0
0 0 0
0 0 0
0 0 0
0 0 0
0 0 0
0 0 0
0 0 0
0 0 0
0 0 0
0 0 0
0 0 0
0 0 0
0 0 0
0 0 0
0 0 0
0 0 0
0 0 0
0 0 0
0 0 0
0 0 0
0 0 0
0 0 0
0 0 0
0 0 0
0 0 0
0 0 0
0 0 0
0 0 0
0 0 0
0 0 0
0 0 0
0 0 0
0 0 0
0 0 0
0 0 0
0 0 0
0 0 0
0 0 0
0 0 0
0 0 0
0 0 0
0 0 0
0 0 0
0 0 0
0 0 0
0 0 0
0 0 0
0 0 0
0 0 0
0 0 0
0 0 0
0 0 0
0 0 0
0 0 0
0 0 0
0 0 0
0 0 0
0 0 0
0 0 0
0 0 0
0 0 0
0 0 0
0 0 0
0 0 0
0 0 0
0 0 0
0 0 0
0 0 0
1 1 1
1 1 1
1 1 1
1 1 1
1 1 1
1 1 1
1 1 1
1 1 1
1 1 1
1 1 1
1 1 1
1 1 1
1 1 0
1 2 0
1 2 0
1 2 0
2 1 0
3 0 1
3 0 2
3 0 3
6 1 4
6 1 4
4 1 5
4 1 5
2 1 7
6 8 13
0 1 13
0 1 13
0 12 19
24 35 46
47 64 75
81 101 115
89 120 137
82 120 140
75 113 134
72 113 134
74 116 136
74 116 136
74 116 136
74 116 136
74 116 136
74 116 136
74 116 136
74 116 136
74 116 136
74 116 136
74 116 136
74 116 136
74 116 136
75 116 136
76 116 136
76 116 136
76 116 136
76 116 136
76 116 136
76 116 136
76 116 136
76 116 136
76 116 136
76 116 136
76 116 136
76 116 136
76 116 136
76 116 136
76 116 136
76 116 136
75 116 137
76 115 138
76 115 138
77 114 138
77 115 137
77 115 136
76 115 135
76 116 136
75 116 136
77 117 137
77 117 137
77 117 137
77 117 137
77 117 137
77 117 137
0 0 2
0 0 2
0 0 2
0 0 2
0 0 2
0 0 2
0 0 2
0 0 2
0 0 2
0 0 2
0 0 2
0 0 2
0 0 2
0 0 2
0 0 2
0 0 2
0 0 1
0 0 0
0 0 0
0 0 0
0 0 0
0 0 0
0 0 0
0 0 0
0 0 0
0 0 0
0 0 0
0 0 0
0 0 0
0 0 0
0 0 0
0 0 0
0 0 0
0 0 0
0 0 0
0 0 0
0 0 0
0 0 0
0 0 0
0 0 0
0 0 0
0 0 0
0 0 0
0 0 0
0 0 0
0 0 0
0 0 0
0 0 0
0 0 0
0 0 0
0 0 0
0 0 0
0 0 0
0 0 0
0 0 0
0 0 0
0 0 0
0 0 0
0 0 0
0 0 0
0 0 0
0 0 0
2 1 0
3 1 0
3 1 0
3 1 0
3 1 0
4 2 0
3 2 0
3 2 0
3 2 0
1 4 1
1 4 1
0 5 1
0 6 5
5 6 9
2 10 15
0 12 19
1 6 12
0 0 5
2 10 15
24 35 46
53 72 83
71 97 112
89 118 136
99 127 141
87 124 142
87 124 142
82 118 141
82 117 137
80 115 137
79 114 138
78 115 139
80 117 140
82 118 141
82 118 141
77 116 142
77 116 142
77 116 142
76 115 140
74 116 138
74 116 138
74 116 138
74 116 138
74 116 138
74 116 138
74 116 138
74 116 138
74 116 138
74 116 138
74 116 138
74 116 138
74 116 138
74 116 138
74 116 138
74 116 138
75 116 138
76 115 138
76 115 138
76 115 138
76 115 138
76 115 138
76 115 138
76 115 138
76 115 138
76 115 138
76 115 138
76 115 138
76 115 138
76 115 138
76 115 138
76 115 138
76 115 138
74 116 136
74 116 136
74 116 136
74 116 136
74 116 136
74 116 136
74 116 136
74 116 136
74 116 136
74 116 136
74 116 136
74 116 136
74 116 136
74 116 136
74 116 136
74 116 136
74 116 136
74 116 136
74 116 136
74 116 136
74 116 136
74 116 136
74 116 136
74 116 136
74 116 136
74 116 136
74 116 136
74 116 136
74 116 136
74 116 136
74 116 136
75 116 134
77 116 134
79 115 132
89 120 137
97 124 139
81 101 115
39 51 61
0 0 9
0 0 0
2 0 2
3 4 2
0 2 0
0 3 0
0 3 2
0 2 3
0 1 5
0 1 6
0 1 5
0 1 4
0 2 3
0 2 2
0 2 1
0 2 1
0 2 1
0 2 1
0 2 1
0 2 1
0 2 1
0 2 1
0 2 1
0 2 1
0 2 1
0 2 1
0 2 1
0 2 1
0 1 0
0 0 0
0 0 0
0 0 0
0 0 0
0 0 0
0 0 0
0 0 0
0 0 0
0 0 0
0 0 0
0 0 0
0 0 0
0 0 0
0 0 0
0 0 0
0 0 0
0 0 0
0 0 0
0 0 0
0 0 0
0 0 0
0 0 0
0 0 0
0 0 0
0 0 0
0 0 0
0 0 0
0 0 0
0 0 0
0 0 0
0 0 0
0 0 0
0 0 0
0 0 0
0 0 0
0 0 0
0 0 0
0 0 0
0 0 0
0 0 0
0 0 0
0 0 0
0 0 0
0 0 0
0 0 0
0 0 0
0 0 0
0 0 0
0 0 0
0 0 0
0 0 0
0 0 0
0 0 0
0 0 0
0 0 0
0 0 0
0 0 0
0 0 0
0 0 0
0 0 0
0 0 0
0 0 0
0 0 0
0 0 0
0 0 0
0 0 0
0 0 0
0 0 0
0 0 0
0 0 0
0 0 0
0 0 0
0 0 0
0 0 0
0 0 0
0 0 0
0 0 0
0 0 0
0 0 0
0 0 0
0 0 0
0 0 0
0 0 0
0 0 0
0 0 0
0 0 0
0 0 0
0 0 0
0 0 0
0 0 0
0 0 0
0 0 0
0 0 0
0 0 0
0 0 0
0 0 0
0 0 0
0 0 0
0 0 0
0 0 0
0 0 0
0 0 0
0 0 0
0 0 0
0 0 0
0 0 0
0 0 0
0 0 0
0 0 0
0 0 0
0 0 0
0 0 0
0 0 0
0 0 0
0 0 0
0 0 0
0 0 0
0 0 0
0 0 0
0 0 0
0 0 0
0 0 0
0 0 0
0 0 0
0 0 0
0 0 0
0 0 0
0 0 0
0 0 0
0 0 0
0 0 0
0 0 0
0 0 0
0 0 0
0 0 0
0 0 0
0 0 0
0 0 0
0 0 0
0 0 0
0 0 0
0 0 0
0 0 0
0 0 0
0 0 0
0 0 0
0 0 0
0 0 0
0 0 0
0 0 0
0 0 0
0 0 0
0 0 0
0 0 0
0 0 0
0 0 0
0 0 0
0 0 0
0 0 0
0 0 0
0 0 0
0 0 0
0 0 0
0 0 0
0 0 0
0 0 0
0 0 0
0 0 0
0 0 0
0 0 0
0 0 0
0 0 0
0 0 0
0 0 0
0 0 0
0 0 0
0 0 0
0 0 0
0 0 0
0 0 0
0 0 0
0 0 0
0 0 0
0 0 0
0 0 0
0 0 0
0 0 0
0 0 0
0 0 0
0 0 0
0 0 0
0 0 0
0 0 0
0 0 0
0 0 0
0 0 0
0 0 0
0 0 0
0 0 0
1 1 1
1 1 1
1 1 1
1 1 1
1 1 1
1 1 1
1 1 1
1 1 1
1 1 1
1 1 1
1 1 1
1 1 1
1 1 0
1 2 0
1 2 0
1 2 0
2 1 0
3 0 1
3 0 2
3 0 3
6 1 4
6 1 4
6 1 4
4 1 5
2 1 7
2 4 11
0 0 12
0 0 12
0 12 19
24 35 46
53 72 83
71 97 112
85 116 133
83 118 136
75 113 134
73 115 135
74 116 136
74 116 136
74 116 136
74 116 136
74 116 136
74 116 136
74 116 136
74 116 136
74 116 136
74 116 136
74 116 136
74 116 136
74 116 136
75 116 136
76 116 136
76 116 136
76 116 136
76 116 136
76 116 136
76 116 136
76 116 136
76 116 136
76 116 136
76 116 136
76 116 136
76 116 136
76 116 136
76 116 136
76 116 136
76 116 136
77 116 138
77 116 139
76 115 140
77 116 138
77 115 137
77 116 137
76 117 136
74 116 136
74 117 135
75 118 137
75 118 137
76 117 136
74 117 135
77 117 135
77 117 135
0 0 2
0 0 2
0 0 2
0 0 2
0 0 2
0 0 2
0 0 2
0 0 2
0 0 2
0 0 2
0 0 2
0 0 2
0 0 2
0 0 2
0 0 2
0 0 2
0 0 1
0 0 0
0 0 0
0 0 0
0 0 0
0 0 0
0 0 0
0 0 0
0 0 0
0 0 0
0 0 0
0 0 0
0 0 0
0 0 0
0 0 0
0 0 0
0 0 0
0 0 0
0 0 0
0 0 0
0 0 0
0 0 0
0 0 0
0 0 0
0 0 0
0 0 0
0 0 0
0 0 0
0 0 0
0 0 0
0 0 0
0 0 0
0 0 0
0 0 0
0 0 0
0 0 0
0 0 0
0 0 0
0 0 0
0 0 0
0 0 0
0 0 0
0 0 0
0 0 0
0 0 0
0 0 0
2 1 0
3 1 0
3 1 0
3 1 0
4 2 0
4 2 0
3 2 0
3 2 0
3 2 0
3 4 2
1 4 1
0 5 1
0 6 5
5 6 9
2 10 15
2 10 15
2 6 12
5 6 9
2 4 11
4 17 26
23 41 52
55 79 91
81 110 128
87 124 142
87 124 142
87 124 142
87 124 142
82 117 137
79 113 135
75 113 134
76 113 137
80 117 140
82 118 141
82 118 141
82 118 141
77 116 142
74 114 140
74 115 139
74 116 138
74 116 138
74 116 138
74 116 138
74 116 138
74 116 138
74 116 138
74 116 138
74 116 138
74 116 138
74 116 138
74 116 138
74 116 138
74 116 138
74 116 138
74 116 138
75 116 138
76 115 138
76 115 138
76 115 138
76 115 138
76 115 138
76 115 138
76 115 138
76 115 138
76 115 138
76 115 138
76 115 138
76 115 138
76 115 138
76 115 138
76 115 138
76 115 138
74 116 136
74 116 136
74 116 136
74 116 136
74 116 136
74 116 136
74 116 136
74 116 136
74 116 136
74 116 136
74 116 136
74 116 136
74 116 136
74 116 136
74 116 136
74 116 136
74 116 136
74 116 136
74 116 136
74 116 136
74 116 136
74 116 136
74 116 136
74 116 136
74 116 136
74 116 136
74 116 136
74 116 136
74 116 136
74 116 136
74 116 136
75 116 134
77 116 134
79 115 132
89 120 137
97 124 139
81 101 115
39 51 61
0 0 9
0 0 0
2 0 2
3 4 2
0 2 0
0 3 0
0 3 2
0 2 3
0 1 5
0 1 6
0 1 5
0 1 4
0 2 3
0 2 2
0 2 1
0 2 1
0 2 1
0 2 1
0 2 1
0 2 1
0 2 1
0 2 1
0 2 1
0 2 1
0 2 1
0 2 1
0 2 1
0 2 1
0 1 0
0 0 0
0 0 0
0 0 0
0 0 0
0 0 0
0 0 0
0 0 0
0 0 0
0 0 0
0 0 0
0 0 0
0 0 0
0 0 0
0 0 0
0 0 0
0 0 0
0 0 0
0 0 0
0 0 0
0 0 0
0 0 0
0 0 0
0 0 0
0 0 0
0 0 0
0 0 0
0 0 0
0 0 0
0 0 0
0 0 0
0 0 0
0 0 0
0 0 0
0 0 0
0 0 0
0 0 0
0 0 0
0 0 0
0 0 0
0 0 0
0 0 0
0 0 0
0 0 0
0 0 0
0 0 0
0 0 0
0 0 0
0 0 0
0 0 0
0 0 0
0 0 0
0 0 0
0 0 0
0 0 0
0 0 0
0 0 0
0 0 0
0 0 0
0 0 0
0 0 0
0 0 0
0 0 0
0 0 0
0 0 0
0 0 0
0 0 0
0 0 0
0 0 0
0 0 0
0 0 0
0 0 0
0 0 0
0 0 0
0 0 0
0 0 0
0 0 0
0 0 0
0 0 0
0 0 0
0 0 0
0 0 0
0 0 0
0 0 0
0 0 0
0 0 0
0 0 0
0 0 0
0 0 0
0 0 0
0 0 0
0 0 0
0 0 0
0 0 0
0 0 0
0 0 0
0 0 0
0 0 0
0 0 0
0 0 0
0 0 0
0 0 0
0 0 0
0 0 0
0 0 0
0 0 0
0 0 0
0 0 0
0 0 0
0 0 0
0 0 0
0 0 0
0 0 0
0 0 0
0 0 0
0 0 0
0 0 0
0 0 0
0 0 0
0 0 0
0 0 0
0 0 0
0 0 0
0 0 0
0 0 0
0 0 0
0 0 0
0 0 0
0 0 0
0 0 0
0 0 0
0 0 0
0 0 0
0 0 0
0 0 0
0 0 0
0 0 0
0 0 0
0 0 0
0 0 0
0 0 0
0 0 0
0 0 0
0 0 0
0 0 0
0 0 0
0 0 0
0 0 0
0 0 0
0 0 0
0 0 0
0 0 0
0 0 0
0 0 0
0 0 0
0 0 0
0 0 0
0 0 0
0 0 0
0 0 0
0 0 0
0 0 0
0 0 0
0 0 0
0 0 0
0 0 0
0 0 0
0 0 0
0 0 0
0 0 0
0 0 0
0 0 0
0 0 0
0 0 0
0 0 0
0 0 0
0 0 0
0 0 0
0 0 0
0 0 0
0 0 0
0 0 0
0 0 0
0 0 0
0 0 0
0 0 0
0 0 0
0 0 0
0 0 0
0 0 0
0 0 0
0 0 0
0 0 0
0 0 0
0 0 0
0 0 0
0 0 0
0 0 0
0 0 0
0 0 0
1 1 1
1 1 1
1 1 1
1 1 1
1 1 1
1 1 1
1 1 1
1 1 1
1 1 1
1 1 1
1 1 1
1 1 1
1 1 0
1 2 0
1 2 0
1 2 0
2 1 0
3 0 1
3 0 2
3 0 3
6 1 4
6 1 4
6 1 4
4 1 5
2 1 7
2 4 11
0 0 12
0 1 10
6 12 17
23 41 52
53 72 83
71 97 112
81 110 128
82 115 132
75 113 134
73 115 135
74 116 136
74 116 136
74 116 136
74 116 136
74 116 136
74 116 136
74 116 136
74 116 136
74 116 136
74 116 136
74 116 136
74 116 136
74 116 136
75 116 136
76 116 136
76 116 136
76 116 136
76 116 136
76 116 136
76 116 136
76 116 136
76 116 136
76 116 136
76 116 136
76 116 136
76 116 136
76 116 136
76 116 136
76 116 136
76 116 136
77 116 138
77 116 139
76 115 140
75 116 138
75 116 137
77 117 137
76 117 136
74 116 136
74 117 135
75 118 137
75 118 137
75 118 134
74 117 135
77 117 135
77 117 135
0 0 2
0 0 2
0 0 2
0 0 2
0 0 2
0 0 2
0 0 2
0 0 2
0 0 2
0 0 2
0 0 2
0 0 2
0 0 2
0 0 2
0 0 2
0 0 2
0 0 1
0 0 0
0 0 0
0 0 0
0 0 0
0 0 0
0 0 0
0 0 0
0 0 0
0 0 0
0 0 0
0 0 0
0 0 0
0 0 0
0 0 0
0 0 0
0 0 0
0 0 0
0 0 0
0 0 0
0 0 0
0 0 0
0 0 0
0 0 0
0 0 0
0 0 0
0 0 0
0 0 0
0 0 0
0 0 0
0 0 0
0 0 0
0 0 0
0 0 0
0 0 0
0 0 0
0 0 0
0 0 0
0 0 0
0 0 0
0 0 0
0 0 0
0 0 0
0 0 0
0 0 0
0 0 0
2 1 0
3 1 0
3 1 0
3 1 0
3 2 0
4 2 0
4 2 0
4 2 0
4 2 0
3 4 2
1 4 1
1 4 1
3 4 2
3 4 6
5 6 9
1 6 12
2 10 15
6 12 17
6 8 13
0 4 9
12 20 29
47 64 75
71 97 112
77 111 130
82 113 136
87 124 142
87 124 142
82 118 141
76 113 132
77 111 130
76 112 136
80 115 140
82 118 141
87 124 142
82 118 141
77 116 142
74 114 140
72 113 134
74 115 139
73 117 138
74 116 138
74 116 138
74 116 138
74 116 138
74 116 138
74 116 138
74 116 138
74 116 138
74 116 138
74 116 138
74 116 138
74 116 138
74 116 138
74 116 138
75 116 138
76 115 138
76 115 138
76 115 138
76 115 138
76 115 138
76 115 138
76 115 138
76 115 138
76 115 138
76 115 138
76 115 138
76 115 138
76 115 138
77 115 137
76 116 136
76 116 136
74 116 136
74 116 136
74 116 136
74 116 136
74 116 136
74 116 136
74 116 136
74 116 136
74 116 136
74 116 136
74 116 136
74 116 136
74 116 136
74 116 136
74 116 136
74 116 136
74 116 136
74 116 136
74 116 136
74 116 136
74 116 136
74 116 136
74 116 136
74 116 136
74 116 136
74 116 136
74 116 136
74 116 136
74 116 136
74 116 136
74 116 136
75 116 134
77 116 134
79 114 134
89 120 137
97 124 139
81 101 115
39 51 61
0 0 7
0 0 0
2 0 2
3 4 2
0 2 0
0 3 0
0 3 0
0 2 2
0 1 5
0 1 6
0 1 5
0 1 4
0 2 3
0 2 2
0 2 1
0 2 1
0 2 1
0 2 1
0 2 1
0 2 1
0 2 1
0 2 1
0 2 1
0 2 1
0 2 1
0 2 1
0 2 1
0 2 1
0 1 0
0 0 0
0 0 0
0 0 0
0 0 0
0 0 0
0 0 0
0 0 0
0 0 0
0 0 0
0 0 0
0 0 0
0 0 0
0 0 0
0 0 0
0 0 0
0 0 0
0 0 0
0 0 0
0 0 0
0 0 0
0 0 0
0 0 0
0 0 0
0 0 0
0 0 0
0 0 0
0 0 0
0 0 0
0 0 0
0 0 0
0 0 0
0 0 0
0 0 0
0 0 0
0 0 0
0 0 0
0 0 0
0 0 0
0 0 0
0 0 0
0 0 0
0 0 0
0 0 0
0 0 0
0 0 0
0 0 0
0 0 0
0 0 0
0 0 0
0 0 0
0 0 0
0 0 0
0 0 0
0 0 0
0 0 0
0 0 0
0 0 0
0 0 0
0 0 0
0 0 0
0 0 0
0 0 0
0 0 0
0 0 0
0 0 0
0 0 0
0 0 0
0 0 0
0 0 0
0 0 0
0 0 0
0 0 0
0 0 0
0 0 0
0 0 0
0 0 0
0 0 0
0 0 0
0 0 0
0 0 0
0 0 0
0 0 0
0 0 0
0 0 0
0 0 0
0 0 0
0 0 0
0 0 0
0 0 0
0 0 0
0 0 0
0 0 0
0 0 0
0 0 0
0 0 0
0 0 0
0 0 0
0 0 0
0 0 0
0 0 0
0 0 0
0 0 0
0 0 0
0 0 0
0 0 0
0 0 0
0 0 0
0 0 0
0 0 0
0 0 0
0 0 0
0 0 0
0 0 0
0 0 0
0 0 0
0 0 0
0 0 0
0 0 0
0 0 0
0 0 0
0 0 0
0 0 0
0 0 0
0 0 0
0 0 0
0 0 0
0 0 0
0 0 0
0 0 0
0 0 0
0 0 0
0 0 0
0 0 0
0 0 0
0 0 0
0 0 0
0 0 0
0 0 0
0 0 0
0 0 0
0 0 0
0 0 0
0 0 0
0 0 0
0 0 0
0 0 0
0 0 0
0 0 0
0 0 0
0 0 0
0 0 0
0 0 0
0 0 0
0 0 0
0 0 0
0 0 0
0 0 0
0 0 0
0 0 0
0 0 0
0 0 0
0 0 0
0 0 0
0 0 0
0 0 0
0 0 0
0 0 0
0 0 0
0 0 0
0 0 0
0 0 0
0 0 0
0 0 0
0 0 0
0 0 0
0 0 0
0 0 0
0 0 0
0 0 0
0 0 0
0 0 0
0 0 0
0 0 0
0 0 0
0 0 0
0 0 0
0 0 0
0 0 0
0 0 0
0 0 0
0 0 0
0 0 0
0 0 0
0 0 0
0 0 0
0 0 0
0 0 0
0 0 0
0 0 0
1 1 1
1 1 1
1 1 1
1 1 1
1 1 1
1 1 1
1 1 1
1 1 1
1 1 1
1 1 1
1 1 1
1 1 1
1 1 0
1 2 0
1 2 0
1 2 0
2 1 0
3 0 1
3 0 2
3 0 3
3 0 3
4 1 5
4 1 5
3 1 6
2 1 7
2 4 11
0 0 9
0 0 9
4 17 26
31 43 53
55 79 91
71 97 112
77 107 124
79 113 132
76 115 135
75 116 136
74 116 136
74 116 136
74 116 136
74 116 136
74 116 136
74 116 136
74 116 136
74 116 136
74 116 136
74 116 136
74 116 136
74 116 136
74 116 136
75 116 136
76 116 136
76 116 136
76 116 136
76 116 136
76 116 136
76 116 136
76 116 136
76 116 136
76 116 136
76 116 136
76 116 136
76 116 136
75 116 136
75 116 136
75 116 137
75 116 137
75 117 139
75 117 139
74 116 136
73 115 135
74 116 136
75 118 137
74 117 135
73 115 135
74 116 136
75 118 137
75 118 137
74 117 135
75 118 134
77 117 137
78 117 135
0 0 2
0 0 2
0 0 2
0 0 2
0 0 2
0 0 2
0 0 2
0 0 2
0 0 2
0 0 2
0 0 2
0 0 2
0 0 2
0 0 2
0 0 2
0 0 2
0 0 1
0 0 0
0 0 0
0 0 0
0 0 0
0 0 0
0 0 0
0 0 0
0 0 0
0 0 0
0 0 0
0 0 0
0 0 0
0 0 0
0 0 0
0 0 0
0 0 0
0 0 0
0 0 0
0 0 0
0 0 0
0 0 0
0 0 0
0 0 0
0 0 0
0 0 0
0 0 0
0 0 0
0 0 0
0 0 0
0 0 0
0 0 0
0 0 0
0 0 0
0 0 0
0 0 0
0 0 0
0 0 0
0 0 0
0 0 0
0 0 0
0 0 0
0 0 0
0 0 0
0 0 0
0 0 0
2 1 0
3 1 0
3 1 0
3 1 0
3 2 0
4 2 0
4 2 0
4 2 0
4 2 0
3 4 2
1 4 1
3 2 0
3 4 2
3 4 6
1 4 5
0 4 5
6 8 13
6 12 17
6 8 13
0 0 5
2 4 11
24 35 46
53 72 83
70 92 106
77 107 124
83 118 136
89 120 137
86 121 140
82 115 136
76 113 132
75 113 134
80 115 137
82 118 141
87 124 142
82 120 140
78 117 140
74 114 140
72 113 134
74 115 139
73 117 138
74 116 138
74 116 138
74 116 138
74 116 138
74 116 138
74 116 138
74 116 138
74 116 138
74 116 138
74 116 138
74 116 138
74 116 138
74 116 138
74 116 138
75 116 138
76 115 138
76 115 138
76 115 138
76 115 138
76 115 138
76 115 138
76 115 138
76 115 138
76 115 138
76 115 138
76 115 138
76 115 138
76 115 138
77 115 137
76 116 136
76 116 136
74 116 136
74 116 136
74 116 136
74 116 136
74 116 136
74 116 136
74 116 136
74 116 136
74 116 136
74 116 136
74 116 136
74 116 136
74 116 136
74 116 136
74 116 136
74 116 136
74 116 136
74 116 136
74 116 136
74 116 136
74 116 136
74 116 136
74 116 136
74 116 136
74 116 136
74 116 136
74 116 136
74 116 136
74 116 136
74 116 136
74 116 136
75 116 134
77 116 134
79 114 134
89 120 137
97 124 139
81 101 115
39 51 61
0 0 7
0 0 0
2 0 2
3 4 2
0 2 0
0 3 0
0 3 0
0 2 2
0 1 5
0 1 6
0 1 5
0 1 4
0 2 3
0 2 2
0 2 1
0 2 1
0 2 1
0 2 1
0 2 1
0 2 1
0 2 1
0 2 1
0 2 1
0 2 1
0 2 1
0 2 1
0 2 1
0 2 1
0 1 0
0 0 0
0 0 0
0 0 0
0 0 0
0 0 0
0 0 0
0 0 0
0 0 0
0 0 0
0 0 0
0 0 0
0 0 0
0 0 0
0 0 0
0 0 0
0 0 0
0 0 0
0 0 0
0 0 0
0 0 0
0 0 0
0 0 0
0 0 0
0 0 0
0 0 0
0 0 0
0 0 0
0 0 0
0 0 0
0 0 0
0 0 0
0 0 0
0 0 0
0 0 0
0 0 0
0 0 0
0 0 0
0 0 0
0 0 0
0 0 0
0 0 0
0 0 0
0 0 0
0 0 0
0 0 0
0 0 0
0 0 0
0 0 0
0 0 0
0 0 0
0 0 0
0 0 0
0 0 0
0 0 0
0 0 0
0 0 0
0 0 0
0 0 0
0 0 0
0 0 0
0 0 0
0 0 0
0 0 0
0 0 0
0 0 0
0 0 0
0 0 0
0 0 0
0 0 0
0 0 0
0 0 0
0 0 0
0 0 0
0 0 0
0 0 0
0 0 0
0 0 0
0 0 0
0 0 0
0 0 0
0 0 0
0 0 0
0 0 0
0 0 0
0 0 0
0 0 0
0 0 0
0 0 0
0 0 0
0 0 0
0 0 0
0 0 0
0 0 0
0 0 0
0 0 0
0 0 0
0 0 0
0 0 0
0 0 0
0 0 0
0 0 0
0 0 0
0 0 0
0 0 0
0 0 0
0 0 0
0 0 0
0 0 0
0 0 0
0 0 0
0 0 0
0 0 0
0 0 0
0 0 0
0 0 0
0 0 0
0 0 0
0 0 0
0 0 0
0 0 0
0 0 0
0 0 0
0 0 0
0 0 0
0 0 0
0 0 0
0 0 0
0 0 0
0 0 0
0 0 0
0 0 0
0 0 0
0 0 0
0 0 0
0 0 0
0 0 0
0 0 0
0 0 0
0 0 0
0 0 0
0 0 0
0 0 0
0 0 0
0 0 0
0 0 0
0 0 0
0 0 0
0 0 0
0 0 0
0 0 0
0 0 0
0 0 0
0 0 0
0 0 0
0 0 0
0 0 0
0 0 0
0 0 0
0 0 0
0 0 0
0 0 0
0 0 0
0 0 0
0 0 0
0 0 0
0 0 0
0 0 0
0 0 0
0 0 0
0 0 0
0 0 0
0 0 0
0 0 0
0 0 0
0 0 0
0 0 0
0 0 0
0 0 0
0 0 0
0 0 0
0 0 0
0 0 0
0 0 0
0 0 0
0 0 0
0 0 0
0 0 0
0 0 0
0 0 0
0 0 0
0 0 0
0 0 0
0 0 0
0 0 0
0 0 0
0 0 0
0 0 0
0 0 0
0 0 0
1 1 1
1 1 1
1 1 1
1 1 1
1 1 1
1 1 1
1 1 1
1 1 1
1 1 1
1 1 1
1 1 1
1 1 1
1 1 0
1 2 0
1 2 0
1 2 0
2 1 0
3 0 1
3 0 2
3 0 3
3 0 3
4 1 5
3 1 6
3 1 6
2 1 7
2 4 11
0 0 9
0 1 10
4 17 26
31 51 61
55 79 91
71 97 112
79 113 127
79 115 132
76 115 135
75 116 136
74 116 136
74 116 136
74 116 136
74 116 136
74 116 136
74 116 136
74 116 136
74 116 136
74 116 136
74 116 136
74 116 136
74 116 136
74 116 136
75 116 136
76 116 136
76 116 136
76 116 136
76 116 136
76 116 136
76 116 136
76 116 136
76 116 136
76 116 136
76 116 136
76 116 136
76 116 136
75 116 136
74 116 136
73 117 138
74 116 138
75 117 139
75 117 139
74 116 136
72 113 134
72 117 136
75 118 137
74 117 135
73 115 135
74 116 136
75 118 137
75 118 137
74 117 135
75 116 134
75 116 134
75 116 134
0 0 1
0 0 1
0 0 1
0 0 1
0 0 1
0 0 1
0 0 1
0 0 1
0 0 1
0 0 1
0 0 1
0 0 1
0 0 1
0 0 1
0 0 1
0 0 1
1 0 0
1 0 0
1 0 0
1 0 0
1 0 0
1 0 0
1 0 0
1 0 0
1 0 0
1 0 0
1 0 0
1 0 0
1 0 0
1 0 0
1 0 0
1 0 0
1 0 0
1 0 0
0 0 0
0 0 0
0 0 0
0 0 0
0 0 0
0 0 0
0 0 0
0 0 0
0 0 0
0 0 0
0 0 0
0 0 0
0 0 0
0 0 0
0 0 0
0 0 0
0 0 0
0 0 0
0 0 0
0 0 0
0 0 0
0 0 0
0 0 0
0 0 0
1 0 0
1 0 0
1 0 0
1 0 0
3 0 1
3 0 1
3 2 1
3 1 0
3 2 0
3 1 0
3 1 0
3 1 0
3 2 0
4 2 0
3 2 1
4 1 2
3 4 2
1 2 3
0 2 3
0 1 3
1 4 5
5 6 9
1 4 10
0 1 6
0 0 7
6 12 17
24 35 46
53 72 83
71 97 112
77 107 124
81 110 128
89 118 136
86 121 140
82 117 137
79 113 135
79 114 136
82 118 141
82 120 140
82 118 141
77 117 139
76 115 138
76 113 137
75 116 138
75 116 138
75 116 138
75 116 138
75 116 138
75 116 138
75 116 138
75 116 138
75 116 138
75 116 138
75 116 138
75 116 138
75 116 138
75 116 138
75 116 138
75 116 138
75 116 137
75 116 137
75 116 137
75 116 137
75 116 137
75 116 137
75 116 137
75 116 137
75 116 137
75 116 137
75 116 137
75 116 137
75 116 137
75 116 137
75 116 136
75 116 136
75 116 136
74 116 136
74 116 136
74 116 136
74 116 136
74 116 136
74 116 136
74 116 136
74 116 136
74 116 136
74 116 136
74 116 136
74 116 136
74 116 136
74 116 136
74 116 136
74 116 136
74 116 136
74 116 136
74 116 136
74 116 136
74 116 136
74 116 136
74 116 136
74 116 136
74 116 136
74 116 136
74 116 136
74 116 136
74 116 136
74 116 136
74 116 136
75 116 134
77 116 134
79 115 132
89 120 137
97 124 139
81 101 115
39 51 61
0 0 7
0 0 0
2 0 1
3 4 2
0 3 0
0 3 0
0 3 0
0 3 2
0 2 4
0 1 5
0 1 5
0 1 5
0 2 3
0 2 3
0 2 2
0 2 2
0 2 2
0 2 2
0 2 2
0 2 2
0 2 2
0 2 2
0 2 2
0 2 2
0 2 2
0 2 2
0 2 2
0 2 2
0 1 1
0 0 0
0 0 0
0 0 0
0 0 0
0 0 0
0 0 0
0 0 0
0 0 0
0 0 0
0 0 0
0 0 0
0 0 0
0 0 0
0 0 0
0 0 0
0 0 0
0 0 0
0 0 0
0 0 0
0 0 0
0 0 0
0 0 0
0 0 0
0 0 0
0 0 0
0 0 0
0 0 0
0 0 0
0 0 0
0 0 0
0 0 0
0 0 0
0 0 0
0 0 0
0 0 0
0 0 0
0 0 0
0 0 0
0 0 0
0 0 0
0 0 0
0 0 0
0 0 0
0 0 0
0 0 0
0 0 0
0 0 0
0 0 0
0 0 0
0 0 0
0 0 0
0 0 0
0 0 0
0 0 0
0 0 0
0 0 0
0 0 0
0 0 0
0 0 0
0 0 0
0 0 0
0 0 0
0 0 0
0 0 0
0 0 0
0 0 0
0 0 0
0 0 0
0 0 0
0 0 0
0 0 0
0 0 0
0 0 0
0 0 0
0 0 0
0 0 0
0 0 0
0 0 0
0 0 0
0 0 0
0 0 0
0 0 0
0 0 0
0 0 0
0 0 0
0 0 0
0 0 0
0 0 0
0 0 0
0 0 0
0 0 0
0 0 0
0 0 0
0 0 0
0 0 0
0 0 0
0 0 0
0 0 0
0 0 0
0 0 0
0 0 0
0 0 0
0 0 0
0 0 0
0 0 0
0 0 0
0 0 0
0 0 0
0 0 0
0 0 0
0 0 0
0 0 0
0 0 0
0 0 0
0 0 0
0 0 0
0 0 0
0 0 0
0 0 0
0 0 0
0 0 0
0 0 0
0 0 0
0 0 0
0 0 0
0 0 0
0 0 0
0 0 0
0 0 0
0 0 0
0 0 0
0 0 0
0 0 0
0 0 0
0 0 0
0 0 0
0 0 0
0 0 0
0 0 0
0 0 0
0 0 0
0 0 0
0 0 0
0 0 0
0 0 0
0 0 0
0 0 0
0 0 0
0 0 0
0 0 0
0 0 0
0 0 0
0 0 0
0 0 0
0 0 0
0 0 0
0 0 0
0 0 0
0 0 0
0 0 0
0 0 0
0 0 0
0 0 0
0 0 0
0 0 0
0 0 0
0 0 0
0 0 0
0 0 0
0 0 0
0 0 0
0 0 0
0 0 0
0 0 0
0 0 0
0 0 0
0 0 0
0 0 0
0 0 0
0 0 0
0 0 0
0 0 0
0 0 0
0 0 0
0 0 0
0 0 0
0 0 0
0 0 0
0 0 0
0 0 0
1 0 0
1 0 0
1 0 0
1 0 0
1 0 0
1 0 0
1 0 0
1 0 0
1 0 0
1 1 1
1 1 1
1 1 1
1 1 1
1 1 1
1 1 1
1 1 1
1 1 1
2 0 1
2 0 1
2 0 1
2 0 1
2 0 1
2 1 1
2 1 1
2 1 1
2 1 1
2 1 1
2 1 2
3 0 3
3 0 3
3 1 6
2 1 7
2 1 7
0 1 10
0 4 12
0 1 10
0 1 13
4 17 26
31 51 61
55 79 91
79 113 127
87 124 142
82 120 140
75 113 134
73 115 135
75 116 136
75 116 136
75 116 136
75 116 136
75 116 136
75 116 136
75 116 136
75 116 136
75 116 136
75 116 136
75 116 136
75 116 136
75 116 136
75 116 136
75 116 136
75 116 136
75 116 136
75 116 136
75 116 136
75 116 136
75 116 136
75 116 136
75 116 136
75 116 136
75 116 136
75 116 136
73 117 136
72 117 136
72 117 138
73 117 138
74 118 139
74 118 139
73 116 139
72 113 134
73 115 135
75 118 138
75 118 138
72 117 135
72 117 135
75 118 137
75 118 137
74 117 135
72 113 134
71 110 131
71 110 131
0 0 0
0 0 0
0 0 0
0 0 0
0 0 0
0 0 0
0 0 0
0 0 0
0 0 0
0 0 0
0 0 0
0 0 0
0 0 0
0 0 0
0 0 0
0 0 0
1 0 0
2 0 0
2 0 0
2 0 0
2 0 0
2 0 0
2 0 0
2 0 0
2 0 0
2 0 0
2 0 0
2 0 0
2 0 0
2 0 0
2 0 0
2 0 0
2 0 0
1 0 0
0 0 0
0 0 0
0 0 0
0 0 0
0 0 0
0 0 0
0 0 0
0 0 0
0 0 0
0 0 0
0 0 0
0 0 0
0 0 0
0 0 0
0 0 0
0 0 0
0 0 0
0 0 0
0 0 0
0 0 0
0 0 0
0 0 0
0 0 0
0 0 0
1 0 0
2 0 0
2 0 0
2 0 0
3 0 1
3 0 1
3 2 1
3 1 0
3 1 0
3 1 0
3 1 0
3 1 0
3 1 0
4 2 0
4 2 0
4 1 2
2 1 3
1 1 3
0 1 3
0 0 2
0 0 1
0 0 2
0 0 4
1 4 10
1 1 8
1 1 8
4 17 26
31 51 61
55 79 91
71 97 112
77 107 124
89 120 137
97 124 139
86 121 140
79 114 134
79 114 134
80 117 140
82 118 141
78 117 140
77 117 139
76 115 138
76 114 136
76 115 138
76 115 138
76 115 138
76 115 138
76 115 138
76 115 138
76 115 138
76 115 138
76 115 138
76 115 138
76 115 138
76 115 138
76 115 138
76 115 138
76 115 138
76 115 138
75 116 137
74 116 136
74 116 136
74 116 136
74 116 136
74 116 136
74 116 136
74 116 136
74 116 136
74 116 136
74 116 136
74 116 136
74 116 136
74 116 136
74 116 136
74 116 136
74 116 136
74 116 136
74 116 136
74 116 136
74 116 136
74 116 136
74 116 136
74 116 136
74 116 136
74 116 136
74 116 136
74 116 136
74 116 136
74 116 136
74 116 136
74 116 136
74 116 136
74 116 136
74 116 136
74 116 136
74 116 136
74 116 136
74 116 136
74 116 136
74 116 136
74 116 136
74 116 136
74 116 136
74 116 136
74 116 136
74 116 136
74 116 136
75 116 134
77 116 134
79 115 132
89 120 137
97 124 139
81 101 115
39 51 61
0 0 7
0 0 0
2 0 0
3 4 2
0 3 0
0 3 0
0 3 0
0 3 2
0 2 3
0 1 4
0 1 5
0 1 5
0 2 3
0 2 3
0 2 3
0 2 3
0 2 3
0 2 3
0 2 3
0 2 3
0 2 3
0 2 3
0 2 3
0 2 3
0 2 3
0 2 3
0 2 3
0 2 3
0 1 1
0 0 0
0 0 0
0 0 0
0 0 0
0 0 0
0 0 0
0 0 0
0 0 0
0 0 0
0 0 0
0 0 0
0 0 0
0 0 0
0 0 0
0 0 0
0 0 0
0 0 0
0 0 0
0 0 0
0 0 0
0 0 0
0 0 0
0 0 0
0 0 0
0 0 0
0 0 0
0 0 0
0 0 0
0 0 0
0 0 0
0 0 0
0 0 0
0 0 0
0 0 0
0 0 0
0 0 0
0 0 0
0 0 0
0 0 0
0 0 0
0 0 0
0 0 0
0 0 0
0 0 0
0 0 0
0 0 0
0 0 0
0 0 0
0 0 0
0 0 0
0 0 0
0 0 0
0 0 0
0 0 0
0 0 0
0 0 0
0 0 0
0 0 0
0 0 0
0 0 0
0 0 0
0 0 0
0 0 0
0 0 0
0 0 0
0 0 0
0 0 0
0 0 0
0 0 0
0 0 0
0 0 0
0 0 0
0 0 0
0 0 0
0 0 0
0 0 0
0 0 0
0 0 0
0 0 0
0 0 0
0 0 0
0 0 0
0 0 0
0 0 0
0 0 0
0 0 0
0 0 0
0 0 0
0 0 0
0 0 0
0 0 0
0 0 0
0 0 0
0 0 0
0 0 0
0 0 0
0 0 0
0 0 0
0 0 0
0 0 0
0 0 0
0 0 0
0 0 0
0 0 0
0 0 0
0 0 0
0 0 0
0 0 0
0 0 0
0 0 0
0 0 0
0 0 0
0 0 0
0 0 0
0 0 0
0 0 0
0 0 0
0 0 0
0 0 0
0 0 0
0 0 0
0 0 0
0 0 0
0 0 0
0 0 0
0 0 0
0 0 0
0 0 0
0 0 0
0 0 0
0 0 0
0 0 0
0 0 0
0 0 0
0 0 0
0 0 0
0 0 0
0 0 0
0 0 0
0 0 0
0 0 0
0 0 0
0 0 0
0 0 0
0 0 0
0 0 0
0 0 0
0 0 0
0 0 0
0 0 0
0 0 0
0 0 0
0 0 0
0 0 0
0 0 0
0 0 0
0 0 0
0 0 0
0 0 0
0 0 0
0 0 0
0 0 0
0 0 0
0 0 0
0 0 0
0 0 0
0 0 0
0 0 0
0 0 0
0 0 0
0 0 0
0 0 0
0 0 0
0 0 0
0 0 0
0 0 0
0 0 0
0 0 0
0 0 0
0 0 0
0 0 0
0 0 0
0 0 0
0 0 0
0 0 0
0 0 0
0 0 0
0 0 0
0 0 0
0 0 0
1 0 0
2 0 0
2 0 0
2 0 0
2 0 0
2 0 0
2 0 0
2 0 0
2 0 0
1 1 1
1 1 1
1 1 1
1 1 1
1 1 1
1 1 1
1 1 1
1 1 1
2 0 1
3 0 1
3 0 1
3 0 1
3 0 1
3 0 1
3 0 1
3 0 1
2 1 1
1 1 1
2 1 2
3 0 3
3 0 3
3 1 6
2 1 7
1 1 8
0 1 10
0 4 16
0 1 13
0 1 13
4 17 26
31 51 61
70 92 106
86 122 140
99 127 141
86 122 140
75 113 134
75 113 134
76 116 136
76 116 136
76 116 136
76 116 136
76 116 136
76 116 136
76 116 136
76 116 136
76 116 136
76 116 136
76 116 136
76 116 136
76 116 136
75 116 136
74 116 136
74 116 136
74 116 136
74 116 136
74 116 136
74 116 136
74 116 136
74 116 136
74 116 136
74 116 136
74 116 136
74 116 136
73 117 136
72 117 138
71 117 138
72 117 138
74 118 139
75 118 142
71 117 138
72 113 134
73 115 135
74 118 139
75 118 138
72 117 135
72 117 135
75 118 137
75 118 137
74 117 135
71 110 131
70 105 125
70 105 125
0 0 0
0 0 0
0 0 0
0 0 0
0 0 0
0 0 0
0 0 0
0 0 0
0 0 0
0 0 0
0 0 0
0 0 0
0 0 0
0 0 0
0 0 0
0 0 0
1 0 0
2 0 0
2 0 0
2 0 0
2 0 0
2 0 0
2 0 0
2 0 0
2 0 0
2 0 0
2 0 0
2 0 0
2 0 0
2 0 0
2 0 0
2 0 0
2 0 0
1 0 0
0 0 0
0 0 0
0 0 0
0 0 0
0 0 0
0 0 0
0 0 0
0 0 0
0 0 0
0 0 0
0 0 0
0 0 0
0 0 0
0 0 0
0 0 0
0 0 0
0 0 0
0 0 0
0 0 0
0 0 0
0 0 0
0 0 0
0 0 0
0 0 0
1 0 0
2 0 0
2 0 0
2 0 0
3 0 1
3 0 1
3 0 1
3 0 1
3 0 1
3 0 1
3 0 1
3 0 0
4 1 2
4 2 0
4 1 2
3 2 1
3 0 2
2 1 3
2 1 3
1 1 2
0 0 1
0 0 3
0 0 4
1 1 8
0 2 9
0 4 12
2 10 15
12 20 29
31 51 61
55 79 91
84 109 126
93 121 136
89 120 137
89 118 136
82 115 132
79 114 134
80 115 137
78 116 138
78 117 140
78 115 139
77 116 139
77 116 139
76 115 138
76 115 138
76 115 138
76 115 138
76 115 138
76 115 138
76 115 138
76 115 138
76 115 138
76 115 138
76 115 138
76 115 138
76 115 138
76 115 138
76 115 138
76 115 138
75 116 137
74 116 136
74 117 135
74 117 135
74 117 135
74 117 135
74 117 135
74 117 135
74 117 135
74 117 135
74 117 135
74 117 135
74 117 135
74 117 135
74 117 135
74 117 135
74 117 135
74 116 136
74 116 136
74 116 136
74 116 136
74 116 136
74 116 136
74 116 136
74 116 136
74 116 136
74 116 136
74 116 136
74 116 136
74 116 136
74 116 136
74 116 136
74 116 136
74 116 136
74 116 136
74 116 136
74 116 136
74 116 136
74 116 136
74 116 136
74 116 136
74 116 136
74 116 136
74 116 136
74 116 136
74 116 136
74 116 136
74 116 136
75 116 134
77 116 134
79 115 132
89 120 137
96 123 138
81 101 115
39 51 61
0 0 6
0 0 0
2 0 0
3 4 2
0 3 0
0 4 1
0 4 1
0 3 2
0 2 3
0 1 4
0 1 5
0 1 5
0 2 3
0 2 3
0 2 3
0 2 3
0 2 3
0 2 3
0 2 3
0 2 3
0 2 3
0 2 3
0 2 3
0 2 3
0 2 3
0 2 3
0 2 3
0 2 3
0 1 1
0 0 0
0 0 0
0 0 0
0 0 0
0 0 0
0 0 0
0 0 0
0 0 0
0 0 0
0 0 0
0 0 0
0 0 0
0 0 0
0 0 0
0 0 0
0 0 0
0 0 0
0 0 0
0 0 0
0 0 0
0 0 0
0 0 0
0 0 0
0 0 0
0 0 0
0 0 0
0 0 0
0 0 0
0 0 0
0 0 0
0 0 0
0 0 0
0 0 0
0 0 0
0 0 0
0 0 0
0 0 0
0 0 0
0 0 0
0 0 0
0 0 0
0 0 0
0 0 0
0 0 0
0 0 0
0 0 0
0 0 0
0 0 0
0 0 0
0 0 0
0 0 0
0 0 0
0 0 0
0 0 0
0 0 0
0 0 0
0 0 0
0 0 0
0 0 0
0 0 0
0 0 0
0 0 0
0 0 0
0 0 0
0 0 0
0 0 0
0 0 0
0 0 0
0 0 0
0 0 0
0 0 0
0 0 0
0 0 0
0 0 0
0 0 0
0 0 0
0 0 0
0 0 0
0 0 0
0 0 0
0 0 0
0 0 0
0 0 0
0 0 0
0 0 0
0 0 0
0 0 0
0 0 0
0 0 0
0 0 0
0 0 0
0 0 0
0 0 0
0 0 0
0 0 0
0 0 0
0 0 0
0 0 0
0 0 0
0 0 0
0 0 0
0 0 0
0 0 0
0 0 0
0 0 0
0 0 0
0 0 0
0 0 0
0 0 0
0 0 0
0 0 0
0 0 0
0 0 0
0 0 0
0 0 0
0 0 0
0 0 0
0 0 0
0 0 0
0 0 0
0 0 0
0 0 0
0 0 0
0 0 0
0 0 0
0 0 0
0 0 0
0 0 0
0 0 0
0 0 0
0 0 0
0 0 0
0 0 0
0 0 0
0 0 0
0 0 0
0 0 0
0 0 0
0 0 0
0 0 0
0 0 0
0 0 0
0 0 0
0 0 0
0 0 0
0 0 0
0 0 0
0 0 0
0 0 0
0 0 0
0 0 0
0 0 0
0 0 0
0 0 0
0 0 0
0 0 0
0 0 0
0 0 0
0 0 0
0 0 0
0 0 0
0 0 0
0 0 0
0 0 0
0 0 0
0 0 0
0 0 0
0 0 0
0 0 0
0 0 0
0 0 0
0 0 0
0 0 0
0 0 0
0 0 0
0 0 0
0 0 0
0 0 0
0 0 0
0 0 0
0 0 0
0 0 0
0 0 0
0 0 0
0 0 0
0 0 0
0 0 0
0 0 0
0 0 0
0 0 0
1 0 0
2 0 0
2 0 0
2 0 0
2 0 0
2 0 0
2 0 0
2 0 0
2 0 0
1 1 1
1 1 1
1 1 1
1 1 1
1 1 1
1 1 1
1 1 1
1 1 1
2 0 1
3 0 1
3 0 1
3 0 1
3 0 1
3 0 1
3 0 1
3 0 1
2 0 1
1 1 1
1 1 1
2 1 3
1 1 5
3 1 6
2 1 7
0 0 9
0 1 13
0 4 16
0 1 10
0 1 10
12 20 29
47 64 75
70 105 125
86 122 140
87 124 142
82 120 140
75 113 134
75 113 134
76 116 136
76 116 136
76 116 136
76 116 136
76 116 136
76 116 136
76 116 136
76 116 136
76 116 136
76 116 136
76 116 136
76 116 136
76 116 136
75 116 136
74 116 136
74 116 136
74 116 136
74 116 136
74 116 136
74 116 136
74 116 136
74 116 136
74 116 136
74 116 136
74 116 136
74 116 136
73 117 138
72 117 138
71 117 138
71 117 138
74 118 139
72 118 141
70 117 136
72 113 134
70 117 136
74 118 139
73 117 136
72 113 134
72 117 135
75 118 137
78 118 139
76 117 136
71 110 131
70 105 125
70 105 125
0 0 0
0 0 0
0 0 0
0 0 0
0 0 0
0 0 0
0 0 0
0 0 0
0 0 0
0 0 0
0 0 0
0 0 0
0 0 0
0 0 0
0 0 0
0 0 0
1 0 0
2 0 0
2 0 0
2 0 0
2 0 0
2 0 0
2 0 0
2 0 0
2 0 0
2 0 0
2 0 0
2 0 0
2 0 0
2 0 0
2 0 0
2 0 0
2 0 0
1 0 0
0 0 0
0 0 0
0 0 0
0 0 0
0 0 0
0 0 0
0 0 0
0 0 0
0 0 0
0 0 0
0 0 0
0 0 0
0 0 0
0 0 0
0 0 0
0 0 0
0 0 0
0 0 0
0 0 0
0 0 0
0 0 0
0 0 0
0 0 0
0 0 0
1 0 0
2 0 0
2 0 0
2 0 0
3 0 1
3 0 1
3 0 1
3 0 1
3 0 1
3 0 1
3 0 1
3 0 1
4 1 2
4 1 2
4 1 2
3 0 1
3 0 2
3 0 3
3 0 3
2 0 2
1 1 2
0 0 4
0 0 4
0 0 5
0 4 9
2 10 15
0 12 19
0 8 14
4 17 26
47 64 75
71 97 112
83 113 128
85 116 133
85 116 133
82 115 132
82 115 132
79 115 135
79 115 135
78 116 137
78 116 138
77 116 139
77 116 139
76 115 138
76 115 138
76 115 138
76 115 138
76 115 138
76 115 138
76 115 138
76 115 138
76 115 138
76 115 138
76 115 138
76 115 138
76 115 138
76 115 138
76 115 138
76 115 138
75 116 137
74 116 136
74 117 135
74 117 135
74 117 135
74 117 135
74 117 135
74 117 135
74 117 135
74 117 135
74 117 135
74 117 135
74 117 135
74 117 135
74 117 135
74 117 135
74 117 135
74 116 136
74 116 136
74 116 136
74 116 136
74 116 136
74 116 136
74 116 136
74 116 136
74 116 136
74 116 136
74 116 136
74 116 136
74 116 136
74 116 136
74 116 136
74 116 136
74 116 136
74 116 136
74 116 136
74 116 136
74 116 136
74 116 136
74 116 136
74 116 136
74 116 136
74 116 136
74 116 136
74 116 136
74 116 136
74 116 136
74 116 136
75 116 134
77 116 134
79 115 132
89 120 137
96 123 138
81 101 115
39 51 61
0 0 5
0 0 0
2 0 0
3 4 2
0 3 0
0 4 1
0 4 1
0 3 2
0 2 3
0 1 4
0 1 5
0 1 5
0 2 3
0 2 3
0 2 3
0 2 3
0 2 3
0 2 3
0 2 3
0 2 3
0 2 3
0 2 3
0 2 3
0 2 3
0 2 3
0 2 3
0 2 3
0 2 3
0 1 1
0 0 0
0 0 0
0 0 0
0 0 0
0 0 0
0 0 0
0 0 0
0 0 0
0 0 0
0 0 0
0 0 0
0 0 0
0 0 0
0 0 0
0 0 0
0 0 0
0 0 0
0 0 0
0 0 0
0 0 0
0 0 0
0 0 0
0 0 0
0 0 0
0 0 0
0 0 0
0 0 0
0 0 0
0 0 0
0 0 0
0 0 0
0 0 0
0 0 0
0 0 0
0 0 0
0 0 0
0 0 0
0 0 0
0 0 0
0 0 0
0 0 0
0 0 0
0 0 0
0 0 0
0 0 0
0 0 0
0 0 0
0 0 0
0 0 0
0 0 0
0 0 0
0 0 0
0 0 0
0 0 0
0 0 0
0 0 0
0 0 0
0 0 0
0 0 0
0 0 0
0 0 0
0 0 0
0 0 0
0 0 0
0 0 0
0 0 0
0 0 0
0 0 0
0 0 0
0 0 0
0 0 0
0 0 0
0 0 0
0 0 0
0 0 0
0 0 0
0 0 0
0 0 0
0 0 0
0 0 0
0 0 0
0 0 0
0 0 0
0 0 0
0 0 0
0 0 0
0 0 0
0 0 0
0 0 0
0 0 0
0 0 0
0 0 0
0 0 0
0 0 0
0 0 0
0 0 0
0 0 0
0 0 0
0 0 0
0 0 0
0 0 0
0 0 0
0 0 0
0 0 0
0 0 0
0 0 0
0 0 0
0 0 0
0 0 0
0 0 0
0 0 0
0 0 0
0 0 0
0 0 0
0 0 0
0 0 0
0 0 0
0 0 0
0 0 0
0 0 0
0 0 0
0 0 0
0 0 0
0 0 0
0 0 0
0 0 0
0 0 0
0 0 0
0 0 0
0 0 0
0 0 0
0 0 0
0 0 0
0 0 0
0 0 0
0 0 0
0 0 0
0 0 0
0 0 0
0 0 0
0 0 0
0 0 0
0 0 0
0 0 0
0 0 0
0 0 0
0 0 0
0 0 0
0 0 0
0 0 0
0 0 0
0 0 0
0 0 0
0 0 0
0 0 0
0 0 0
0 0 0
0 0 0
0 0 0
0 0 0
0 0 0
0 0 0
0 0 0
0 0 0
0 0 0
0 0 0
0 0 0
0 0 0
0 0 0
0 0 0
0 0 0
0 0 0
0 0 0
0 0 0
0 0 0
0 0 0
0 0 0
0 0 0
0 0 0
0 0 0
0 0 0
0 0 0
0 0 0
0 0 0
0 0 0
0 0 0
0 0 0
0 0 0
0 0 0
0 0 0
1 0 0
2 0 0
2 0 0
2 0 0
2 0 0
2 0 0
2 0 0
2 0 0
2 0 0
1 1 1
1 1 1
1 1 1
1 1 1
1 1 1
1 1 1
1 1 1
1 1 1
2 0 1
3 0 1
3 0 1
3 0 1
3 0 1
3 0 1
3 0 1
3 0 1
2 0 1
1 1 1
1 1 1
1 1 3
1 1 5
3 1 6
2 1 7
0 0 9
0 4 12
0 12 19
0 1 10
0 0 7
12 20 29
55 79 91
75 117 131
82 120 140
75 117 131
75 118 134
76 115 135
76 115 135
76 116 136
76 116 136
76 116 136
76 116 136
76 116 136
76 116 136
76 116 136
76 116 136
76 116 136
76 116 136
76 116 136
76 116 136
76 116 136
75 116 136
74 116 136
74 116 136
74 116 136
74 116 136
74 116 136
74 116 136
74 116 136
74 116 136
74 116 136
74 116 136
74 116 136
74 116 136
73 117 138
72 117 138
71 117 138
71 117 138
72 118 141
72 118 141
70 117 136
72 113 134
70 117 136
75 119 142
73 118 135
72 113 134
72 113 134
75 118 137
78 118 139
78 117 135
71 110 131
70 105 125
71 97 112
0 0 0
0 0 0
0 0 0
0 0 0
0 0 0
0 0 0
0 0 0
0 0 0
0 0 0
0 0 0
0 0 0
0 0 0
0 0 0
0 0 0
0 0 0
0 0 0
1 0 0
2 0 0
2 0 0
2 0 0
2 0 0
2 0 0
2 0 0
2 0 0
2 0 0
2 0 0
2 0 0
2 0 0
2 0 0
2 0 0
2 0 0
2 0 0
2 0 0
1 0 0
0 0 0
0 0 0
0 0 0
0 0 0
0 0 0
0 0 0
0 0 0
0 0 0
0 0 0
0 0 0
0 0 0
0 0 0
0 0 0
0 0 0
0 0 0
0 0 0
0 0 0
0 0 0
0 0 0
0 0 0
0 0 0
0 0 0
0 0 0
0 0 0
1 0 0
2 0 0
2 0 0
2 0 0
3 0 1
3 0 1
3 0 1
3 0 1
3 0 1
3 0 1
3 0 2
3 0 2
4 1 5
4 1 2
4 1 2
3 0 2
3 0 2
3 0 3
3 0 3
3 0 2
1 1 2
0 0 3
0 0 3
0 0 4
0 1 6
0 8 14
0 8 14
0 8 14
0 12 19
23 41 52
47 64 75
70 92 106
81 106 120
83 113 128
83 113 128
82 113 130
82 115 132
79 115 132
79 115 135
78 115 137
78 116 138
77 116 138
76 115 138
76 115 138
76 115 138
76 115 138
76 115 138
76 115 138
76 115 138
76 115 138
76 115 138
76 115 138
76 115 138
76 115 138
76 115 138
76 115 138
76 115 138
76 115 138
75 116 137
74 116 136
74 117 135
74 117 135
74 117 135
74 117 135
74 117 135
74 117 135
74 117 135
74 117 135
74 117 135
74 117 135
74 117 135
74 117 135
74 117 135
74 117 135
74 117 135
74 116 136
74 116 136
74 116 136
74 116 136
74 116 136
74 116 136
74 116 136
74 116 136
74 116 136
74 116 136
74 116 136
74 116 136
74 116 136
74 116 136
74 116 136
74 116 136
74 116 136
74 116 136
74 116 136
74 116 136
74 116 136
74 116 136
74 116 136
74 116 136
74 116 136
74 116 136
74 116 136
74 116 136
74 116 136
74 116 136
74 116 136
75 116 134
77 116 134
79 115 132
89 120 137
96 123 138
81 101 115
39 51 61
0 0 5
0 0 0
2 0 0
3 4 2
0 3 0
0 4 1
0 4 1
0 3 0
0 2 2
0 2 3
0 2 4
0 2 4
0 2 3
0 2 3
0 2 3
0 2 3
0 2 3
0 2 3
0 2 3
0 2 3
0 2 3
0 2 3
0 2 3
0 2 3
0 2 3
0 2 3
0 2 3
0 2 3
0 1 1
0 0 0
0 0 0
0 0 0
0 0 0
0 0 0
0 0 0
0 0 0
0 0 0
0 0 0
0 0 0
0 0 0
0 0 0
0 0 0
0 0 0
0 0 0
0 0 0
0 0 0
0 0 0
0 0 0
0 0 0
0 0 0
0 0 0
0 0 0
0 0 0
0 0 0
0 0 0
0 0 0
0 0 0
0 0 0
0 0 0
0 0 0
0 0 0
0 0 0
0 0 0
0 0 0
0 0 0
0 0 0
0 0 0
0 0 0
0 0 0
0 0 0
0 0 0
0 0 0
0 0 0
0 0 0
0 0 0
0 0 0
0 0 0
0 0 0
0 0 0
0 0 0
0 0 0
0 0 0
0 0 0
0 0 0
0 0 0
0 0 0
0 0 0
0 0 0
0 0 0
0 0 0
0 0 0
0 0 0
0 0 0
0 0 0
0 0 0
0 0 0
0 0 0
0 0 0
0 0 0
0 0 0
0 0 0
0 0 0
0 0 0
0 0 0
0 0 0
0 0 0
0 0 0
0 0 0
0 0 0
0 0 0
0 0 0
0 0 0
0 0 0
0 0 0
0 0 0
0 0 0
0 0 0
0 0 0
0 0 0
0 0 0
0 0 0
0 0 0
0 0 0
0 0 0
0 0 0
0 0 0
0 0 0
0 0 0
0 0 0
0 0 0
0 0 0
0 0 0
0 0 0
0 0 0
0 0 0
0 0 0
0 0 0
0 0 0
0 0 0
0 0 0
0 0 0
0 0 0
0 0 0
0 0 0
0 0 0
0 0 0
0 0 0
0 0 0
0 0 0
0 0 0
0 0 0
0 0 0
0 0 0
0 0 0
0 0 0
0 0 0
0 0 0
0 0 0
0 0 0
0 0 0
0 0 0
0 0 0
0 0 0
0 0 0
0 0 0
0 0 0
0 0 0
0 0 0
0 0 0
0 0 1
0 0 1
0 0 1
0 0 1
0 0 1
0 0 0
0 0 0
0 0 0
0 0 0
0 0 0
0 0 0
0 0 0
0 0 0
0 0 0
0 0 0
0 0 0
0 0 0
0 0 0
0 0 0
0 0 0
0 0 0
0 0 0
0 0 0
0 0 0
0 0 0
0 0 0
0 0 0
0 0 0
0 0 0
0 0 0
0 0 0
0 0 0
0 0 0
0 0 0
0 0 0
0 0 0
0 0 0
0 0 0
0 0 0
0 0 0
0 0 0
0 0 0
0 0 0
0 0 0
0 0 0
0 0 0
0 0 0
0 0 0
0 0 0
0 0 0
1 0 0
2 0 0
2 0 0
2 0 0
2 0 0
2 0 0
2 0 0
2 0 0
2 0 0
1 1 1
1 1 1
1 1 1
1 1 1
1 1 1
1 1 1
1 1 1
1 1 1
1 1 1
2 1 1
2 1 1
2 1 1
2 1 1
2 1 1
2 1 1
2 1 1
1 1 2
1 1 2
1 1 3
0 0 4
0 0 6
2 1 7
0 0 7
0 0 9
0 4 12
0 12 19
0 1 13
0 0 9
14 29 40
68 87 100
86 122 140
82 120 140
75 117 131
75 117 131
76 115 135
76 116 136
76 116 136
76 116 136
76 116 136
76 116 136
76 116 136
76 116 136
76 116 136
76 116 136
76 116 136
76 116 136
76 116 136
76 116 136
76 116 136
75 116 136
74 116 136
74 116 136
74 116 136
74 116 136
74 116 136
74 116 136
74 116 136
74 116 136
74 116 136
74 116 136
74 116 136
74 116 136
73 117 138
72 117 138
71 117 138
71 117 138
72 118 141
72 118 141
70 117 136
70 117 136
70 117 136
75 119 142
74 118 139
72 117 135
72 113 134
73 118 135
82 120 140
82 120 140
70 105 125
71 97 112
55 79 91
0 0 0
0 0 0
0 0 0
0 0 0
0 0 0
0 0 0
0 0 0
0 0 0
0 0 0
0 0 0
0 0 0
0 0 0
0 0 0
0 0 0
0 0 0
0 0 0
1 0 0
2 0 0
2 0 0
2 0 0
2 0 0
2 0 0
2 0 0
2 0 0
2 0 0
2 0 0
2 0 0
2 0 0
2 0 0
2 0 0
2 0 0
2 0 0
2 0 0
1 0 0
0 0 0
0 0 0
0 0 0
0 0 0
0 0 0
0 0 0
0 0 0
0 0 0
0 0 0
0 0 0
0 0 0
0 0 0
0 0 0
0 0 0
0 0 0
0 0 0
0 0 0
0 0 0
0 0 0
0 0 0
0 0 0
0 0 0
0 0 0
0 0 0
1 0 0
2 0 0
2 0 0
2 0 0
3 0 1
3 0 1
3 0 1
3 0 1
3 0 1
3 0 1
3 0 2
3 0 3
4 1 5
4 1 5
4 1 5
3 0 3
3 0 3
3 0 3
3 0 3
3 0 2
1 1 2
0 0 2
0 0 2
0 1 3
0 1 5
0 3 5
0 4 9
2 10 15
0 12 19
4 17 26
24 35 46
47 64 75
71 97 112
84 109 126
85 113 132
85 116 133
82 115 132
82 115 132
79 115 135
79 115 135
78 116 137
77 116 137
76 115 138
76 115 138
76 115 138
76 115 138
76 115 138
76 115 138
76 115 138
76 115 138
76 115 138
76 115 138
76 115 138
76 115 138
76 115 138
76 115 138
76 115 138
76 115 138
75 116 137
74 116 136
74 117 135
74 117 135
74 117 135
74 117 135
74 117 135
74 117 135
74 117 135
74 117 135
74 117 135
74 117 135
74 117 135
74 117 135
74 117 135
74 117 135
74 117 135
74 116 136
74 116 136
74 116 136
74 116 136
74 116 136
74 116 136
74 116 136
74 116 136
74 116 136
74 116 136
74 116 136
74 116 136
74 116 136
74 116 136
74 116 136
74 116 136
74 116 136
74 116 136
74 116 136
74 116 136
74 116 136
74 116 136
74 116 136
74 116 136
74 116 136
74 116 136
74 116 136
74 116 136
74 116 136
74 116 136
74 116 136
75 116 134
77 116 134
79 115 132
89 118 136
96 123 138
81 101 115
39 51 61
0 0 5
0 0 0
2 0 0
3 4 2
0 3 0
0 4 1
0 4 1
0 3 0
0 2 1
0 2 2
0 2 3
0 2 3
0 2 3
0 2 3
0 2 3
0 2 3
0 2 3
0 2 3
0 2 3
0 2 3
0 2 3
0 2 3
0 2 3
0 2 3
0 2 3
0 2 3
0 2 3
0 2 3
0 1 1
0 0 0
0 0 0
0 0 0
0 0 0
0 0 0
0 0 0
0 0 0
0 0 0
0 0 0
0 0 0
0 0 0
0 0 0
0 0 0
0 0 0
0 0 0
0 0 0
0 0 0
0 0 0
0 0 0
0 0 0
0 0 0
0 0 0
0 0 0
0 0 0
0 0 0
0 0 0
0 0 0
0 0 0
0 0 0
0 0 0
0 0 0
0 0 0
0 0 0
0 0 0
0 0 0
0 0 0
0 0 0
0 0 0
0 0 0
0 0 0
0 0 0
0 0 0
0 0 0
0 0 0
0 0 0
0 0 0
0 0 0
0 0 0
0 0 0
0 0 0
0 0 0
0 0 0
0 0 0
0 0 0
0 0 0
0 0 0
0 0 0
0 0 0
0 0 0
0 0 0
0 0 0
0 0 0
0 0 0
0 0 0
0 0 0
0 0 0
0 0 0
0 0 0
0 0 0
0 0 0
0 0 0
0 0 0
0 0 0
0 0 0
0 0 0
0 0 0
0 0 0
0 0 0
0 0 0
0 0 0
0 0 0
0 0 0
0 0 0
0 0 0
0 0 0
0 0 0
0 0 0
0 0 0
0 0 0
0 0 0
0 0 0
0 0 0
0 0 0
0 0 0
0 0 0
0 0 0
0 0 0
0 0 0
0 0 0
0 0 0
0 0 0
0 0 0
0 0 0
0 0 0
0 0 0
0 0 0
0 0 0
0 0 0
0 0 0
0 0 0
0 0 0
0 0 0
0 0 0
0 0 0
0 0 0
0 0 0
0 0 0
0 0 0
0 0 0
0 0 0
0 0 0
0 0 0
0 0 0
0 0 0
0 0 0
0 0 0
0 0 0
0 0 0
0 0 0
0 0 0
0 0 0
0 0 0
0 0 0
0 0 0
0 0 0
0 0 0
0 0 0
0 0 0
0 0 0
0 0 0
0 0 1
0 0 2
0 0 2
0 0 2
0 0 1
0 0 0
0 0 0
0 0 0
0 0 0
0 0 0
0 0 0
0 0 0
0 0 0
0 0 0
0 0 0
0 0 0
0 0 0
0 0 0
0 0 0
0 0 0
0 0 0
0 0 0
0 0 0
0 0 0
0 0 0
0 0 0
0 0 0
0 0 0
0 0 0
0 0 0
0 0 0
0 0 0
0 0 0
0 0 0
0 0 0
0 0 0
0 0 0
0 0 0
0 0 0
0 0 0
0 0 0
0 0 0
0 0 0
0 0 0
0 0 0
0 0 0
0 0 0
0 0 0
0 0 0
0 0 0
1 0 0
2 0 0
2 0 0
2 0 0
2 0 0
2 0 0
2 0 0
2 0 0
2 0 0
1 1 1
1 1 1
1 1 1
1 1 1
1 1 1
1 1 1
1 1 1
1 1 1
1 1 1
1 1 1
1 1 1
1 1 1
1 1 1
1 1 1
1 1 1
1 1 1
1 1 2
1 1 3
1 1 5
1 1 5
0 0 6
0 0 7
1 1 8
0 1 10
0 4 12
0 4 16
0 0 12
0 0 12
24 35 46
70 92 106
87 124 142
86 122 140
71 110 131
76 113 132
76 115 135
76 116 136
76 116 136
76 116 136
76 116 136
76 116 136
76 116 136
76 116 136
76 116 136
76 116 136
76 116 136
76 116 136
76 116 136
76 116 136
76 116 136
75 116 136
74 116 136
74 116 136
74 116 136
74 116 136
74 116 136
74 116 136
74 116 136
74 116 136
74 116 136
74 116 136
74 116 136
74 116 136
73 117 136
72 117 138
71 117 138
71 117 138
75 119 142
75 119 142
71 117 138
70 117 136
71 117 138
75 119 142
74 118 139
72 117 135
72 113 134
75 118 134
82 120 140
82 120 140
70 105 125
70 92 106
55 79 91
0 0 0
0 0 0
0 0 0
0 0 0
0 0 0
0 0 0
0 0 0
0 0 0
0 0 0
0 0 0
0 0 0
0 0 0
0 0 0
0 0 0
0 0 0
0 0 0
1 0 0
2 0 0
2 0 0
2 0 0
2 0 0
2 0 0
2 0 0
2 0 0
2 0 0
2 0 0
2 0 0
2 0 0
2 0 0
2 0 0
2 0 0
2 0 0
2 0 0
1 0 0
0 0 0
0 0 0
0 0 0
0 0 0
0 0 0
0 0 0
0 0 0
0 0 0
0 0 0
0 0 0
0 0 0
0 0 0
0 0 0
0 0 0
0 0 0
0 0 0
0 0 0
0 0 0
0 0 0
0 0 0
0 0 0
0 0 0
0 0 0
0 0 0
1 0 0
2 0 0
2 0 0
2 0 0
3 0 1
3 0 1
3 0 1
3 0 1
3 0 2
3 0 2
3 0 3
3 0 3
4 1 5
4 1 5
4 1 5
3 0 3
3 0 3
3 0 3
3 0 3
2 0 2
1 1 2
1 1 2
1 1 2
0 1 1
0 0 3
0 0 3
0 2 4
0 4 9
0 4 9
0 6 13
4 17 26
23 41 52
55 79 91
81 106 120
91 117 133
93 121 136
82 115 132
82 113 130
82 115 132
82 115 136
79 115 135
77 115 136
77 115 137
77 115 137
76 115 138
76 115 138
76 115 138
76 115 138
76 115 138
76 115 138
76 115 138
76 115 138
76 115 138
76 115 138
76 115 138
76 115 138
76 115 138
76 115 138
75 116 137
74 116 136
74 117 135
74 117 135
74 117 135
74 117 135
74 117 135
74 117 135
74 117 135
74 117 135
74 117 135
74 117 135
74 117 135
74 117 135
74 117 135
74 117 135
74 117 135
74 116 136
74 116 136
74 116 136
74 116 136
74 116 136
74 116 136
74 116 136
74 116 136
74 116 136
74 116 136
74 116 136
74 116 136
74 116 136
74 116 136
74 116 136
74 116 136
74 116 136
74 116 136
74 116 136
74 116 136
74 116 136
74 116 136
74 116 136
74 116 136
74 116 136
74 116 136
74 116 136
74 116 136
74 116 136
74 116 136
74 116 136
75 116 134
77 116 134
79 115 132
89 118 136
96 123 138
81 101 115
39 51 61
0 0 5
0 0 0
2 0 0
3 4 2
0 3 0
0 4 1
0 4 1
0 3 0
0 2 1
0 2 2
0 2 3
0 2 3
0 2 3
0 2 3
0 2 3
0 2 3
0 2 3
0 2 3
0 2 3
0 2 3
0 2 3
0 2 3
0 2 3
0 2 3
0 2 3
0 2 3
0 2 3
0 2 3
0 1 1
0 0 0
0 0 0
0 0 0
0 0 0
0 0 0
0 0 0
0 0 0
0 0 0
0 0 0
0 0 0
0 0 0
0 0 0
0 0 0
0 0 0
0 0 0
0 0 0
0 0 0
0 0 0
0 0 0
0 0 0
0 0 0
0 0 0
0 0 0
0 0 0
0 0 0
0 0 0
0 0 0
0 0 0
0 0 0
0 0 0
0 0 0
0 0 0
0 0 0
0 0 0
0 0 0
0 0 0
0 0 0
0 0 0
0 0 0
0 0 0
0 0 0
0 0 0
0 0 0
0 0 0
0 0 0
0 0 0
0 0 0
0 0 0
0 0 0
0 0 0
0 0 0
0 0 0
0 0 0
0 0 0
0 0 0
0 0 0
0 0 0
0 0 0
0 0 0
0 0 0
0 0 0
0 0 0
0 0 0
0 0 0
0 0 0
0 0 0
0 0 0
0 0 0
0 0 0
0 0 0
0 0 0
0 0 0
0 0 0
0 0 0
0 0 0
0 0 0
0 0 0
0 0 0
0 0 0
0 0 0
0 0 0
0 0 0
0 0 0
0 0 0
0 0 0
0 0 0
0 0 0
0 0 0
0 0 0
0 0 0
0 0 0
0 0 0
0 0 0
0 0 0
0 0 0
0 0 0
0 0 0
0 0 0
0 0 0
0 0 0
0 0 0
0 0 0
0 0 0
0 0 0
0 0 0
0 0 0
0 0 0
0 0 0
0 0 0
0 0 0
0 0 0
0 0 0
0 0 0
0 0 0
0 0 0
0 0 0
0 0 0
0 0 0
0 0 0
0 0 0
0 0 0
0 0 0
0 0 0
0 0 0
0 0 0
0 0 0
0 0 0
0 0 0
0 0 0
0 0 0
0 0 0
0 0 0
0 0 0
0 0 0
0 0 0
0 0 0
0 0 0
0 0 0
0 0 0
0 0 0
0 0 1
0 0 2
0 0 2
0 0 2
0 0 1
0 0 0
0 0 0
0 0 0
0 0 0
0 0 0
0 0 0
0 0 0
0 0 0
0 0 0
0 0 0
0 0 0
0 0 0
0 0 0
0 0 0
0 0 0
0 0 0
0 0 0
0 0 0
0 0 0
0 0 0
0 0 0
0 0 0
0 0 0
0 0 0
0 0 0
0 0 0
0 0 0
0 0 0
0 0 0
0 0 0
0 0 0
0 0 0
0 0 0
0 0 0
0 0 0
0 0 0
0 0 0
0 0 0
0 0 0
0 0 0
0 0 0
0 0 0
0 0 0
0 0 0
0 0 0
1 0 0
2 0 0
2 0 0
2 0 0
2 0 0
2 0 0
2 0 0
2 0 0
2 0 0
1 1 1
1 1 1
1 1 1
1 1 1
1 1 1
1 1 1
1 1 1
1 1 1
1 1 1
1 1 1
1 1 1
1 1 1
1 1 1
1 1 1
1 1 1
1 1 1
1 1 2
1 1 3
1 1 5
1 1 5
0 0 6
1 1 8
1 1 8
0 1 10
0 0 12
0 4 16
0 0 12
0 4 16
23 41 52
71 97 112
99 127 141
86 122 140
71 110 131
71 110 131
76 115 135
77 116 137
76 116 136
76 116 136
76 116 136
76 116 136
76 116 136
76 116 136
76 116 136
76 116 136
76 116 136
76 116 136
76 116 136
76 116 136
76 116 136
75 116 136
74 116 136
74 116 136
74 116 136
74 116 136
74 116 136
74 116 136
74 116 136
74 116 136
74 116 136
74 116 136
74 116 136
74 116 136
73 117 136
72 117 138
71 117 138
71 117 138
72 118 141
72 118 141
71 117 138
70 117 136
70 117 136
75 119 142
75 118 138
72 117 135
75 117 131
75 117 131
82 120 140
86 122 140
70 105 125
68 87 100
55 79 91
0 0 0
0 0 0
0 0 0
0 0 0
0 0 0
0 0 0
0 0 0
0 0 0
0 0 0
0 0 0
0 0 0
0 0 0
0 0 0
0 0 0
0 0 0
0 0 0
1 0 0
2 0 0
2 0 0
2 0 0
2 0 0
2 0 0
2 0 0
2 0 0
2 0 0
2 0 0
2 0 0
2 0 0
2 0 0
2 0 0
2 0 0
2 0 0
2 0 0
1 0 0
0 0 0
0 0 0
0 0 0
0 0 0
0 0 0
0 0 0
0 0 0
0 0 0
0 0 0
0 0 0
0 0 0
0 0 0
0 0 0
0 0 0
0 0 0
0 0 0
0 0 0
0 0 0
0 0 0
0 0 0
0 0 0
0 0 0
0 0 0
0 0 0
1 0 0
2 0 0
2 0 0
2 0 0
3 0 1
3 0 1
3 0 1
3 0 1
3 0 2
3 0 3
3 0 3
3 0 3
4 1 2
4 1 5
4 1 5
3 0 3
3 0 3
3 0 3
3 0 3
2 0 2
2 0 2
2 0 2
2 0 2
0 0 2
0 0 2
0 0 1
0 0 0
1 1 2
0 0 3
0 1 6
2 10 15
14 29 40
31 51 61
68 87 100
88 109 125
91 117 133
83 113 128
83 113 128
82 115 132
82 115 132
79 115 135
79 115 135
77 115 136
77 115 137
76 115 138
76 115 138
76 115 138
76 115 138
76 115 138
76 115 138
76 115 138
76 115 138
76 115 138
76 115 138
76 115 138
76 115 138
76 115 138
76 115 138
75 116 137
74 116 136
74 117 135
74 117 135
74 117 135
74 117 135
74 117 135
74 117 135
74 117 135
74 117 135
74 117 135
74 117 135
74 117 135
74 117 135
74 117 135
74 117 135
74 117 135
74 116 136
74 116 136
74 116 136
74 116 136
74 116 136
74 116 136
74 116 136
74 116 136
74 116 136
74 116 136
74 116 136
74 116 136
74 116 136
74 116 136
74 116 136
74 116 136
74 116 136
74 116 136
74 116 136
74 116 136
74 116 136
74 116 136
74 116 136
74 116 136
74 116 136
74 116 136
74 116 136
74 116 136
74 116 136
74 116 136
74 116 136
75 116 134
77 116 134
79 115 132
89 118 136
96 123 138
81 101 115
39 51 61
0 0 5
0 0 0
2 0 0
3 4 2
0 3 0
0 4 1
0 4 1
0 3 0
0 2 1
0 2 2
0 2 3
0 2 3
0 2 3
0 2 3
0 2 3
0 2 3
0 2 3
0 2 3
0 2 3
0 2 3
0 2 3
0 2 3
0 2 3
0 2 3
0 2 3
0 2 3
0 2 3
0 2 3
0 1 1
0 0 0
0 0 0
0 0 0
0 0 0
0 0 0
0 0 0
0 0 0
0 0 0
0 0 0
0 0 0
0 0 0
0 0 0
0 0 0
0 0 0
0 0 0
0 0 0
0 0 0
0 0 0
0 0 0
0 0 0
0 0 0
0 0 0
0 0 0
0 0 0
0 0 0
0 0 0
0 0 0
0 0 0
0 0 0
0 0 0
0 0 0
0 0 0
0 0 0
0 0 0
0 0 0
0 0 0
0 0 0
0 0 0
0 0 0
0 0 0
0 0 0
0 0 0
0 0 0
0 0 0
0 0 0
0 0 0
0 0 0
0 0 0
0 0 0
0 0 0
0 0 0
0 0 0
0 0 0
0 0 0
0 0 0
0 0 0
0 0 0
0 0 0
0 0 0
0 0 0
0 0 0
0 0 0
0 0 0
0 0 0
0 0 0
0 0 0
0 0 0
0 0 0
0 0 0
0 0 0
0 0 0
0 0 0
0 0 0
0 0 0
0 0 0
0 0 0
0 0 0
0 0 0
0 0 0
0 0 0
0 0 0
0 0 0
0 0 0
0 0 0
0 0 0
0 0 0
0 0 0
0 0 0
0 0 0
0 0 0
0 0 0
0 0 0
0 0 0
0 0 0
0 0 0
0 0 0
0 0 0
0 0 0
0 0 0
0 0 0
0 0 0
0 0 0
0 0 0
0 0 0
0 0 0
0 0 0
0 0 0
0 0 0
0 0 0
0 0 0
0 0 0
0 0 0
0 0 0
0 0 0
0 0 0
0 0 0
0 0 0
0 0 0
0 0 0
0 0 0
0 0 0
0 0 0
0 0 0
0 0 0
0 0 0
0 0 0
0 0 0
0 0 0
0 0 0
0 0 0
0 0 0
0 0 0
0 0 0
0 0 0
0 0 0
0 0 0
0 0 0
0 0 0
0 0 0
0 0 0
0 0 1
0 0 2
0 0 2
0 0 2
0 0 1
0 0 0
0 0 0
0 0 0
0 0 0
0 0 0
0 0 0
0 0 0
0 0 0
0 0 0
0 0 0
0 0 0
0 0 0
0 0 0
0 0 0
0 0 0
0 0 0
0 0 0
0 0 0
0 0 0
0 0 0
0 0 0
0 0 0
0 0 0
0 0 0
0 0 0
0 0 0
0 0 0
0 0 0
0 0 0
0 0 0
0 0 0
0 0 0
0 0 0
0 0 0
0 0 0
0 0 0
0 0 0
0 0 0
0 0 0
0 0 0
0 0 0
0 0 0
0 0 0
0 0 0
0 0 0
1 0 0
2 0 0
2 0 0
2 0 0
2 0 0
2 0 0
2 0 0
2 0 0
2 0 0
1 1 1
1 1 1
1 1 1
1 1 1
1 1 1
1 1 1
1 1 1
1 1 1
1 1 1
1 1 1
1 1 1
1 1 1
1 1 1
1 1 1
1 1 1
1 1 1
1 1 2
1 1 3
1 1 5
1 1 5
0 0 6
0 0 9
0 1 10
0 1 10
0 0 9
0 0 12
0 0 12
0 12 19
31 51 61
71 97 112
87 124 142
86 122 140
71 110 131
76 113 132
76 115 135
77 116 137
76 116 136
76 116 136
76 116 136
76 116 136
76 116 136
76 116 136
76 116 136
76 116 136
76 116 136
76 116 136
76 116 136
76 116 136
76 116 136
75 116 136
74 116 136
74 116 136
74 116 136
74 116 136
74 116 136
74 116 136
74 116 136
74 116 136
74 116 136
74 116 136
74 116 136
74 116 136
73 117 136
72 117 138
72 117 138
72 117 138
72 118 141
72 118 141
71 117 138
70 117 136
70 117 136
74 118 139
75 118 137
73 115 135
75 117 131
75 117 131
86 122 140
86 122 140
70 105 125
55 79 91
53 72 83
0 0 0
0 0 0
0 0 0
0 0 0
0 0 0
0 0 0
0 0 0
0 0 0
0 0 0
0 0 0
0 0 0
0 0 0
0 0 0
0 0 0
0 0 0
0 0 0
1 0 0
2 0 0
2 0 0
2 0 0
2 0 0
2 0 0
2 0 0
2 0 0
2 0 0
2 0 0
2 0 0
2 0 0
2 0 0
2 0 0
2 0 0
2 0 0
2 0 0
1 0 0
0 0 0
0 0 0
0 0 0
0 0 0
0 0 0
0 0 0
0 0 0
0 0 0
0 0 0
0 0 0
0 0 0
0 0 0
0 0 0
0 0 0
0 0 0
0 0 0
0 0 0
0 0 0
0 0 0
0 0 0
0 0 0
0 0 0
0 0 0
0 0 0
1 0 0
2 0 0
2 0 0
2 0 0
2 0 0
2 0 0
2 0 0
2 0 0
3 0 2
3 0 3
3 0 3
3 0 3
3 0 3
3 0 3
3 0 3
3 0 3
3 0 3
3 0 3
3 0 3
2 1 3
3 0 2
3 0 2
3 0 2
1 1 2
1 1 3
0 1 1
0 2 1
1 1 2
0 2 3
1 4 5
0 4 9
2 10 15
12 20 29
39 51 61
68 87 100
81 106 120
84 109 126
83 113 128
83 113 128
82 113 130
82 115 132
79 115 135
77 115 134
77 115 137
76 115 138
76 115 138
76 115 138
76 115 138
76 115 138
76 115 138
76 115 138
76 115 138
76 115 138
76 115 138
76 115 138
76 115 138
76 115 138
76 115 138
75 116 137
74 116 136
74 117 135
74 117 135
74 117 135
74 117 135
74 117 135
74 117 135
74 117 135
74 117 135
74 117 135
74 117 135
74 117 135
74 117 135
74 117 135
74 117 135
74 117 135
74 116 136
74 116 136
74 116 136
74 116 136
74 116 136
74 116 136
74 116 136
74 116 136
74 116 136
74 116 136
74 116 136
74 116 136
74 116 136
74 116 136
74 116 136
74 116 136
74 116 136
74 116 136
74 116 136
74 116 136
74 116 136
74 116 136
74 116 136
74 116 136
74 116 136
74 116 136
74 116 136
74 116 136
74 116 136
74 116 136
74 116 136
75 116 134
77 116 134
79 115 132
89 120 137
96 123 138
81 101 115
39 51 61
0 0 5
0 0 0
2 0 0
3 4 2
0 3 0
0 4 1
0 4 1
0 3 2
0 2 2
0 1 3
0 1 4
0 1 4
0 2 3
0 2 3
0 2 3
0 2 3
0 2 3
0 2 3
0 2 3
0 2 3
0 2 3
0 2 3
0 2 3
0 2 3
0 2 3
0 2 3
0 2 3
0 2 3
0 1 1
0 0 0
0 0 0
0 0 0
0 0 0
0 0 0
0 0 0
0 0 0
0 0 0
0 0 0
0 0 0
0 0 0
0 0 0
0 0 0
0 0 0
0 0 0
0 0 0
0 0 0
0 0 0
0 0 0
0 0 0
0 0 0
0 0 0
0 0 0
0 0 0
0 0 0
0 0 0
0 0 0
0 0 0
0 0 0
0 0 0
0 0 0
0 0 0
0 0 0
0 0 0
0 0 0
0 0 0
0 0 0
0 0 0
0 0 0
0 0 0
0 0 0
0 0 0
0 0 0
0 0 0
0 0 0
0 0 0
0 0 0
0 0 0
0 0 0
0 0 0
0 0 0
0 0 0
0 0 0
0 0 0
0 0 0
0 0 0
0 0 0
0 0 0
0 0 0
0 0 0
0 0 0
0 0 0
0 0 0
0 0 0
0 0 0
0 0 0
0 0 0
0 0 0
0 0 0
0 0 0
0 0 0
0 0 0
0 0 0
0 0 0
0 0 0
0 0 0
0 0 0
0 0 0
0 0 0
0 0 0
0 0 0
0 0 0
0 0 0
0 0 0
0 0 0
0 0 0
0 0 0
0 0 0
0 0 0
0 0 0
0 0 0
0 0 0
0 0 0
0 0 0
0 0 0
0 0 0
0 0 0
0 0 0
0 0 0
0 0 0
0 0 0
0 0 0
0 0 0
0 0 0
0 0 0
0 0 0
0 0 0
0 0 0
0 0 0
0 0 0
0 0 0
0 0 0
0 0 0
0 0 0
0 0 0
0 0 0
0 0 0
0 0 0
0 0 0
0 0 0
0 0 0
0 0 0
0 0 0
0 0 0
0 0 0
0 0 0
0 0 0
0 0 0
0 0 0
0 0 0
0 0 0
0 0 0
0 0 0
0 0 0
0 0 0
0 0 0
0 0 0
0 0 0
0 0 0
0 0 0
0 0 1
0 0 2
0 0 2
0 0 2
0 0 1
0 0 0
0 0 0
0 0 0
0 0 0
0 0 0
0 0 0
0 0 0
0 0 0
0 0 0
0 0 0
0 0 0
0 0 0
0 0 0
0 0 0
0 0 0
0 0 0
0 0 0
0 0 0
0 0 0
0 0 0
0 0 0
0 0 0
0 0 0
0 0 0
0 0 0
0 0 0
0 0 0
0 0 0
0 0 0
0 0 0
0 0 0
0 0 0
0 0 0
0 0 0
0 0 0
0 0 0
0 0 0
0 0 0
0 0 0
0 0 0
0 0 0
0 0 0
0 0 0
0 0 0
0 0 0
1 0 0
2 0 0
2 0 0
2 0 0
2 0 0
2 0 0
2 0 0
2 0 0
2 0 0
1 1 1
1 1 1
1 1 1
1 1 1
1 1 1
1 1 1
1 1 1
1 1 1
2 0 1
2 0 1
2 0 1
2 0 1
2 0 1
2 0 1
2 0 1
2 0 1
2 1 2
1 1 3
1 1 5
0 0 6
0 0 7
0 0 9
0 1 10
0 1 13
0 1 10
0 0 12
0 4 16
14 29 40
31 51 61
71 97 112
82 115 132
77 117 133
71 110 131
75 116 134
76 115 135
77 116 137
76 116 136
76 116 136
76 116 136
76 116 136
76 116 136
76 116 136
76 116 136
76 116 136
76 116 136
76 116 136
76 116 136
76 116 136
76 116 136
75 116 136
74 116 136
74 116 136
74 116 136
74 116 136
74 116 136
74 116 136
74 116 136
74 116 136
74 116 136
74 116 136
74 116 136
74 116 136
75 116 137
73 116 139
73 116 139
73 116 139
74 118 139
72 118 141
71 117 138
72 113 134
73 115 135
75 118 138
76 117 136
75 116 134
75 117 131
77 115 131
86 122 140
89 120 137
71 97 112
53 72 83
31 51 61
0 0 0
0 0 0
0 0 0
0 0 0
0 0 0
0 0 0
0 0 0
0 0 0
0 0 0
0 0 0
0 0 0
0 0 0
0 0 0
0 0 0
0 0 0
0 0 0
1 0 0
2 0 0
2 0 0
2 0 0
2 0 0
2 0 0
2 0 0
2 0 0
2 0 0
2 0 0
2 0 0
2 0 0
2 0 0
2 0 0
2 0 0
2 0 0
2 0 0
1 0 0
0 0 0
0 0 0
0 0 0
0 0 0
0 0 0
0 0 0
0 0 0
0 0 0
0 0 0
0 0 0
0 0 0
0 0 0
0 0 0
0 0 0
0 0 0
0 0 0
0 0 0
0 0 0
0 0 0
0 0 0
0 0 0
0 0 0
0 0 0
0 0 0
1 0 0
2 0 0
2 0 0
2 0 0
2 0 0
2 0 0
2 0 0
2 0 0
3 0 2
3 0 3
3 0 3
3 0 3
3 0 3
3 0 3
3 0 3
3 0 3
3 0 3
3 0 3
3 0 3
3 0 3
3 0 2
3 0 1
3 0 1
2 0 2
1 2 3
0 3 5
0 4 5
0 4 5
0 4 5
1 6 12
0 4 5
0 1 6
0 8 14
14 29 40
39 51 61
55 79 91
81 101 115
88 109 125
83 113 128
83 113 128
82 115 132
82 115 132
78 116 135
77 115 137
76 115 138
76 115 138
76 115 138
76 115 138
76 115 138
76 115 138
76 115 138
76 115 138
76 115 138
76 115 138
76 115 138
76 115 138
76 115 138
76 115 138
75 116 137
74 116 136
74 117 135
74 117 135
74 117 135
74 116 136
74 116 136
74 116 136
74 116 136
74 116 136
74 116 136
74 116 136
74 116 136
74 116 136
74 116 136
74 116 136
74 116 136
74 116 136
74 116 136
74 116 136
74 116 136
74 116 136
74 116 136
74 116 136
74 116 136
74 116 136
74 116 136
74 116 136
74 116 136
74 116 136
74 116 136
74 116 136
74 116 136
74 116 136
74 116 136
74 116 136
74 116 136
74 116 136
74 116 136
74 116 136
74 116 136
74 116 136
74 116 136
74 116 136
74 116 136
74 116 136
74 116 136
74 116 136
75 116 134
77 116 134
79 115 132
89 120 137
96 123 138
81 101 115
39 51 61
0 0 5
0 0 0
2 0 0
3 4 2
0 3 0
0 4 1
0 4 1
0 3 2
0 2 3
0 1 4
0 1 5
0 1 5
0 2 3
0 2 3
0 2 3
0 2 3
0 2 3
0 2 3
0 2 3
0 2 3
0 2 3
0 2 3
0 2 3
0 2 3
0 2 3
0 2 3
0 2 3
0 2 3
0 1 1
0 0 0
0 0 0
0 0 0
0 0 0
0 0 0
0 0 0
0 0 0
0 0 0
0 0 0
0 0 0
0 0 0
0 0 0
0 0 0
0 0 0
0 0 0
0 0 0
0 0 0
0 0 0
0 0 0
0 0 0
0 0 0
0 0 0
0 0 0
0 0 0
0 0 0
0 0 0
0 0 0
0 0 0
0 0 0
0 0 0
0 0 0
0 0 0
0 0 0
0 0 0
0 0 0
0 0 0
0 0 0
0 0 0
0 0 0
0 0 0
0 0 0
0 0 0
0 0 0
0 0 0
0 0 0
0 0 0
0 0 0
0 0 0
0 0 0
0 0 0
0 0 0
0 0 0
0 0 0
0 0 0
0 0 0
0 0 0
0 0 0
0 0 0
0 0 0
0 0 0
0 0 0
0 0 0
0 0 0
0 0 0
0 0 0
0 0 0
0 0 0
0 0 0
0 0 0
0 0 0
0 0 0
0 0 0
0 0 0
0 0 0
0 0 0
0 0 0
0 0 0
0 0 0
0 0 0
0 0 0
0 0 0
0 0 0
0 0 0
0 0 0
0 0 0
0 0 0
0 0 0
0 0 0
0 0 0
0 0 0
0 0 0
0 0 0
0 0 0
0 0 0
0 0 0
0 0 0
0 0 0
0 0 0
0 0 0
0 0 0
0 0 0
0 0 0
0 0 0
0 0 0
0 0 0
0 0 0
0 0 0
0 0 0
0 0 0
0 0 0
0 0 0
0 0 0
0 0 0
0 0 0
0 0 0
0 0 0
0 0 0
0 0 0
0 0 0
0 0 0
0 0 0
0 0 0
0 0 0
0 0 0
0 0 0
0 0 0
0 0 0
0 0 0
0 0 0
0 0 0
0 0 0
0 0 0
0 0 0
0 0 0
0 0 0
0 0 0
0 0 0
0 0 0
0 0 0
0 0 0
0 0 1
0 0 2
0 0 2
0 0 2
0 0 1
0 0 0
0 0 0
0 0 0
0 0 0
0 0 0
0 0 0
0 0 0
0 0 0
0 0 0
0 0 0
0 0 0
0 0 0
0 0 0
0 0 0
0 0 0
0 0 0
0 0 0
0 0 0
0 0 0
0 0 0
0 0 0
0 0 0
0 0 0
0 0 0
0 0 0
0 0 0
0 0 0
0 0 0
0 0 0
0 0 0
0 0 0
0 0 0
0 0 0
0 0 0
0 0 0
0 0 0
0 0 0
0 0 0
0 0 0
0 0 0
0 0 0
0 0 0
0 0 0
0 0 0
0 0 0
1 0 0
2 0 0
2 0 0
2 0 0
2 0 0
2 0 0
2 0 0
2 0 0
2 0 0
1 1 1
1 1 1
1 1 1
1 1 1
1 1 1
1 1 1
1 1 1
1 1 1
2 0 1
3 0 1
3 0 1
3 0 1
3 0 1
3 0 1
3 0 1
3 0 1
2 1 2
1 1 3
1 1 5
0 0 7
1 1 8
0 0 9
0 0 12
0 1 13
0 0 12
0 1 13
4 17 26
23 41 52
47 64 75
70 92 106
77 107 124
75 117 131
75 117 131
75 118 134
75 116 134
76 115 135
76 116 136
76 116 136
76 116 136
76 116 136
76 116 136
76 116 136
76 116 136
76 116 136
76 116 136
76 116 136
76 116 136
76 116 136
76 116 136
75 116 136
74 116 136
74 116 136
74 116 136
74 116 136
74 116 136
74 116 136
74 116 136
74 116 136
74 116 136
74 116 136
74 116 136
74 116 136
75 116 137
74 116 138
74 116 138
74 116 138
74 118 139
75 118 142
73 116 139
73 115 135
74 116 136
77 117 137
77 116 137
76 113 132
76 113 132
77 115 131
89 120 137
89 120 137
71 97 112
47 64 75
23 41 52
0 0 0
0 0 0
0 0 0
0 0 0
0 0 0
0 0 0
0 0 0
0 0 0
0 0 0
0 0 0
0 0 0
0 0 0
0 0 0
0 0 0
0 0 0
0 0 0
1 0 0
2 0 0
2 0 0
2 0 0
2 0 0
2 0 0
2 0 0
2 0 0
2 0 0
2 0 0
2 0 0
2 0 0
2 0 0
2 0 0
2 0 0
2 0 0
2 0 0
1 0 0
0 0 0
0 0 0
0 0 0
0 0 0
0 0 0
0 0 0
0 0 0
0 0 0
0 0 0
0 0 0
0 0 0
0 0 0
0 0 0
0 0 0
0 0 0
0 0 0
0 0 0
0 0 0
0 0 0
0 0 0
0 0 0
0 0 0
0 0 0
0 0 0
1 0 0
2 0 0
2 0 0
2 0 0
2 0 0
2 0 0
2 0 0
2 0 0
3 0 2
3 0 3
3 0 3
3 0 3
3 0 3
3 0 3
3 0 3
3 0 3
3 0 3
3 0 3
3 0 3
3 0 3
3 0 2
3 0 1
3 0 1
2 1 2
1 1 2
0 3 2
0 4 5
0 4 5
0 6 5
0 4 9
0 4 5
0 2 4
0 3 5
2 10 15
14 29 40
47 64 75
68 87 100
81 106 120
88 109 125
90 113 128
85 116 133
82 115 132
79 115 135
76 114 136
76 115 138
76 115 138
76 115 138
76 115 138
76 115 138
76 115 138
76 115 138
76 115 138
76 115 138
76 115 138
76 115 138
76 115 138
76 115 138
76 115 138
75 116 137
74 116 136
74 117 135
74 117 135
74 117 135
74 116 136
74 116 136
74 116 136
74 116 136
74 116 136
74 116 136
74 116 136
74 116 136
74 116 136
74 116 136
74 116 136
74 116 136
74 116 136
74 116 136
74 116 136
74 116 136
74 116 136
74 116 136
74 116 136
74 116 136
74 116 136
74 116 136
74 116 136
74 116 136
74 116 136
74 116 136
74 116 136
74 116 136
74 116 136
74 116 136
74 116 136
74 116 136
74 116 136
74 116 136
74 116 136
74 116 136
74 116 136
74 116 136
74 116 136
74 116 136
74 116 136
74 116 136
74 116 136
75 116 134
77 116 134
79 115 132
89 120 137
97 124 139
81 101 115
39 51 61
0 0 6
0 0 0
2 0 0
3 4 2
0 3 0
0 4 1
0 4 1
0 3 2
0 2 3
0 1 4
0 1 5
0 1 5
0 2 3
0 2 3
0 2 3
0 2 3
0 2 3
0 2 3
0 2 3
0 2 3
0 2 3
0 2 3
0 2 3
0 2 3
0 2 3
0 2 3
0 2 3
0 2 3
0 1 1
0 0 0
0 0 0
0 0 0
0 0 0
0 0 0
0 0 0
0 0 0
0 0 0
0 0 0
0 0 0
0 0 0
0 0 0
0 0 0
0 0 0
0 0 0
0 0 0
0 0 0
0 0 0
0 0 0
0 0 0
0 0 0
0 0 0
0 0 0
0 0 0
0 0 0
0 0 0
0 0 0
0 0 0
0 0 0
0 0 0
0 0 0
0 0 0
0 0 0
0 0 0
0 0 0
0 0 0
0 0 0
0 0 0
0 0 0
0 0 0
0 0 0
0 0 0
0 0 0
0 0 0
0 0 0
0 0 0
0 0 0
0 0 0
0 0 0
0 0 0
0 0 0
0 0 0
0 0 0
0 0 0
0 0 0
0 0 0
0 0 0
0 0 0
0 0 0
0 0 0
0 0 0
0 0 0
0 0 0
0 0 0
0 0 0
0 0 0
0 0 0
0 0 0
0 0 0
0 0 0
0 0 0
0 0 0
0 0 0
0 0 0
0 0 0
0 0 0
0 0 0
0 0 0
0 0 0
0 0 0
0 0 0
0 0 0
0 0 0
0 0 0
0 0 0
0 0 0
0 0 0
0 0 0
0 0 0
0 0 0
0 0 0
0 0 0
0 0 0
0 0 0
0 0 0
0 0 0
0 0 0
0 0 0
0 0 0
0 0 0
0 0 0
0 0 0
0 0 0
0 0 0
0 0 0
0 0 0
0 0 0
0 0 0
0 0 0
0 0 0
0 0 0
0 0 0
0 0 0
0 0 0
0 0 0
0 0 0
0 0 0
0 0 0
0 0 0
0 0 0
0 0 0
0 0 0
0 0 0
0 0 0
0 0 0
0 0 0
0 0 0
0 0 0
0 0 0
0 0 0
0 0 0
0 0 0
0 0 0
0 0 0
0 0 0
0 0 0
0 0 0
0 0 0
0 0 0
0 0 0
0 0 1
0 0 2
0 0 2
0 0 2
0 0 1
0 0 0
0 0 0
0 0 0
0 0 0
0 0 0
0 0 0
0 0 0
0 0 0
0 0 0
0 0 0
0 0 0
0 0 0
0 0 0
0 0 0
0 0 0
0 0 0
0 0 0
0 0 0
0 0 0
0 0 0
0 0 0
0 0 0
0 0 0
0 0 0
0 0 0
0 0 0
0 0 0
0 0 0
0 0 0
0 0 0
0 0 0
0 0 0
0 0 0
0 0 0
0 0 0
0 0 0
0 0 0
0 0 0
0 0 0
0 0 0
0 0 0
0 0 0
0 0 0
0 0 0
0 0 0
1 0 0
2 0 0
2 0 0
2 0 0
2 0 0
2 0 0
2 0 0
2 0 0
2 0 0
1 1 1
1 1 1
1 1 1
1 1 1
1 1 1
1 1 1
1 1 1
1 1 1
2 0 1
3 0 1
3 0 1
3 0 1
3 0 1
3 0 1
3 0 1
3 0 2
2 1 3
1 1 5
1 1 5
0 0 7
0 0 9
0 0 9
0 0 12
0 1 13
0 0 12
0 4 16
12 20 29
31 51 61
55 79 91
71 97 112
77 107 124
78 117 135
78 117 135
77 117 137
75 116 134
75 116 134
76 116 136
76 116 136
76 116 136
76 116 136
76 116 136
76 116 136
76 116 136
76 116 136
76 116 136
76 116 136
76 116 136
76 116 136
76 116 136
75 116 136
74 116 136
74 116 136
74 116 136
74 116 136
74 116 136
74 116 136
74 116 136
74 116 136
74 116 136
74 116 136
74 116 136
74 116 136
75 116 137
74 116 138
74 116 138
74 116 138
73 117 141
73 117 141
74 115 139
73 115 135
76 114 136
77 116 137
77 115 136
76 113 132
79 113 132
79 113 132
89 120 137
89 120 137
70 92 106
31 51 61
23 41 52
0 0 0
0 0 0
0 0 0
0 0 0
0 0 0
0 0 0
0 0 0
0 0 0
0 0 0
0 0 0
0 0 0
0 0 0
0 0 0
0 0 0
0 0 0
0 0 0
1 0 0
2 0 0
2 0 0
2 0 0
2 0 0
2 0 0
2 0 0
2 0 0
2 0 0
2 0 0
2 0 0
2 0 0
2 0 0
2 0 0
2 0 0
2 0 0
2 0 0
1 0 0
0 0 0
0 0 0
0 0 0
0 0 0
0 0 0
0 0 0
0 0 0
0 0 0
0 0 0
0 0 0
0 0 0
0 0 0
0 0 0
0 0 0
0 0 0
0 0 0
0 0 0
0 0 0
0 0 0
0 0 0
0 0 0
0 0 0
0 0 0
0 0 0
1 0 0
2 0 0
2 0 0
2 0 0
2 0 0
2 0 0
2 0 0
2 0 0
3 0 2
3 0 3
3 0 3
3 0 3
3 0 3
3 0 3
3 0 3
3 0 3
3 0 3
3 0 3
3 0 3
3 0 3
3 0 3
3 0 1
3 0 1
1 1 1
1 1 1
1 1 2
1 3 2
0 3 2
0 4 5
0 4 5
0 4 5
0 4 9
0 4 9
0 4 9
0 12 19
24 35 46
47 64 75
70 92 106
81 106 120
90 113 128
85 113 132
82 113 130
79 114 134
76 114 136
76 115 138
76 115 138
76 115 138
76 115 138
76 115 138
76 115 138
76 115 138
76 115 138
76 115 138
76 115 138
76 115 138
76 115 138
76 115 138
76 115 138
75 116 137
74 116 136
74 117 135
74 117 135
74 117 135
74 116 136
74 116 136
74 116 136
74 116 136
74 116 136
74 116 136
74 116 136
74 116 136
74 116 136
74 116 136
74 116 136
74 116 136
74 116 136
74 116 136
74 116 136
74 116 136
74 116 136
74 116 136
74 116 136
74 116 136
74 116 136
74 116 136
74 116 136
74 116 136
74 116 136
74 116 136
74 116 136
74 116 136
74 116 136
74 116 136
74 116 136
74 116 136
74 116 136
74 116 136
74 116 136
74 116 136
74 116 136
74 116 136
74 116 136
74 116 136
74 116 136
74 116 136
74 116 136
75 116 134
77 116 134
79 115 132
89 120 137
97 124 139
81 101 115
39 51 61
0 0 7
0 0 0
2 0 0
3 4 2
0 3 0
0 4 1
0 4 1
0 3 2
0 2 3
0 1 4
0 1 5
0 1 5
0 2 3
0 2 3
0 2 3
0 2 3
0 2 3
0 2 3
0 2 3
0 2 3
0 2 3
0 2 3
0 2 3
0 2 3
0 2 3
0 2 3
0 2 3
0 2 3
0 1 1
0 0 0
0 0 0
0 0 0
0 0 0
0 0 0
0 0 0
0 0 0
0 0 0
0 0 0
0 0 0
0 0 0
0 0 0
0 0 0
0 0 0
0 0 0
0 0 0
0 0 0
0 0 0
0 0 0
0 0 0
0 0 0
0 0 0
0 0 0
0 0 0
0 0 0
0 0 0
0 0 0
0 0 0
0 0 0
0 0 0
0 0 0
0 0 0
0 0 0
0 0 0
0 0 0
0 0 0
0 0 0
0 0 0
0 0 0
0 0 0
0 0 0
0 0 0
0 0 0
0 0 0
0 0 0
0 0 0
0 0 0
0 0 0
0 0 0
0 0 0
0 0 0
0 0 0
0 0 0
0 0 0
0 0 0
0 0 0
0 0 0
0 0 0
0 0 0
0 0 0
0 0 0
0 0 0
0 0 0
0 0 0
0 0 0
0 0 0
0 0 0
0 0 0
0 0 0
0 0 0
0 0 0
0 0 0
0 0 0
0 0 0
0 0 0
0 0 0
0 0 0
0 0 0
0 0 0
0 0 0
0 0 0
0 0 0
0 0 0
0 0 0
0 0 0
0 0 0
0 0 0
0 0 0
0 0 0
0 0 0
0 0 0
0 0 0
0 0 0
0 0 0
0 0 0
0 0 0
0 0 0
0 0 0
0 0 0
0 0 0
0 0 0
0 0 0
0 0 0
0 0 0
0 0 0
0 0 0
0 0 0
0 0 0
0 0 0
0 0 0
0 0 0
0 0 0
0 0 0
0 0 0
0 0 0
0 0 0
0 0 0
0 0 0
0 0 0
0 0 0
0 0 0
0 0 0
0 0 0
0 0 0
0 0 0
0 0 0
0 0 0
0 0 0
0 0 0
0 0 0
0 0 0
0 0 0
0 0 0
0 0 0
0 0 0
0 0 0
0 0 0
0 0 0
0 0 0
0 0 0
0 0 1
0 0 2
0 0 2
0 0 2
0 0 1
0 0 0
0 0 0
0 0 0
0 0 0
0 0 0
0 0 0
0 0 0
0 0 0
0 0 0
0 0 0
0 0 0
0 0 0
0 0 0
0 0 0
0 0 0
0 0 0
0 0 0
0 0 0
0 0 0
0 0 0
0 0 0
0 0 0
0 0 0
0 0 0
0 0 0
0 0 0
0 0 0
0 0 0
0 0 0
0 0 0
0 0 0
0 0 0
0 0 0
0 0 0
0 0 0
0 0 0
0 0 0
0 0 0
0 0 0
0 0 0
0 0 0
0 0 0
0 0 0
0 0 0
0 0 0
1 0 0
2 0 0
2 0 0
2 0 0
2 0 0
2 0 0
2 0 0
2 0 0
2 0 0
1 1 1
1 1 1
1 1 1
1 1 1
1 1 1
1 1 1
1 1 1
1 1 1
2 0 1
3 0 1
3 0 1
3 0 1
3 0 1
3 0 1
3 0 2
3 0 3
2 1 3
1 1 5
0 0 6
0 0 7
0 0 9
0 0 12
0 0 12
0 1 13
0 0 12
0 4 16
14 29 40
47 64 75
68 87 100
70 105 125
77 115 131
86 122 140
86 122 140
78 118 139
75 116 134
75 116 134
76 116 136
76 116 136
76 116 136
76 116 136
76 116 136
76 116 136
76 116 136
76 116 136
76 116 136
76 116 136
76 116 136
76 116 136
76 116 136
75 116 136
74 116 136
74 116 136
74 116 136
74 116 136
74 116 136
74 116 136
74 116 136
74 116 136
74 116 136
74 116 136
74 116 136
74 116 136
75 116 137
74 116 138
74 116 138
74 116 138
75 116 139
75 116 141
74 115 139
76 114 136
76 114 136
77 115 136
76 114 136
79 113 132
79 113 132
82 113 130
93 121 136
93 121 136
68 87 100
31 51 61
14 29 40
0 0 0
0 0 0
0 0 0
0 0 0
0 0 0
0 0 0
0 0 0
0 0 0
0 0 0
0 0 0
0 0 0
0 0 0
0 0 0
0 0 0
0 0 0
0 0 0
1 0 0
2 0 0
2 0 0
2 0 0
2 0 0
2 0 0
2 0 0
2 0 0
2 0 0
2 0 0
2 0 0
2 0 0
2 0 0
2 0 0
2 0 0
2 0 0
2 0 0
1 0 0
0 0 0
0 0 0
0 0 0
0 0 0
0 0 0
0 0 0
0 0 0
0 0 0
0 0 0
0 0 0
0 0 0
0 0 0
0 0 0
0 0 0
0 0 0
0 0 0
0 0 0
0 0 0
0 0 0
0 0 0
0 0 0
0 0 0
0 0 0
0 0 0
1 0 0
2 0 0
2 0 0
2 0 0
2 0 0
2 0 0
2 0 0
2 0 0
3 0 2
3 0 3
3 0 3
3 0 3
3 0 3
3 0 3
3 0 3
3 0 3
3 0 3
3 0 3
3 0 3
3 0 3
3 0 3
3 0 1
3 0 1
2 1 1
2 0 1
2 1 2
2 2 2
0 3 2
0 3 2
0 3 2
0 4 5
0 6 5
0 4 9
1 6 12
0 8 14
4 17 26
24 35 46
53 72 83
81 101 115
90 113 128
83 113 128
81 110 128
79 113 132
79 114 134
76 115 138
76 115 138
77 115 137
77 115 137
77 115 137
77 115 137
76 115 138
76 115 138
76 115 138
76 115 138
75 116 139
75 116 139
75 116 138
75 116 138
74 116 136
74 116 136
74 117 135
74 117 135
74 117 135
74 116 136
74 116 136
74 116 136
74 116 136
74 116 136
74 116 136
74 116 136
74 116 136
74 116 136
74 116 136
74 116 136
74 116 136
74 116 136
74 116 136
74 116 136
74 116 136
74 116 136
74 116 136
74 116 136
74 116 136
74 116 136
74 116 136
74 116 136
74 116 136
74 116 136
74 116 136
74 116 136
74 116 136
74 116 136
74 116 136
74 116 136
74 116 136
74 116 136
74 116 136
74 116 136
74 116 136
74 116 136
74 116 136
74 116 136
74 116 136
74 116 136
74 116 136
74 116 136
75 116 134
77 116 134
79 115 132
89 120 137
97 124 139
81 101 115
39 51 61
0 0 7
0 0 0
2 0 0
3 4 2
0 3 0
0 4 1
0 4 1
0 3 2
0 2 3
0 1 4
0 1 5
0 1 5
0 2 3
0 2 3
0 2 3
0 2 3
0 2 3
0 2 3
0 2 3
0 2 3
0 2 3
0 2 3
0 2 3
0 2 3
0 2 3
0 2 3
0 2 3
0 2 3
0 1 1
0 0 0
0 0 0
0 0 0
0 0 0
0 0 0
0 0 0
0 0 0
0 0 0
0 0 0
0 0 0
0 0 0
0 0 0
0 0 0
0 0 0
0 0 0
0 0 0
0 0 0
0 0 0
0 0 0
0 0 0
0 0 0
0 0 0
0 0 0
0 0 0
0 0 0
0 0 0
0 0 0
0 0 0
0 0 0
0 0 0
0 0 0
0 0 0
0 0 0
1 0 0
1 0 0
0 0 0
0 0 0
0 0 0
0 0 0
0 1 0
0 1 0
0 0 0
0 0 1
0 0 1
0 0 1
0 0 0
0 0 0
0 0 0
0 0 0
0 0 0
0 0 0
0 0 0
0 0 0
0 0 0
0 0 0
0 0 0
0 0 0
0 0 0
0 0 0
0 0 0
0 0 0
0 0 0
0 0 0
0 0 0
0 0 0
0 0 0
0 0 0
0 0 0
0 0 0
0 0 0
0 0 0
0 0 0
0 0 0
0 0 0
0 0 0
0 0 0
0 0 0
0 0 0
0 0 0
0 0 0
0 0 0
0 0 0
0 0 0
0 0 0
0 0 0
0 0 0
0 0 0
0 0 0
0 0 0
0 0 0
0 0 0
0 0 0
0 0 0
0 0 0
0 0 0
0 0 0
0 0 0
0 0 0
0 0 0
0 0 0
0 0 0
0 0 0
0 0 0
0 0 0
0 0 0
0 0 0
0 0 0
0 0 0
0 0 0
0 0 0
0 0 0
0 0 0
0 0 0
0 0 0
0 0 0
0 0 0
0 0 0
0 0 0
0 0 0
0 0 0
0 0 0
0 0 0
0 0 0
0 0 0
0 0 0
0 0 0
0 0 0
0 0 0
0 0 0
0 0 0
0 0 0
0 0 0
0 0 0
0 0 0
0 0 0
0 0 0
0 0 0
0 1 0
0 1 0
0 1 0
0 1 1
0 0 2
0 0 2
0 0 2
0 0 1
1 0 0
1 0 0
1 0 0
1 0 0
1 0 0
0 0 0
0 0 0
0 0 0
0 0 0
0 0 0
0 0 0
0 0 0
0 0 0
0 0 0
0 0 0
0 0 0
0 0 0
0 0 0
0 0 0
0 0 0
0 0 0
0 0 0
0 0 0
0 0 0
0 0 0
0 0 0
0 0 0
0 0 0
0 0 0
0 0 0
0 0 0
0 0 0
0 0 0
0 0 0
0 0 0
0 0 0
0 0 0
0 0 0
0 0 0
0 0 0
0 0 0
0 0 0
0 0 0
0 0 0
0 0 0
1 0 0
2 0 0
2 0 0
2 0 0
2 0 0
2 0 0
2 0 0
2 0 0
2 0 0
1 1 1
1 1 1
1 1 1
1 1 1
1 1 1
1 1 1
1 1 1
1 1 1
2 0 1
2 0 1
2 0 1
2 0 1
2 0 1
2 0 1
2 0 2
2 1 3
0 0 4
1 1 5
0 0 7
1 1 8
0 0 9
0 0 12
0 0 12
0 1 13
0 1 13
0 12 19
23 41 52
55 79 91
81 106 120
79 113 127
77 117 133
87 124 142
87 124 142
78 118 139
75 116 134
75 116 134
76 116 136
76 116 136
76 116 136
76 116 136
76 116 136
76 116 136
76 116 136
76 116 136
76 116 136
76 116 136
76 116 136
76 116 136
76 116 136
75 116 136
74 116 136
74 116 136
74 116 136
74 116 136
74 116 136
74 116 136
74 116 136
74 116 136
74 116 136
74 116 136
74 116 136
74 116 136
75 116 137
74 116 138
74 116 138
74 116 138
74 115 139
76 115 140
74 115 139
75 116 138
76 114 136
79 114 136
79 114 134
79 113 132
79 113 132
82 113 130
93 121 136
93 121 136
68 87 100
23 41 52
14 29 40
0 0 0
0 0 0
0 0 0
0 0 0
0 0 0
0 0 0
0 0 0
0 0 0
0 0 0
0 0 0
0 0 0
0 0 0
0 0 0
0 0 0
0 0 0
0 0 0
1 0 0
2 0 0
2 0 0
2 0 0
2 0 0
2 0 0
2 0 0
2 0 0
2 0 0
3 1 0
3 1 0
3 1 0
3 1 0
3 1 0
3 1 0
3 1 0
3 1 0
2 1 1
1 1 1
1 1 1
1 1 1
1 1 1
1 1 1
1 1 1
1 1 1
1 1 1
0 0 0
0 0 0
0 0 0
0 0 0
0 0 0
0 0 0
0 0 0
0 0 0
0 0 0
0 0 0
0 0 0
0 0 0
0 0 0
0 0 0
0 0 0
0 0 0
1 0 0
2 0 0
2 0 0
2 0 0
2 0 0
2 0 0
2 0 0
2 0 0
3 0 2
3 0 3
3 0 3
3 0 3
3 0 3
3 0 3
3 0 3
3 0 3
3 0 3
3 0 3
3 0 3
3 0 3
3 0 3
3 0 1
3 0 1
3 0 1
3 0 1
2 1 2
2 2 2
1 3 2
1 3 2
0 4 1
0 5 1
0 5 1
0 6 5
2 10 15
2 10 15
0 4 12
0 12 19
31 43 53
68 87 100
81 106 120
84 109 126
83 113 128
82 113 130
79 114 134
77 115 136
77 115 136
77 115 136
77 115 136
77 115 136
77 115 136
76 115 138
76 115 138
76 115 138
76 115 138
75 116 139
75 116 141
75 116 139
74 116 138
75 116 137
74 116 136
74 116 136
74 116 136
74 116 136
74 116 136
74 116 136
74 116 136
74 116 136
74 116 136
74 116 136
74 116 136
74 116 136
74 116 136
74 116 136
74 116 136
74 116 136
74 116 136
74 116 136
74 116 136
74 116 136
74 116 136
74 116 136
74 116 136
74 116 136
74 116 136
74 116 136
74 116 136
74 116 136
74 116 136
74 116 136
74 116 136
74 116 136
74 116 136
74 116 136
74 116 136
74 116 136
74 116 136
74 116 136
74 116 136
74 116 136
74 116 136
74 116 136
74 116 136
74 116 136
74 116 136
74 116 136
74 116 136
75 116 134
77 116 134
79 115 132
89 120 137
97 124 139
81 101 115
39 51 61
0 0 7
0 0 0
2 0 0
3 4 2
0 3 0
0 4 1
0 4 1
0 3 2
0 2 3
0 1 4
0 1 5
0 1 5
0 2 3
0 2 3
0 2 3
0 2 3
0 2 3
0 2 3
0 2 3
0 2 3
0 2 3
0 2 3
0 2 3
0 2 3
0 2 3
0 2 3
0 2 3
0 2 3
0 1 1
0 0 0
0 0 0
0 0 0
0 0 0
0 0 0
0 0 0
0 0 0
0 0 0
0 0 0
0 0 0
0 0 0
0 0 0
0 0 0
0 0 0
0 0 0
0 0 0
0 0 0
0 0 0
0 0 0
0 0 0
0 0 0
0 0 0
0 0 0
0 0 0
0 0 0
0 0 0
0 0 0
0 0 0
0 0 0
0 0 0
0 0 0
0 0 0
1 0 0
2 0 0
2 0 0
0 0 0
0 0 0
0 0 0
0 0 0
0 1 0
0 1 0
0 0 1
0 0 2
0 0 2
0 0 2
0 0 1
0 0 0
0 0 0
0 0 0
0 0 0
0 0 0
0 0 0
0 0 0
0 0 0
0 0 0
0 0 0
0 0 0
0 0 0
0 0 0
0 0 0
0 0 0
0 0 0
0 0 0
0 0 0
0 0 0
0 0 0
0 0 0
0 0 0
0 0 0
0 0 0
0 0 0
0 0 0
0 0 0
0 0 0
0 0 0
0 0 0
0 0 0
0 0 0
0 0 0
0 0 0
0 0 0
0 0 0
0 0 0
0 0 0
0 0 0
0 0 0
0 0 0
0 0 0
0 0 0
0 0 0
0 0 0
0 0 0
0 0 0
0 0 0
0 0 0
0 0 0
0 0 0
0 0 0
0 0 0
0 0 0
0 0 0
0 0 0
0 0 0
0 0 0
0 0 0
0 0 0
0 0 0
0 0 0
0 0 0
0 0 0
0 0 0
0 0 0
0 0 0
0 0 0
0 0 0
0 0 0
0 0 0
0 0 0
0 0 0
0 0 0
0 0 0
0 0 0
0 0 0
0 0 0
0 0 0
0 0 0
0 0 0
0 0 0
0 0 0
0 0 0
0 0 0
0 0 0
0 0 0
0 0 0
0 0 0
0 0 0
0 0 0
0 1 0
0 1 0
0 1 0
0 1 1
0 0 2
0 0 2
0 0 2
0 0 1
2 0 0
2 0 0
2 0 0
2 0 0
1 1 1
1 1 1
1 1 1
1 1 1
1 1 1
1 1 1
1 1 1
1 1 1
0 0 0
0 0 0
0 0 0
0 0 0
0 0 0
0 0 0
0 0 0
0 0 0
0 0 0
0 0 0
0 0 0
0 0 0
0 0 0
0 0 0
0 0 0
0 0 0
0 0 0
0 0 0
0 0 0
0 0 0
0 0 0
0 0 0
0 0 0
0 0 0
0 0 0
0 0 0
0 0 0
0 0 0
0 0 0
0 0 0
0 0 0
0 0 0
0 0 0
1 0 0
2 0 0
2 0 0
2 0 0
2 0 0
2 0 0
2 0 0
2 0 0
2 0 0
1 1 1
1 1 1
1 1 1
1 1 1
1 1 1
1 1 1
1 1 1
1 1 1
1 1 1
1 1 1
1 1 1
1 1 1
1 1 1
1 1 1
1 1 2
1 1 3
1 1 5
1 1 5
0 0 7
0 0 9
0 0 9
0 0 12
0 0 12
0 1 13
0 4 16
4 17 26
31 51 61
71 97 112
91 117 133
85 116 133
77 115 131
82 120 140
86 122 140
78 118 139
76 115 135
76 115 135
76 116 136
76 116 136
76 116 136
76 116 136
76 116 136
76 116 136
76 116 136
76 116 136
76 116 136
76 116 136
76 116 136
76 116 136
76 116 136
75 116 136
74 116 136
74 116 136
74 116 136
74 116 136
74 116 136
74 116 136
74 116 136
74 116 136
74 116 136
74 116 136
74 116 136
74 116 136
75 116 137
74 116 138
74 116 138
74 116 138
74 115 139
76 115 140
76 115 140
76 115 138
77 115 137
79 114 136
79 114 134
79 113 132
82 113 130
83 113 128
96 123 138
97 124 139
68 87 100
23 41 52
0 12 19
0 0 0
0 0 0
0 0 0
0 0 0
0 0 0
0 0 0
0 0 0
0 0 0
0 0 0
0 0 0
0 0 0
0 0 0
0 0 0
0 0 0
0 0 0
0 0 0
1 0 0
2 0 0
2 0 0
2 0 0
2 0 0
2 0 0
2 0 0
2 0 0
2 0 0
3 1 0
3 1 0
3 1 0
3 1 0
3 1 0
3 1 0
3 1 0
3 1 0
2 1 1
1 1 1
1 1 1
1 1 1
1 1 1
1 1 1
1 1 1
1 1 1
1 1 1
0 0 0
0 0 0
0 0 0
0 0 0
0 0 0
0 0 0
0 0 0
0 0 0
0 0 0
0 0 0
0 0 0
0 0 0
0 0 0
0 0 0
0 0 0
0 0 0
1 0 0
2 0 0
2 0 0
2 0 0
2 0 0
2 0 0
2 0 0
2 0 0
3 0 2
3 0 3
3 0 3
3 0 3
3 0 3
3 0 3
3 0 3
3 0 3
3 0 3
3 0 3
3 0 3
3 0 3
3 0 3
3 0 1
3 0 1
3 0 1
3 0 1
2 1 1
2 1 1
1 3 2
1 3 2
0 4 1
0 5 1
0 4 1
0 4 5
2 10 15
2 10 15
0 6 13
0 6 13
12 20 29
31 51 61
68 87 100
88 109 125
91 117 133
82 115 132
77 111 130
77 115 134
77 115 134
78 116 135
77 115 136
78 115 137
78 116 137
77 116 139
76 115 140
75 116 138
76 114 136
74 115 139
74 115 139
75 116 139
75 116 139
73 117 138
75 116 137
74 116 136
74 116 136
74 116 136
74 116 136
74 116 136
74 116 136
74 116 136
74 116 136
74 116 136
74 116 136
74 116 136
74 116 136
74 116 136
74 116 136
74 116 136
74 116 136
74 116 136
74 116 136
74 116 136
74 116 136
74 116 136
74 116 136
74 116 136
74 116 136
74 116 136
74 116 136
74 116 136
74 116 136
74 116 136
74 116 136
74 116 136
74 116 136
74 116 136
74 116 136
74 116 136
74 116 136
74 116 136
74 116 136
74 116 136
74 116 136
74 116 136
74 116 136
74 116 136
74 116 136
74 116 136
74 116 136
75 116 134
77 116 134
79 115 132
89 120 137
97 124 139
81 101 115
39 51 61
0 0 7
0 0 0
2 0 0
3 4 2
0 3 0
0 4 1
0 4 1
0 3 2
0 2 3
0 1 4
0 1 5
0 1 5
0 2 3
0 2 3
0 2 3
0 2 3
0 2 3
0 2 3
0 2 3
0 2 3
0 2 3
0 2 3
0 2 3
0 2 3
0 2 3
0 2 3
0 2 3
0 2 3
0 1 1
0 0 0
0 0 0
0 0 0
0 0 0
0 0 0
0 0 0
0 0 0
0 0 0
0 0 0
0 0 0
0 0 0
0 0 0
0 0 0
0 0 0
0 0 0
0 0 0
0 0 0
0 0 0
0 0 0
0 0 0
0 0 0
0 0 0
0 0 0
0 0 0
0 0 0
0 0 0
0 0 0
0 0 0
0 0 0
0 0 0
0 0 0
0 0 0
1 0 0
2 0 0
2 0 0
0 0 0
0 0 0
1 1 0
1 0 0
1 1 0
1 1 2
1 1 3
2 1 3
2 1 3
2 1 3
2 1 3
2 1 3
1 2 3
1 2 3
2 1 3
2 1 3
2 1 3
2 1 3
2 1 3
2 1 3
2 1 3
2 1 3
2 1 3
2 1 3
2 1 3
2 1 3
2 1 3
2 1 3
2 1 3
2 1 3
2 1 3
2 1 3
2 1 3
2 1 3
2 1 3
2 1 3
2 1 3
2 2 2
2 2 2
2 2 2
2 2 2
2 2 2
2 2 2
2 2 2
2 2 2
2 2 2
2 2 2
2 2 2
2 2 2
2 2 2
2 2 2
2 2 2
2 2 2
2 2 2
2 2 2
2 2 2
2 2 2
2 2 2
2 2 2
2 2 2
2 2 2
2 2 2
2 2 2
2 2 2
2 2 2
2 2 2
2 2 2
2 2 2
2 2 2
2 2 2
2 2 2
2 2 2
2 2 2
2 2 2
2 2 2
2 2 2
2 2 2
2 2 2
2 2 2
2 2 2
2 2 2
2 2 2
2 2 2
2 2 2
2 2 2
2 2 2
2 2 2
2 2 2
2 2 2
2 2 2
2 2 2
2 2 2
2 2 2
2 2 2
2 2 2
2 1 3
2 1 3
2 1 3
2 1 3
2 1 3
2 1 3
2 1 3
2 1 3
2 1 3
2 1 3
2 1 3
1 1 3
1 1 3
0 0 3
0 0 3
2 0 1
2 0 0
2 0 0
2 0 0
1 1 1
1 1 1
1 1 1
1 1 1
1 1 1
1 1 1
1 1 1
1 1 1
0 0 0
0 0 0
0 0 0
0 0 0
0 0 0
0 0 0
0 0 0
0 0 0
0 0 0
0 0 0
0 0 0
0 0 0
0 0 0
0 0 0
0 0 0
0 0 0
0 0 0
0 0 0
0 0 0
0 0 0
0 0 0
0 0 0
0 0 0
0 0 0
0 0 0
0 0 0
0 0 0
0 0 0
0 0 0
0 0 0
0 0 0
0 0 0
0 0 0
0 0 0
1 0 0
2 0 0
2 0 0
2 0 0
2 0 0
2 0 0
1 0 0
1 0 0
1 1 1
1 1 1
1 1 1
1 1 1
1 1 1
1 1 1
1 1 1
1 1 1
1 1 1
1 1 1
1 1 1
1 1 1
1 1 1
1 1 1
1 1 2
1 2 3
0 2 4
1 1 5
0 0 7
0 0 9
0 0 9
0 0 12
0 1 10
0 1 13
0 4 16
12 20 29
39 51 61
81 106 120
99 127 141
89 120 137
77 111 130
75 118 134
78 118 139
76 117 136
76 115 135
76 115 135
76 116 136
76 116 136
76 116 136
76 116 136
76 116 136
76 116 136
76 116 136
76 116 136
76 116 136
76 116 136
76 116 136
76 116 136
76 116 136
75 116 136
74 116 136
74 116 136
74 116 136
74 116 136
74 116 136
74 116 136
74 116 136
74 116 136
74 116 136
74 116 136
74 116 136
74 116 136
75 116 137
74 116 138
74 116 138
74 116 138
74 115 139
76 115 140
77 115 139
77 116 138
78 115 137
79 114 136
79 114 134
79 113 132
79 113 127
81 110 128
97 124 139
99 127 141
68 87 100
14 29 40
0 4 16
0 0 0
0 0 0
0 0 0
0 0 0
0 0 0
0 0 0
0 0 0
0 0 0
0 0 0
0 0 0
0 0 0
0 0 0
0 0 0
0 0 0
0 0 0
0 0 0
1 0 0
2 0 0
2 0 0
2 0 0
2 0 0
2 0 0
2 0 0
2 0 0
2 0 0
3 1 0
3 1 0
3 1 0
3 1 0
3 1 0
3 1 0
3 1 0
3 1 0
2 1 1
1 1 1
1 1 1
1 1 1
1 1 1
1 1 1
1 1 1
1 1 1
1 1 1
0 0 0
0 0 0
0 0 0
0 0 0
0 0 0
0 0 0
0 0 0
0 0 0
0 0 0
0 0 0
0 0 0
0 0 0
0 0 0
0 0 0
0 0 0
0 0 0
1 0 0
2 0 0
2 0 0
2 0 0
2 0 0
2 0 0
2 0 0
2 0 0
3 0 2
3 0 3
3 0 3
3 0 3
3 0 3
3 0 3
3 0 3
3 0 3
3 0 3
3 0 3
3 0 3
3 0 3
3 0 3
3 0 1
3 0 1
3 0 1
3 0 1
2 1 0
3 2 0
1 4 1
1 4 1
0 4 1
0 4 1
0 3 2
0 4 5
2 6 12
2 10 15
2 10 15
2 10 15
1 6 12
4 17 26
39 51 61
79 97 109
90 113 128
83 113 128
79 113 127
79 113 132
78 115 132
79 114 134
79 114 134
80 115 137
80 117 140
78 117 140
77 116 140
76 114 136
72 113 134
72 113 134
74 114 140
75 116 141
75 117 141
75 117 141
75 117 139
75 116 137
74 116 136
74 116 136
74 116 136
74 116 136
74 116 136
74 116 136
74 116 136
74 116 136
74 116 136
74 116 136
74 116 136
74 116 136
74 116 136
74 116 136
74 116 136
74 116 136
74 116 136
74 116 136
74 116 136
74 116 136
74 116 136
74 116 136
74 116 136
74 116 136
74 116 136
74 116 136
74 116 136
74 116 136
74 116 136
74 116 136
74 116 136
74 116 136
74 116 136
74 116 136
74 116 136
74 116 136
74 116 136
74 116 136
74 116 136
74 116 136
74 116 136
74 116 136
74 116 136
74 116 136
74 116 136
75 116 134
77 116 134
79 115 132
89 120 137
97 124 139
81 101 115
39 51 61
0 0 7
0 0 0
2 0 0
3 4 2
0 3 0
0 3 0
0 3 0
0 3 2
0 2 3
0 1 4
0 1 5
0 1 5
0 2 3
0 2 3
0 2 3
0 2 3
0 2 3
0 2 3
0 2 3
0 2 3
0 2 3
0 2 3
0 2 3
0 2 3
0 2 3
0 2 3
0 2 3
0 2 3
0 1 1
0 0 0
0 0 0
0 0 0
0 0 0
0 0 0
0 0 0
0 0 0
0 0 0
0 0 0
0 0 0
0 0 0
0 0 0
0 0 0
0 0 0
0 0 0
0 0 0
0 0 0
0 0 0
0 0 0
0 0 0
0 0 0
0 0 0
0 0 0
0 0 0
0 0 0
0 0 0
0 0 0
0 0 0
0 0 0
0 0 0
0 0 0
0 0 0
1 0 0
2 0 0
2 0 0
0 0 0
0 0 0
0 1 0
1 1 1
1 1 1
0 2 4
1 1 5
1 1 5
1 4 5
1 4 5
0 1 6
1 1 8
1 4 5
1 4 5
1 4 5
0 1 6
0 1 6
0 1 6
0 1 6
0 1 6
0 1 6
0 1 6
1 1 8
1 1 8
1 1 8
1 1 8
1 1 8
1 1 8
1 1 8
1 1 8
1 1 8
1 1 8
1 1 8
1 1 8
1 1 8
1 1 8
1 1 8
0 1 6
1 1 5
1 1 5
1 1 5
1 1 5
1 1 5
1 1 5
1 1 5
1 1 5
1 1 5
1 1 5
1 1 5
1 1 5
1 1 5
1 1 5
1 1 5
1 1 5
1 1 5
1 1 5
1 1 5
1 1 5
1 1 5
1 1 5
1 1 5
1 1 5
1 1 5
1 1 5
1 1 5
1 1 5
1 1 5
1 1 5
1 1 5
1 1 5
1 1 5
1 1 5
1 1 5
1 1 5
1 1 5
1 1 5
1 1 5
1 1 5
1 1 5
1 1 5
1 1 5
1 1 5
1 1 5
1 1 5
1 1 5
1 1 5
1 1 5
1 1 5
1 1 5
1 1 5
1 1 5
1 1 5
1 1 5
1 1 5
1 1 5
0 1 6
1 1 8
1 1 8
1 1 8
1 1 8
1 1 8
1 1 8
2 1 7
2 1 7
2 1 7
0 1 6
1 1 5
1 1 5
0 0 4
0 0 4
2 1 3
2 0 1
2 0 0
2 0 0
1 1 1
1 1 1
1 1 1
1 1 1
1 1 1
1 1 1
1 1 1
1 1 1
0 0 0
0 0 0
0 0 0
0 0 0
0 0 0
0 0 0
0 0 0
0 0 0
0 0 0
0 0 0
0 0 0
0 0 0
0 0 0
0 0 0
0 0 0
0 0 0
0 0 0
0 0 0
0 0 0
0 0 0
0 0 0
0 0 0
0 0 0
0 0 0
0 0 0
0 0 0
0 0 0
0 0 0
0 0 0
0 0 0
0 0 0
0 0 0
0 0 0
0 0 0
0 0 0
1 0 0
2 0 0
2 0 0
2 0 0
1 0 0
0 0 0
0 0 0
1 1 1
1 1 1
1 1 1
1 1 1
1 1 1
1 1 1
1 1 1
1 1 1
1 1 1
1 1 1
1 1 1
1 1 1
1 1 1
1 1 1
1 1 2
2 1 3
3 1 6
4 1 5
3 1 6
0 0 9
0 0 9
0 0 12
0 0 9
0 1 13
0 12 19
14 29 40
47 64 75
84 109 126
99 127 141
89 120 137
77 111 130
71 110 131
73 115 135
73 115 135
76 116 136
76 116 136
76 116 136
76 116 136
76 116 136
76 116 136
76 116 136
76 116 136
76 116 136
76 116 136
76 116 136
76 116 136
76 116 136
76 116 136
76 116 136
75 116 136
74 116 136
74 116 136
74 116 136
74 116 136
74 116 136
74 116 136
74 116 136
74 116 136
74 116 136
74 116 136
74 116 136
74 116 136
75 116 137
74 116 138
74 116 138
74 116 138
75 116 139
76 115 140
77 114 140
77 114 138
78 115 137
79 114 136
79 114 134
79 113 132
82 113 130
84 109 126
97 124 139
99 127 141
68 87 100
14 29 40
0 0 9
1 0 0
1 0 0
1 0 0
1 0 0
1 0 0
1 0 0
1 0 0
1 0 0
1 0 0
1 0 0
1 0 0
1 0 0
0 0 0
0 0 0
0 0 0
0 0 0
1 0 0
1 0 0
1 0 0
1 0 0
1 0 0
2 1 0
2 1 0
2 1 0
2 1 0
2 1 0
2 1 0
2 1 0
2 1 0
3 2 0
3 2 0
3 2 0
3 2 0
2 1 1
1 1 1
1 1 1
1 1 1
1 1 1
1 1 1
1 1 1
1 1 1
1 1 1
0 0 0
0 0 0
0 0 0
0 0 0
0 0 0
0 0 0
0 0 0
0 0 0
0 0 0
0 0 0
0 0 0
0 0 0
0 0 0
0 0 0
0 0 0
0 0 0
1 0 0
2 0 0
2 0 0
2 0 0
2 0 0
2 0 0
2 0 0
2 0 0
2 0 2
2 0 2
2 0 2
2 0 2
2 0 2
2 0 2
2 0 2
2 0 2
3 0 2
3 0 2
3 0 2
3 0 2
3 0 2
3 0 1
3 0 1
3 0 1
3 0 1
2 1 0
3 2 0
1 4 1
1 4 1
0 4 1
0 4 1
0 3 2
0 3 2
0 6 5
2 6 12
2 10 15
2 10 15
0 4 9
0 6 13
12 20 29
47 64 75
70 92 106
88 109 125
89 118 136
83 118 136
77 115 131
79 113 132
79 113 132
82 117 137
82 120 140
82 120 140
78 117 140
76 114 136
72 113 134
72 113 134
74 114 140
75 116 141
75 118 142
75 119 142
75 117 141
74 116 138
75 116 137
75 116 137
75 116 136
75 116 136
75 116 136
75 116 136
75 116 136
75 116 136
75 116 136
75 116 136
75 116 136
75 116 136
75 116 136
75 116 136
74 116 136
74 116 136
74 116 136
74 116 136
74 116 136
74 116 136
74 116 136
74 116 136
74 116 136
74 116 136
74 116 136
74 116 136
74 116 136
74 116 136
74 116 136
74 116 136
74 116 136
74 116 136
74 116 136
74 116 136
74 116 136
74 116 136
74 116 136
74 116 136
74 116 136
74 116 136
74 116 136
74 116 136
74 116 136
74 116 136
74 116 136
75 116 134
77 116 134
79 115 132
89 120 137
97 124 139
81 101 115
39 51 61
0 0 7
0 0 0
2 0 1
3 4 2
0 3 0
0 3 0
0 3 0
0 3 2
0 2 4
0 1 5
0 1 5
0 1 5
0 2 3
0 2 3
0 2 2
0 2 2
0 2 2
0 2 2
0 2 2
0 2 2
0 2 2
0 2 2
0 2 2
0 2 2
0 2 2
0 2 2
0 2 2
0 2 2
0 1 1
0 0 0
0 0 0
0 0 0
0 0 0
0 0 0
0 0 0
0 0 0
0 0 0
0 0 0
0 0 0
0 0 0
0 0 0
0 0 0
0 0 0
0 0 0
0 0 0
0 0 0
0 0 0
0 0 0
0 0 0
0 0 0
0 0 0
0 0 0
0 0 0
0 0 0
0 0 0
0 0 0
0 0 0
0 0 0
0 0 0
0 0 0
0 0 0
1 0 0
1 0 0
1 0 0
0 0 0
0 0 0
0 0 0
0 0 0
0 0 0
0 0 0
0 0 0
0 0 0
0 0 0
0 0 0
0 0 1
0 0 3
0 0 3
0 0 3
0 0 3
0 0 3
0 0 3
0 0 3
0 0 3
0 0 3
0 0 3
0 0 3
0 0 3
0 0 2
0 0 2
0 0 2
0 0 2
0 0 2
0 0 3
0 0 3
0 0 3
0 0 3
0 0 3
0 0 3
0 0 3
0 0 3
0 0 3
0 0 2
0 0 0
0 0 0
0 0 0
0 0 0
0 0 0
0 0 0
0 0 0
0 0 0
0 0 0
0 0 0
0 0 0
0 0 0
0 0 0
0 0 0
0 0 0
0 0 0
0 0 0
0 0 0
0 0 0
0 0 0
0 0 0
0 0 0
0 0 0
0 0 0
0 0 0
0 0 0
0 0 0
0 0 0
0 0 0
0 0 0
0 0 0
0 0 0
0 0 0
0 0 0
0 0 0
0 0 0
0 0 0
0 0 0
0 0 0
0 0 0
0 0 0
0 0 0
0 0 0
0 0 0
0 0 0
0 0 0
0 0 0
0 0 0
0 0 0
0 0 0
0 0 0
0 0 0
0 0 0
0 0 0
0 0 0
0 0 0
0 0 0
0 0 1
0 0 3
0 0 4
0 0 6
0 0 7
0 0 6
0 0 5
0 0 3
0 0 2
0 0 1
0 0 0
0 0 1
0 0 1
0 0 2
0 0 2
1 1 2
2 0 1
3 0 1
3 0 1
2 1 1
1 1 1
1 1 1
1 1 1
1 1 1
1 1 1
1 1 1
1 1 1
0 0 0
0 0 0
0 0 0
0 0 0
0 0 0
0 0 0
0 0 0
0 0 0
0 0 0
0 0 0
0 0 0
0 0 0
0 0 0
0 0 0
0 0 0
0 0 0
0 0 0
0 0 0
0 0 0
0 0 0
0 0 0
0 0 0
0 0 0
0 0 0
0 0 0
0 0 0
0 0 0
0 0 0
0 0 0
0 0 0
0 0 0
0 0 0
0 0 0
0 0 0
0 0 0
1 0 0
2 0 0
2 0 0
2 0 0
1 0 0
0 0 0
0 0 0
1 1 1
1 1 1
1 1 1
1 1 1
1 1 1
1 1 1
1 1 1
1 1 1
1 1 1
1 1 1
1 1 1
1 1 1
1 1 1
1 1 1
2 2 2
4 1 5
4 1 5
4 1 5
3 1 6
1 1 8
0 0 12
0 4 16
0 0 9
0 0 9
4 17 26
39 51 61
68 87 100
90 113 128
93 121 136
83 118 136
71 110 131
71 110 131
72 113 134
73 115 135
75 116 136
75 116 136
75 116 136
75 116 136
75 116 136
75 116 136
75 116 136
75 116 136
75 116 136
75 116 136
75 116 136
75 116 136
75 116 136
75 116 136
75 116 136
75 116 136
74 116 136
74 116 136
74 116 136
74 116 136
74 116 136
74 116 136
74 116 136
74 116 136
74 116 136
74 116 136
74 116 136
74 116 136
75 116 137
73 116 139
74 116 138
74 116 138
75 116 139
76 115 140
77 114 140
77 114 138
78 115 137
79 114 136
79 113 135
79 113 132
85 116 133
91 117 133
99 127 141
95 118 134
53 72 83
12 20 29
0 0 5
2 0 0
2 0 0
2 0 0
2 0 0
2 0 0
2 0 0
2 0 0
2 0 0
2 0 0
2 0 0
2 0 0
2 0 0
1 0 0
0 0 0
0 0 0
0 0 0
0 0 0
0 0 0
0 0 0
0 0 0
0 1 0
1 2 0
1 2 0
1 2 0
1 2 0
1 2 0
1 2 0
1 2 0
1 2 0
3 2 0
3 2 0
3 2 0
3 2 0
1 2 1
1 1 1
1 1 1
1 1 1
1 1 1
1 1 1
1 1 1
1 1 1
1 1 1
1 1 1
1 1 1
1 1 1
1 1 1
1 1 1
1 1 1
1 1 1
1 1 1
1 1 1
1 1 1
1 1 1
1 1 1
1 1 1
1 1 1
1 1 1
1 1 1
1 1 1
1 1 1
1 1 1
1 1 1
1 1 1
1 1 1
1 1 1
1 1 1
1 1 1
1 1 1
1 1 1
1 1 1
1 1 1
1 1 1
1 1 1
1 1 1
2 1 1
3 0 1
3 0 1
3 0 1
3 0 1
3 0 1
3 0 1
3 0 1
3 0 1
2 1 0
3 2 0
3 2 0
3 2 0
1 3 2
1 3 2
1 3 2
1 3 2
1 4 5
1 4 5
0 4 9
1 6 12
2 6 12
2 6 12
2 4 11
4 17 26
39 51 61
79 97 109
93 121 136
89 120 137
82 115 132
77 111 130
77 111 130
80 115 137
82 120 140
82 120 140
80 117 140
76 115 138
72 113 134
72 113 134
74 114 140
75 117 141
75 118 142
75 119 142
75 118 142
75 117 141
75 117 139
76 117 138
77 117 137
77 117 137
77 117 137
77 117 137
77 117 137
77 117 137
77 117 137
77 117 137
77 117 137
77 117 137
77 117 137
76 117 136
75 116 136
74 116 136
74 116 136
74 116 136
74 116 136
74 116 136
74 116 136
74 116 136
74 116 136
74 116 136
74 116 136
74 116 136
74 116 136
74 116 136
74 116 136
74 116 136
74 116 136
74 116 136
74 116 136
74 116 136
74 116 136
74 116 136
74 116 136
74 116 136
74 116 136
74 116 136
74 116 136
74 116 136
74 116 136
74 116 136
74 116 136
75 116 134
77 116 134
79 114 134
89 120 137
97 124 139
81 101 115
39 51 61
0 0 7
0 0 0
2 0 2
3 4 2
0 2 0
0 3 0
0 3 0
0 2 2
0 1 5
0 1 6
0 1 5
0 1 4
0 2 3
0 2 2
0 2 1
0 2 1
0 2 1
0 2 1
0 2 1
0 2 1
0 2 1
0 2 1
0 2 1
0 2 1
0 2 1
0 2 1
0 2 1
0 2 1
0 1 0
0 0 0
0 0 0
0 0 0
0 0 0
0 0 0
0 0 0
0 0 0
0 0 0
0 0 0
0 0 0
0 0 0
0 0 0
0 0 0
0 0 0
0 0 0
0 0 0
0 0 0
0 0 0
0 0 0
0 0 0
0 0 0
0 0 0
0 0 0
0 0 0
0 0 0
0 0 0
0 0 0
0 0 0
0 0 0
0 0 0
0 0 0
0 0 0
0 0 0
0 0 0
0 0 0
0 1 0
0 1 0
0 3 0
0 6 5
5 6 9
2 6 12
0 4 9
0 0 6
0 1 6
0 1 10
0 1 13
0 1 13
0 4 16
0 4 16
0 4 16
0 1 13
0 1 13
0 1 13
0 1 13
0 1 13
0 1 13
0 1 13
0 1 13
0 1 13
0 1 13
0 1 13
0 1 13
0 1 13
0 1 13
0 1 13
0 1 13
0 1 13
0 1 13
0 0 12
0 0 12
0 0 12
0 0 12
0 1 13
0 1 10
0 1 10
0 1 10
0 1 10
0 1 10
0 1 10
0 1 10
0 1 10
0 1 10
0 1 10
0 1 10
0 1 10
0 1 10
0 1 10
0 1 10
0 1 10
0 1 10
0 1 10
0 1 10
0 1 10
0 1 10
0 1 10
0 1 10
0 1 10
0 1 10
0 1 10
0 1 10
0 1 10
0 1 10
0 1 10
0 1 10
0 1 10
0 1 10
0 1 10
0 1 10
0 1 10
0 1 10
0 1 10
0 1 10
0 1 10
0 1 10
0 1 10
0 1 10
0 1 10
0 1 10
0 1 10
0 1 10
0 1 10
0 1 10
0 1 10
0 1 10
0 1 10
0 1 10
0 1 10
0 1 10
0 1 10
0 1 10
0 0 12
0 0 12
0 1 13
0 4 16
0 4 16
0 4 16
0 1 13
0 1 13
0 0 12
0 0 9
0 0 6
0 0 5
0 0 3
0 0 2
0 0 1
1 1 2
4 1 2
6 1 4
6 1 4
4 0 0
2 0 1
1 1 1
1 1 1
1 1 1
1 1 1
1 1 1
1 1 1
1 1 1
1 1 1
1 1 1
1 1 1
1 1 1
1 1 1
1 1 1
1 1 1
1 1 1
1 1 1
1 1 1
1 1 1
1 1 1
1 1 1
1 1 1
1 1 1
1 1 1
1 1 1
1 1 1
1 1 1
1 1 1
1 1 1
1 1 1
1 1 1
1 1 1
1 1 1
1 1 1
1 1 1
1 1 1
1 1 1
1 1 1
1 1 1
1 1 1
1 1 1
1 1 1
1 1 1
1 1 1
1 1 1
1 1 1
1 1 1
1 1 1
1 1 1
1 2 0
1 2 0
1 2 0
1 2 0
1 2 0
1 2 0
1 2 0
1 2 0
1 2 0
1 2 0
1 2 0
1 2 0
1 1 0
1 1 1
2 1 2
4 1 5
6 1 4
6 1 4
5 6 9
0 0 12
2 6 12
0 4 16
0 0 7
0 0 5
23 29 39
62 77 90
88 109 125
95 118 134
85 113 132
79 115 132
76 113 132
73 115 135
74 117 135
74 117 135
74 116 136
74 116 136
74 116 136
74 116 136
74 116 136
74 116 136
74 116 136
74 116 136
74 116 136
74 116 136
74 116 136
74 116 136
74 116 136
74 116 136
74 116 136
74 116 136
74 116 136
74 116 136
74 116 136
74 116 136
74 116 136
74 116 136
74 116 136
74 116 136
74 116 136
74 116 136
74 116 136
74 116 136
73 117 136
72 117 138
73 117 138
74 116 138
74 115 139
76 115 140
76 115 140
77 114 138
78 115 137
79 113 135
79 113 132
81 110 128
89 118 136
99 127 141
97 124 139
81 101 115
39 51 61
4 17 26
0 0 3
2 0 0
2 0 0
2 0 0
2 0 0
2 0 0
2 0 0
2 0 0
2 0 0
2 0 0
2 0 0
2 0 0
2 0 0
1 0 0
0 0 0
0 0 0
0 0 0
0 0 0
0 0 0
0 0 0
0 0 0
0 1 0
1 2 0
1 2 0
1 2 0
1 2 0
0 2 0
0 2 0
1 2 0
1 2 0
3 2 0
3 2 0
2 3 2
2 3 2
1 2 1
1 1 1
1 1 1
1 1 1
1 1 1
1 1 1
1 1 1
1 1 1
1 1 1
1 1 1
1 1 1
1 1 1
1 1 1
1 1 1
1 1 1
1 1 1
1 1 1
1 1 1
1 1 1
1 1 1
1 1 1
1 1 1
1 1 1
1 1 1
1 1 1
1 1 1
1 1 1
1 1 1
1 1 1
1 1 1
1 1 1
1 1 1
1 1 1
1 1 1
1 1 1
1 1 1
1 1 1
1 1 1
1 1 1
1 1 1
1 1 1
2 1 1
3 0 1
3 0 1
3 0 1
3 0 1
3 0 1
3 0 1
3 0 1
3 0 1
2 1 0
3 2 0
3 2 0
3 2 0
1 3 2
1 3 2
1 3 2
1 3 2
1 1 2
1 1 2
1 3 2
1 4 5
5 6 9
6 8 13
0 0 2
0 0 5
14 29 40
55 79 91
84 109 126
93 121 136
89 118 136
82 113 130
77 111 130
79 114 134
80 115 137
80 115 137
78 116 137
77 116 139
75 117 141
75 116 141
75 116 141
75 117 141
75 117 141
75 118 142
75 117 141
75 117 141
75 117 139
76 117 138
77 117 137
77 117 137
77 117 137
77 117 137
77 117 137
77 117 137
77 117 137
77 117 137
77 117 137
77 117 137
77 117 137
76 117 136
75 116 136
74 116 136
74 116 136
74 116 136
74 116 136
74 116 136
74 116 136
74 116 136
74 116 136
74 116 136
74 116 136
74 116 136
74 116 136
74 116 136
74 116 136
74 116 136
74 116 136
74 116 136
74 116 136
74 116 136
74 116 136
74 116 136
74 116 136
74 116 136
74 116 136
74 116 136
74 116 136
74 116 136
74 116 136
74 116 136
74 116 136
75 116 134
77 116 134
79 114 134
89 120 137
97 124 139
81 101 115
39 51 61
0 0 9
0 0 0
2 0 2
3 4 2
0 2 0
0 3 0
0 3 0
0 2 2
0 1 5
0 1 6
0 1 5
0 1 4
0 2 3
0 2 2
0 2 1
0 2 1
0 2 1
0 2 1
0 2 1
0 2 1
0 2 1
0 2 1
0 2 1
0 2 1
0 2 1
0 2 1
0 2 1
0 2 1
0 1 0
0 0 0
0 0 0
0 0 0
0 0 0
0 0 0
0 0 0
0 0 0
0 0 0
0 0 0
0 0 0
0 0 0
0 0 0
0 0 0
0 0 0
0 0 0
0 0 0
0 0 0
0 0 0
0 0 0
0 0 0
0 0 0
0 0 0
0 0 0
0 0 0
0 0 0
0 0 0
0 0 0
0 0 0
0 0 0
0 0 0
0 0 0
0 0 0
0 0 0
0 0 0
0 0 0
0 1 0
3 4 2
6 12 17
12 20 29
24 35 46
31 43 53
31 43 53
24 35 46
23 41 52
23 41 52
23 41 52
23 41 52
23 41 52
23 41 52
23 41 52
23 41 52
23 41 52
23 41 52
23 41 52
23 41 52
23 41 52
23 41 52
23 41 52
23 41 52
23 41 52
23 41 52
23 41 52
23 41 52
23 41 52
23 41 52
23 41 52
23 41 52
23 41 52
23 41 52
23 41 52
23 41 52
23 41 52
23 41 52
23 41 52
23 41 52
23 41 52
23 41 52
23 41 52
23 41 52
23 41 52
23 41 52
23 41 52
23 41 52
23 41 52
23 41 52
23 41 52
23 41 52
23 41 52
23 41 52
23 41 52
23 41 52
23 41 52
23 41 52
23 41 52
23 41 52
23 41 52
23 41 52
23 41 52
23 41 52
23 41 52
23 41 52
23 41 52
23 41 52
23 41 52
23 41 52
23 41 52
23 41 52
23 41 52
23 41 52
23 41 52
23 41 52
23 41 52
23 41 52
23 41 52
23 41 52
23 41 52
23 41 52
23 41 52
23 41 52
23 41 52
23 41 52
23 41 52
23 41 52
23 41 52
23 41 52
23 41 52
23 41 52
23 41 52
23 41 52
23 41 52
23 41 52
23 41 52
23 41 52
23 41 52
23 41 52
31 43 53
23 41 52
31 43 53
31 43 53
31 43 53
23 29 39
12 20 29
6 12 17
6 8 13
5 4 5
4 1 5
6 1 4
7 1 0
7 1 0
4 0 0
2 0 1
1 1 1
1 1 1
1 1 1
1 1 1
1 1 1
1 1 1
1 1 1
1 1 1
1 1 1
1 1 1
1 1 1
1 1 1
1 1 1
1 1 1
1 1 1
1 1 1
1 1 1
1 1 1
1 1 1
1 1 1
1 1 1
1 1 1
1 1 1
1 1 1
1 1 1
1 1 1
1 1 1
1 1 1
1 1 1
1 1 1
1 1 1
1 1 1
1 1 1
1 1 1
1 1 1
1 1 1
1 1 1
1 1 1
1 1 1
1 1 1
1 1 1
1 1 1
1 1 1
1 1 1
1 1 1
1 1 1
1 1 1
1 1 1
1 2 0
1 2 0
1 2 0
1 2 0
1 2 0
1 2 0
1 2 0
1 2 0
1 2 0
1 2 0
1 2 0
1 2 0
1 1 0
1 1 1
2 1 2
4 1 5
4 1 5
4 1 5
5 6 9
6 8 13
6 8 13
0 4 16
0 0 9
2 6 12
31 43 53
79 97 109
97 121 136
91 117 133
81 110 128
77 111 130
75 116 134
75 118 134
73 118 135
74 117 135
74 116 136
74 116 136
74 116 136
74 116 136
74 116 136
74 116 136
74 116 136
74 116 136
74 116 136
74 116 136
74 116 136
74 116 136
74 116 136
74 116 136
74 116 136
74 116 136
74 116 136
74 116 136
74 116 136
74 116 136
74 116 136
74 116 136
74 116 136
74 116 136
74 116 136
74 116 136
74 116 136
74 116 136
73 117 136
72 117 138
73 117 138
74 116 138
74 115 139
76 115 140
76 115 140
77 114 138
78 115 137
79 113 135
79 113 132
81 110 128
93 121 136
97 124 139
90 113 128
68 87 100
31 43 53
6 12 17
0 1 4
2 0 0
2 0 0
2 0 0
2 0 0
2 0 0
2 0 0
2 0 0
2 0 0
2 0 0
2 0 0
2 0 0
2 0 0
1 0 0
0 0 0
0 0 0
0 0 0
0 0 0
0 0 0
0 0 0
0 1 0
0 1 0
0 2 1
0 2 1
0 2 1
0 2 1
0 2 1
0 2 1
1 1 1
1 1 1
2 1 1
2 1 1
2 2 2
2 2 2
1 1 1
1 1 1
1 1 1
1 1 1
1 1 1
1 1 1
1 1 1
1 1 1
1 1 1
1 1 1
1 1 1
1 1 1
1 1 1
1 1 1
1 1 1
1 1 1
1 1 1
1 1 1
1 1 1
1 1 1
1 1 1
1 1 1
1 1 1
1 1 1
1 1 1
1 1 1
1 1 1
1 1 1
1 1 1
1 1 1
1 1 1
1 1 1
1 1 1
1 1 1
1 1 1
1 1 1
1 1 1
1 1 1
1 1 1
1 1 1
1 1 1
2 1 1
3 0 1
3 0 1
3 0 1
3 0 1
3 0 1
3 0 1
3 0 1
3 0 1
2 1 0
3 2 0
3 2 0
3 2 0
2 1 1
2 2 2
2 2 2
2 2 2
2 2 2
2 2 2
2 2 2
2 1 3
3 4 6
3 4 6
0 0 3
0 1 6
4 17 26
31 43 53
62 77 90
88 109 125
93 121 136
90 116 132
81 110 128
77 111 130
77 111 130
77 111 130
77 115 134
78 118 139
82 120 140
82 118 141
78 117 140
75 116 141
74 115 139
74 115 139
73 116 139
74 116 138
75 117 139
76 117 138
77 117 137
77 117 137
77 117 137
77 117 137
77 117 137
77 117 137
77 117 137
77 117 137
77 117 137
77 117 137
77 117 137
76 117 136
75 116 136
74 116 136
74 116 136
74 116 136
74 116 136
74 116 136
74 116 136
74 116 136
74 116 136
74 116 136
74 116 136
74 116 136
74 116 136
74 116 136
74 116 136
74 116 136
74 116 136
74 116 136
74 116 136
74 116 136
74 116 136
74 116 136
74 116 136
74 116 136
74 116 136
74 116 136
74 116 136
74 116 136
74 116 136
74 116 136
74 116 136
75 116 134
77 116 134
79 115 132
89 120 137
97 124 139
81 101 115
39 51 61
0 0 9
0 0 0
2 0 2
3 4 2
0 2 0
0 3 0
0 3 0
0 2 2
0 1 5
0 1 6
0 1 5
0 1 4
0 2 3
0 2 2
0 2 1
0 2 1
0 2 1
0 2 1
0 2 1
0 2 1
0 2 1
0 2 1
0 2 1
0 2 1
0 2 1
0 2 1
0 2 1
0 2 1
0 1 0
0 0 0
0 0 0
0 0 0
0 0 0
0 0 0
0 0 0
0 0 0
0 0 0
0 0 0
0 0 0
0 0 0
0 0 0
0 0 0
0 0 0
0 0 0
0 0 0
0 0 0
0 0 0
0 0 0
0 0 0
0 0 0
0 0 0
0 0 0
0 0 0
0 0 0
0 0 0
0 0 0
0 0 0
0 0 0
0 0 0
0 0 0
0 0 0
0 1 1
0 1 1
0 0 0
0 1 0
5 6 9
23 29 39
39 51 61
62 77 90
68 87 100
79 97 109
70 92 106
70 92 106
70 92 106
71 97 112
71 97 112
71 97 112
71 97 112
71 97 112
71 97 112
71 97 112
71 97 112
71 97 112
71 97 112
71 97 112
71 97 112
71 97 112
71 97 112
71 97 112
71 97 112
71 97 112
71 97 112
71 97 112
71 97 112
71 97 112
71 97 112
71 97 112
71 97 112
71 97 112
71 97 112
71 97 112
71 97 112
71 97 112
71 97 112
71 97 112
71 97 112
71 97 112
71 97 112
71 97 112
71 97 112
71 97 112
71 97 112
71 97 112
71 97 112
71 97 112
71 97 112
71 97 112
71 97 112
71 97 112
71 97 112
71 97 112
71 97 112
71 97 112
71 97 112
71 97 112
71 97 112
71 97 112
71 97 112
71 97 112
71 97 112
71 97 112
71 97 112
71 97 112
71 97 112
71 97 112
71 97 112
71 97 112
71 97 112
71 97 112
71 97 112
71 97 112
71 97 112
71 97 112
71 97 112
71 97 112
71 97 112
71 97 112
71 97 112
71 97 112
71 97 112
71 97 112
71 97 112
71 97 112
71 97 112
71 97 112
71 97 112
71 97 112
71 97 112
71 97 112
71 97 112
71 97 112
71 97 112
71 97 112
71 97 112
71 97 112
71 97 112
79 97 109
81 101 115
79 97 109
62 77 90
39 51 61
23 29 39
12 20 29
6 12 17
6 1 4
6 1 4
6 1 4
6 1 4
4 1 2
2 0 1
1 1 1
1 1 1
1 1 1
1 1 1
1 1 1
1 1 1
1 1 1
1 1 1
1 1 1
1 1 1
1 1 1
1 1 1
1 1 1
1 1 1
1 1 1
1 1 1
1 1 1
1 1 1
1 1 1
1 1 1
1 1 1
1 1 1
1 1 1
1 1 1
1 1 1
1 1 1
1 1 1
1 1 1
1 1 1
1 1 1
1 1 1
1 1 1
1 1 1
1 1 1
1 1 1
1 1 1
1 1 1
1 1 1
1 1 1
1 1 1
0 2 1
0 2 1
0 2 1
0 2 1
0 2 1
0 2 1
0 2 1
0 2 1
1 2 0
1 2 0
1 2 0
1 2 0
1 2 0
1 2 0
1 2 0
1 2 0
1 2 0
1 2 0
1 2 0
1 2 0
1 1 0
1 1 1
1 1 2
1 1 3
2 1 3
4 1 5
5 6 9
6 8 13
6 8 13
0 1 13
0 4 16
12 20 29
47 64 75
81 101 115
97 121 136
90 116 132
81 110 128
76 113 132
75 116 134
75 118 134
74 117 135
74 117 135
74 116 136
74 116 136
74 116 136
74 116 136
74 116 136
74 116 136
74 116 136
74 116 136
74 116 136
74 116 136
74 116 136
74 116 136
74 116 136
74 116 136
74 116 136
74 116 136
74 116 136
74 116 136
74 116 136
74 116 136
74 116 136
74 116 136
74 116 136
74 116 136
74 116 136
74 116 136
74 116 136
74 116 136
73 117 136
72 117 138
73 117 138
74 116 138
74 115 139
76 115 140
76 115 140
77 114 138
78 115 137
79 113 135
79 113 132
82 113 130
91 117 133
93 116 131
81 101 115
53 72 83
24 35 46
6 12 17
0 1 6
2 0 0
2 0 0
2 0 0
2 0 0
2 0 0
2 0 0
2 0 0
2 0 0
2 0 0
2 0 0
2 0 0
2 0 0
1 0 0
0 0 0
0 0 0
0 0 0
0 0 0
0 0 0
0 0 0
0 1 0
0 1 1
0 2 2
0 2 2
0 2 2
0 3 2
1 3 2
1 3 2
2 1 3
2 2 2
2 1 3
2 1 3
2 1 3
2 2 2
1 1 1
1 1 1
1 2 1
1 2 1
1 2 1
1 2 1
1 2 1
1 2 1
1 1 1
1 1 1
1 1 1
1 1 1
1 1 1
1 1 1
1 1 1
1 1 1
1 1 1
1 1 1
1 1 1
1 1 1
1 1 1
1 1 1
1 1 1
1 1 1
1 1 1
1 1 1
1 1 1
1 1 1
1 1 1
1 1 1
1 1 1
1 1 1
1 1 1
1 1 1
1 1 1
1 1 1
1 1 1
1 1 1
1 1 1
1 1 1
1 1 1
2 1 1
3 0 1
3 0 1
3 0 1
3 0 1
2 0 1
2 0 1
2 0 1
2 0 1
2 1 1
2 3 2
2 3 2
2 3 2
2 1 1
2 2 2
2 2 2
2 2 2
2 2 2
2 2 2
2 2 2
2 1 1
2 2 2
1 2 3
1 4 5
5 6 9
2 10 15
12 20 29
39 51 61
70 92 106
90 113 128
90 113 128
83 113 128
82 113 130
77 111 130
77 107 124
77 111 130
80 117 140
87 124 142
87 124 142
82 120 140
75 116 141
74 114 140
72 113 134
73 115 135
75 116 137
75 117 139
76 117 138
77 117 137
77 117 137
77 117 137
77 117 137
77 117 137
77 117 137
77 117 137
77 117 137
77 117 137
77 117 137
77 117 137
76 117 136
75 116 136
74 116 136
74 116 136
74 116 136
74 116 136
74 116 136
74 116 136
74 116 136
74 116 136
74 116 136
74 116 136
74 116 136
74 116 136
74 116 136
74 116 136
74 116 136
74 116 136
74 116 136
74 116 136
74 116 136
74 116 136
74 116 136
74 116 136
74 116 136
74 116 136
74 116 136
74 116 136
74 116 136
74 116 136
74 116 136
74 116 136
75 116 134
77 116 134
79 115 132
89 120 137
97 124 139
81 101 115
39 51 61
0 0 9
0 0 0
2 0 2
3 4 2
0 2 0
0 3 0
0 3 0
0 2 2
0 1 5
0 1 6
0 1 5
0 1 4
0 2 3
0 2 2
0 2 1
0 2 1
0 2 1
0 2 1
0 2 1
0 2 1
0 2 1
0 2 1
0 2 1
0 2 1
0 2 1
0 2 1
0 2 1
0 2 1
0 1 0
0 0 0
0 0 0
0 0 0
0 0 0
0 0 0
0 0 0
0 0 0
0 0 0
0 0 0
0 0 0
0 0 0
0 0 0
0 0 0
0 0 0
0 0 0
0 0 0
0 0 0
0 0 0
0 0 0
0 0 0
0 0 0
0 0 0
0 0 0
0 0 0
0 0 0
0 0 0
0 0 0
0 0 0
0 0 0
0 0 0
0 0 0
0 0 0
1 2 1
2 3 2
0 0 0
0 0 0
5 6 9
23 29 39
47 64 75
79 97 109
93 116 131
97 121 136
93 116 131
95 118 134
93 121 136
93 121 136
89 120 137
87 124 142
87 124 142
87 124 142
89 120 137
96 123 138
96 123 138
96 123 138
96 123 138
96 123 138
93 121 136
93 121 136
93 121 136
93 121 136
93 121 136
93 121 136
93 121 136
93 121 136
93 121 136
93 121 136
93 121 136
93 121 136
97 121 136
97 121 136
97 121 136
97 121 136
97 121 136
93 121 136
93 121 136
93 121 136
93 121 136
97 121 136
97 121 136
97 121 136
97 121 136
97 121 136
97 121 136
97 121 136
97 121 136
97 121 136
97 121 136
97 121 136
97 121 136
97 121 136
97 121 136
97 121 136
97 121 136
97 121 136
97 121 136
97 121 136
97 121 136
97 121 136
97 121 136
97 121 136
97 121 136
97 121 136
97 121 136
97 121 136
97 121 136
97 121 136
97 121 136
97 121 136
97 121 136
97 121 136
97 121 136
97 121 136
97 121 136
97 121 136
97 121 136
97 121 136
97 121 136
97 121 136
97 121 136
97 121 136
97 121 136
97 121 136
97 121 136
97 121 136
97 121 136
97 121 136
97 121 136
97 121 136
97 121 136
97 121 136
93 121 136
93 121 136
96 123 138
96 123 138
97 124 139
97 124 139
96 123 138
97 121 136
99 127 141
97 121 136
81 101 115
53 72 83
31 43 53
12 20 29
6 12 17
5 4 5
6 1 4
6 1 4
6 1 4
4 1 2
2 1 1
1 1 1
1 1 1
1 1 1
1 1 1
1 1 1
1 1 1
1 1 1
1 1 1
1 1 1
1 1 1
1 1 1
1 1 1
1 1 1
1 1 1
1 1 1
1 1 1
1 1 1
1 1 1
1 1 1
1 1 1
1 1 1
1 1 1
1 1 1
1 1 1
1 1 1
1 1 1
1 1 1
1 1 1
1 1 1
1 1 1
1 1 1
1 1 1
1 1 1
1 1 1
1 1 1
1 1 1
1 1 1
1 1 1
1 1 1
1 1 1
0 2 1
0 2 1
0 2 1
0 2 1
0 2 1
0 2 1
0 2 1
0 2 1
1 2 0
1 2 0
1 2 0
1 2 0
1 2 0
1 2 0
1 2 0
1 2 0
1 2 0
0 3 0
0 3 0
0 3 0
1 2 0
1 2 1
1 1 2
1 2 3
0 0 3
2 1 3
5 6 9
6 8 13
2 4 11
0 0 12
4 17 26
31 51 61
62 77 90
81 106 120
90 116 132
85 113 132
77 111 130
76 113 132
77 116 134
74 117 135
74 117 135
74 117 135
74 116 136
74 116 136
74 116 136
74 116 136
74 116 136
74 116 136
74 116 136
74 116 136
74 116 136
74 116 136
74 116 136
74 116 136
74 116 136
74 116 136
74 116 136
74 116 136
74 116 136
74 116 136
74 116 136
74 116 136
74 116 136
74 116 136
74 116 136
74 116 136
74 116 136
74 116 136
74 116 136
74 116 136
73 117 136
72 117 138
73 117 138
74 116 138
74 115 139
76 115 140
76 115 140
77 114 138
78 115 137
79 113 135
79 113 132
82 113 130
91 117 133
90 113 128
70 92 106
39 51 61
12 20 29
2 10 15
1 6 12
2 0 0
2 0 0
2 0 0
2 0 0
2 0 0
2 0 0
2 0 0
2 0 0
2 0 0
2 0 0
2 0 0
2 0 0
1 0 0
0 0 0
0 0 0
0 1 0
0 1 0
0 1 0
0 1 0
0 1 1
0 1 3
0 2 3
0 2 3
0 2 3
1 3 2
3 4 6
3 4 6
3 4 6
1 4 5
3 4 6
1 4 5
1 4 5
2 3 2
1 3 2
1 3 2
1 3 2
1 3 2
1 3 2
1 3 2
1 3 2
1 3 2
1 1 2
1 1 1
1 1 1
1 1 1
1 1 1
1 1 1
1 1 1
1 1 1
1 1 1
1 1 1
1 1 1
1 1 1
1 1 1
1 1 1
1 1 1
1 1 1
1 1 1
1 1 1
1 1 1
1 1 1
1 1 1
1 1 1
1 1 1
1 1 1
1 1 1
1 1 1
1 1 1
1 1 1
1 1 1
1 1 1
1 1 1
1 1 1
1 1 1
2 1 1
3 0 1
3 0 1
3 0 1
2 0 1
1 1 1
1 1 1
1 1 1
1 1 1
2 2 2
2 2 2
2 2 2
2 2 2
2 2 2
2 2 2
2 2 2
2 2 2
2 2 2
2 2 2
2 2 2
2 2 2
2 3 2
1 3 2
1 4 5
1 4 5
0 4 9
0 12 19
24 35 46
47 64 75
70 92 106
81 106 120
83 113 128
85 116 133
82 113 130
77 111 130
77 111 130
82 117 137
87 124 142
87 124 142
82 120 140
75 117 141
73 115 135
72 113 134
73 115 135
76 115 138
77 116 139
77 117 139
77 117 137
77 117 137
77 117 137
77 117 137
77 117 137
77 117 137
77 117 137
77 117 137
77 117 137
77 117 137
77 117 137
76 117 136
75 116 136
74 116 136
74 116 136
74 116 136
74 116 136
74 116 136
74 116 136
74 116 136
74 116 136
74 116 136
74 116 136
74 116 136
74 116 136
74 116 136
74 116 136
74 116 136
74 116 136
74 116 136
74 116 136
74 116 136
74 116 136
74 116 136
74 116 136
74 116 136
74 116 136
74 116 136
74 116 136
74 116 136
74 116 136
74 116 136
74 116 136
75 116 134
77 116 134
79 115 132
89 120 137
97 124 139
81 101 115
39 51 61
0 0 9
0 0 0
2 0 2
3 4 2
0 2 0
0 3 0
0 3 0
0 2 2
0 1 5
0 1 6
0 1 5
0 1 4
0 2 3
0 2 2
0 2 1
0 2 1
0 2 1
0 2 1
0 2 1
0 2 1
0 2 1
0 2 1
0 2 1
0 2 1
0 2 1
0 2 1
0 2 1
0 2 1
0 1 0
0 0 0
0 0 0
0 0 0
0 0 0
0 0 0
0 0 0
0 0 0
0 0 0
0 0 0
0 0 0
0 0 0
0 0 0
0 0 0
0 0 0
0 0 0
0 0 0
0 0 0
0 0 0
0 0 0
0 0 0
0 0 0
0 0 0
0 0 0
0 0 0
0 0 0
0 0 0
0 0 0
0 0 0
0 0 0
0 0 0
0 0 0
0 0 0
2 3 2
3 4 2
0 0 0
0 0 0
5 6 9
23 29 39
47 64 75
79 97 109
93 116 131
93 116 131
90 113 128
93 116 131
90 116 132
89 118 136
89 118 136
86 121 140
86 121 140
89 120 137
89 118 136
89 118 136
89 118 136
89 118 136
89 118 136
89 118 136
89 118 136
89 118 136
89 118 136
89 118 136
89 118 136
89 118 136
89 118 136
89 118 136
89 118 136
89 118 136
89 118 136
89 118 136
89 118 136
89 118 136
89 118 136
89 118 136
89 118 136
89 118 136
89 118 136
89 118 136
90 116 132
90 116 132
90 116 132
90 116 132
90 116 132
90 116 132
90 116 132
90 116 132
90 116 132
90 116 132
90 116 132
90 116 132
90 116 132
90 116 132
90 116 132
90 116 132
90 116 132
90 116 132
90 116 132
90 116 132
90 116 132
90 116 132
90 116 132
90 116 132
90 116 132
90 116 132
90 116 132
90 116 132
90 116 132
90 116 132
90 116 132
90 116 132
90 116 132
90 116 132
90 116 132
90 116 132
90 116 132
90 116 132
90 116 132
90 116 132
90 116 132
90 116 132
90 116 132
90 116 132
90 116 132
90 116 132
90 116 132
90 116 132
90 116 132
90 116 132
90 116 132
90 116 132
90 116 132
90 116 132
90 116 132
89 118 136
89 118 136
89 120 137
89 118 136
89 118 136
89 118 136
95 118 134
97 121 136
95 118 134
81 101 115
62 77 90
31 43 53
12 20 29
5 6 9
3 1 6
5 4 5
6 1 4
5 4 5
6 1 4
3 2 1
2 2 2
2 2 2
2 2 2
2 2 2
2 2 2
2 2 2
1 1 1
1 1 1
1 1 1
1 1 1
1 1 1
1 1 1
1 1 1
1 1 1
1 1 1
1 1 1
1 1 1
1 1 1
1 1 1
1 1 1
1 1 1
1 1 1
1 1 1
1 1 1
1 1 1
1 1 1
1 1 1
1 1 1
1 1 1
1 1 1
1 1 1
1 1 1
1 1 1
1 1 1
1 1 1
1 1 1
1 1 1
1 1 1
1 1 1
1 1 1
0 2 1
0 2 1
0 2 1
0 2 1
0 2 1
0 2 1
0 2 1
0 2 1
1 2 0
1 2 0
1 2 0
1 2 0
1 2 0
1 2 0
1 2 0
1 2 0
0 3 0
1 4 1
1 4 1
1 4 1
1 3 2
1 3 2
1 3 2
1 4 5
1 1 5
0 0 5
0 2 9
2 6 12
0 1 10
0 4 16
24 35 46
62 77 90
81 106 120
88 109 125
84 109 126
85 113 132
79 113 132
78 115 132
77 115 134
76 116 136
76 116 136
75 116 136
74 116 136
74 116 136
74 116 136
74 116 136
74 116 136
74 116 136
74 116 136
74 116 136
74 116 136
74 116 136
74 116 136
74 116 136
74 116 136
74 116 136
74 116 136
74 116 136
74 116 136
74 116 136
74 116 136
74 116 136
74 116 136
74 116 136
74 116 136
74 116 136
74 116 136
74 116 136
74 116 136
74 116 136
73 117 136
72 117 138
73 117 138
74 116 138
74 115 139
76 115 140
76 115 140
77 114 138
79 113 135
79 113 135
82 113 130
82 113 130
91 117 133
90 113 128
68 87 100
23 41 52
0 12 19
0 8 14
2 10 15
2 0 0
2 0 0
2 0 0
2 0 0
2 0 0
2 0 0
2 0 0
2 0 0
2 0 0
2 0 0
2 0 0
2 0 0
1 0 0
0 0 0
0 0 0
0 1 0
0 1 1
0 2 1
0 2 2
0 1 3
0 1 3
0 1 1
0 2 3
1 4 5
0 2 2
0 0 0
0 0 0
0 0 0
0 1 3
1 4 5
1 4 5
1 4 5
1 3 2
1 3 2
1 3 2
1 3 2
1 3 2
1 3 2
1 3 2
1 3 2
1 3 2
1 1 2
1 1 1
1 1 1
1 1 1
1 1 1
1 1 1
1 1 1
1 1 1
1 1 1
1 1 1
1 1 1
1 1 1
1 1 1
1 1 1
1 1 1
1 1 1
1 1 1
1 1 1
1 1 1
1 1 1
1 1 1
1 1 1
1 1 1
1 1 1
1 1 1
1 1 1
1 1 1
1 1 1
1 1 1
1 1 1
1 1 1
1 1 1
1 1 1
2 1 1
3 0 1
3 0 1
3 0 1
2 0 1
1 1 1
1 1 1
1 1 1
1 1 1
2 2 2
2 2 2
2 2 2
2 2 2
2 2 2
2 2 2
2 2 2
2 2 2
2 2 2
2 2 2
2 2 2
2 2 2
2 3 2
1 4 5
1 4 5
1 4 5
1 4 5
0 8 14
4 17 26
24 35 46
47 64 75
71 97 112
90 113 128
90 116 132
85 113 132
82 113 130
79 113 132
82 115 132
82 117 137
82 118 141
78 117 140
77 117 139
76 115 138
76 115 138
75 116 138
76 115 140
77 116 139
77 117 139
77 117 137
77 117 137
77 117 137
77 117 137
77 117 137
77 117 137
77 117 137
77 117 137
77 117 137
77 117 137
77 117 137
76 117 136
75 116 136
74 116 136
74 116 136
74 116 136
74 116 136
74 116 136
74 116 136
74 116 136
74 116 136
74 116 136
74 116 136
74 116 136
74 116 136
74 116 136
74 116 136
74 116 136
74 116 136
74 116 136
74 116 136
74 116 136
74 116 136
74 116 136
74 116 136
74 116 136
74 116 136
74 116 136
74 116 136
74 116 136
74 116 136
74 116 136
74 116 136
75 116 134
77 116 134
79 115 132
89 120 137
97 124 139
81 101 115
39 51 61
0 0 9
0 0 0
2 0 2
3 4 2
0 2 0
0 3 0
0 3 0
0 2 2
0 1 5
0 1 6
0 1 5
0 1 4
0 2 3
0 2 2
0 2 1
0 2 1
0 2 1
0 2 1
0 2 1
0 2 1
0 2 1
0 2 1
0 2 1
0 2 1
0 2 1
0 2 1
0 2 1
0 2 1
0 1 0
0 0 0
0 0 0
0 0 0
0 0 0
0 0 0
0 0 0
0 0 0
0 0 0
0 0 0
0 0 0
0 0 0
0 0 0
0 0 0
0 0 0
0 0 0
0 0 0
0 0 0
0 0 0
0 0 0
0 0 0
0 0 0
0 0 0
0 0 0
0 0 0
0 0 0
0 0 0
0 0 0
0 0 0
0 0 0
0 0 0
0 0 0
0 0 0
2 3 2
3 4 2
0 0 0
0 1 0
5 6 9
23 29 39
47 64 75
79 97 109
88 109 125
88 109 125
81 106 120
84 109 126
81 110 128
81 110 128
79 113 127
79 113 132
79 113 132
79 113 132
82 113 130
85 113 132
85 113 132
85 113 132
85 113 132
81 110 128
81 110 128
81 110 128
81 110 128
81 110 128
81 110 128
81 110 128
81 110 128
81 110 128
81 110 128
81 110 128
81 110 128
81 110 128
81 110 128
81 110 128
81 110 128
81 110 128
79 113 127
79 113 127
79 113 127
79 113 127
79 113 127
79 113 127
79 113 127
79 113 127
79 113 127
79 113 127
79 113 127
79 113 127
79 113 127
79 113 127
79 113 127
79 113 127
79 113 127
79 113 127
79 113 127
79 113 127
79 113 127
79 113 127
79 113 127
79 113 127
79 113 127
79 113 127
79 113 127
79 113 127
79 113 127
79 113 127
79 113 127
79 113 127
79 113 127
79 113 127
79 113 127
79 113 127
79 113 127
79 113 127
79 113 127
79 113 127
79 113 127
79 113 127
79 113 127
79 113 127
79 113 127
79 113 127
79 113 127
79 113 127
79 113 127
79 113 127
79 113 127
79 113 127
79 113 127
79 113 127
79 113 127
79 113 127
79 113 127
79 113 127
79 113 127
79 113 127
79 113 132
83 113 135
83 113 135
85 113 132
84 109 126
84 109 126
90 113 128
88 109 125
79 97 109
62 77 90
31 43 53
6 12 17
0 0 4
1 0 3
5 6 9
5 4 5
5 4 5
6 1 4
2 2 2
2 2 2
2 2 2
2 2 2
2 2 2
2 2 2
2 2 2
1 1 1
1 1 1
1 1 1
1 1 1
1 1 1
1 1 1
1 1 1
1 1 1
1 1 1
1 1 1
1 1 1
1 1 1
1 1 1
1 1 1
1 1 1
1 1 1
1 1 1
1 1 1
1 1 1
1 1 1
1 1 1
1 1 1
1 1 1
1 1 1
1 1 1
1 1 1
1 1 1
1 1 1
1 1 1
1 1 1
1 1 1
1 1 1
1 1 1
1 1 1
0 2 1
0 2 1
0 2 1
0 2 1
0 2 1
0 2 1
0 2 1
0 2 1
1 2 0
1 2 0
1 2 0
1 2 0
1 2 0
1 2 0
1 2 0
1 2 0
0 3 0
1 4 1
1 4 1
1 4 1
1 3 2
1 3 2
1 3 2
1 4 5
1 4 5
0 4 9
1 1 8
0 2 9
0 0 9
4 17 26
31 51 61
79 97 109
93 116 131
90 113 128
84 109 126
82 113 130
82 115 132
78 115 132
77 115 134
76 116 136
76 116 136
75 116 136
74 116 136
74 116 136
74 116 136
74 116 136
74 116 136
74 116 136
74 116 136
74 116 136
74 116 136
74 116 136
74 116 136
74 116 136
74 116 136
74 116 136
74 116 136
74 116 136
74 116 136
74 116 136
74 116 136
74 116 136
74 116 136
74 116 136
74 116 136
74 116 136
74 116 136
74 116 136
74 116 136
74 116 136
73 117 136
72 117 138
73 117 138
74 116 138
74 115 139
76 115 140
77 116 140
78 115 139
79 113 135
79 113 135
82 113 130
81 110 128
90 116 132
88 109 125
62 77 90
14 29 40
0 8 14
0 8 14
2 10 15
2 0 0
2 0 0
2 0 0
2 0 0
2 0 0
2 0 0
2 0 0
2 0 0
2 0 0
2 0 0
1 0 0
0 0 0
0 1 0
0 1 0
0 1 0
0 1 1
0 2 3
0 4 5
0 3 5
0 2 4
0 1 3
0 1 3
1 4 5
3 4 6
0 2 4
0 0 0
0 0 0
0 0 0
0 2 4
0 4 5
0 4 9
0 4 5
0 4 5
0 4 5
0 3 2
1 3 2
1 3 2
1 3 2
1 3 2
1 3 2
1 3 2
1 1 2
1 1 1
1 1 1
1 1 1
1 1 1
1 1 1
1 1 1
1 1 1
1 1 1
1 1 1
1 1 1
0 0 0
0 0 0
0 0 0
0 0 0
0 0 0
0 0 0
1 1 1
1 1 1
1 1 1
1 1 1
1 1 1
1 1 1
1 1 1
1 1 1
1 1 1
1 1 1
1 1 1
1 1 1
1 1 1
1 1 1
1 1 1
1 1 1
2 1 1
3 0 1
3 0 1
3 0 1
2 0 1
1 1 1
1 1 1
1 1 1
1 1 1
2 2 2
2 2 2
2 2 2
2 2 2
2 2 2
2 2 2
2 2 2
2 2 2
2 2 2
2 2 2
2 2 2
2 2 2
2 1 3
1 4 5
0 4 5
0 4 5
1 4 5
0 4 9
0 4 9
6 12 17
23 41 52
55 79 91
81 106 120
88 109 125
90 113 128
90 116 132
85 116 133
79 113 132
77 111 130
76 113 132
76 114 136
78 116 138
80 117 140
78 117 140
77 116 140
76 115 140
76 115 138
77 115 137
76 116 136
76 116 136
76 116 136
76 116 136
77 117 137
77 117 137
77 117 137
77 117 137
77 117 137
77 117 137
77 117 137
76 117 136
75 116 136
74 116 136
74 116 136
74 116 136
74 116 136
74 116 136
74 116 136
74 116 136
74 116 136
74 116 136
74 116 136
74 116 136
74 116 136
74 116 136
74 116 136
74 116 136
74 116 136
74 116 136
74 116 136
74 116 136
74 116 136
74 116 136
74 116 136
74 116 136
74 116 136
74 116 136
74 116 136
74 116 136
74 116 136
74 116 136
74 116 136
75 116 134
77 116 134
79 115 132
89 120 137
97 124 139
81 101 115
39 51 61
0 0 9
0 0 0
2 0 2
3 4 2
0 2 0
0 3 0
0 3 2
0 2 3
0 1 5
0 1 6
0 1 5
0 1 4
0 2 3
0 2 2
0 2 1
0 2 1
0 2 1
0 2 1
0 2 1
0 2 1
0 2 1
0 2 1
0 2 1
0 2 1
0 2 1
0 2 1
0 2 1
0 2 1
0 1 0
0 0 0
0 0 0
0 0 0
0 0 0
0 0 0
0 0 0
0 0 0
0 0 0
0 0 0
0 0 0
0 0 0
0 0 0
0 0 0
0 0 0
0 0 0
0 0 0
0 0 0
0 0 0
0 0 0
0 0 0
0 0 0
0 0 0
0 0 0
0 0 0
0 0 0
0 0 0
0 0 0
0 0 0
0 0 0
0 0 0
0 0 0
0 0 0
1 1 1
2 3 2
0 0 0
0 2 0
6 12 17
24 35 46
47 64 75
79 97 109
88 109 125
90 113 128
88 109 125
84 109 126
82 113 130
82 113 130
79 113 132
79 113 135
79 114 134
82 113 136
82 113 136
83 113 135
83 113 135
83 113 135
83 113 135
83 113 135
83 113 135
83 113 135
83 113 135
79 113 132
79 113 132
79 113 132
79 113 132
79 113 132
79 113 132
79 113 132
82 113 130
82 113 130
79 113 132
79 113 132
79 113 132
79 113 132
79 115 132
79 115 132
79 115 132
77 115 131
77 115 131
77 115 131
77 115 131
77 115 131
77 115 131
77 115 131
77 115 131
77 115 131
77 115 131
77 115 131
77 115 131
77 115 131
77 115 131
77 115 131
77 115 131
77 115 131
77 115 131
77 115 131
77 115 131
77 115 131
77 115 131
77 115 131
77 115 131
77 115 131
77 115 131
77 115 131
77 115 131
77 115 131
77 115 131
77 115 131
77 115 131
77 115 131
77 115 131
77 115 131
77 115 131
77 115 131
77 115 131
77 115 131
77 115 131
77 115 131
77 115 131
77 115 131
77 115 131
77 115 131
77 115 131
77 115 131
77 115 131
77 115 131
77 115 131
77 115 131
77 115 131
77 115 131
77 115 131
77 115 131
77 115 131
79 115 132
79 114 134
82 113 136
82 113 136
83 113 135
85 113 132
85 113 132
90 113 128
90 113 128
81 101 115
62 77 90
31 43 53
6 12 17
0 0 2
1 0 3
5 6 9
5 6 9
5 4 5
3 4 2
1 1 1
0 1 1
1 1 1
1 1 1
1 1 1
1 1 1
1 1 1
1 1 1
1 1 1
1 1 1
1 1 1
1 1 1
1 1 1
1 1 1
1 1 1
1 1 1
1 1 1
1 1 1
1 1 1
1 1 1
1 1 1
1 1 1
1 1 1
1 1 1
1 1 1
1 1 1
1 1 1
1 1 1
1 1 1
1 1 1
1 1 1
1 1 1
1 1 1
1 1 1
1 1 1
1 1 1
1 1 1
1 1 1
1 1 1
1 1 1
1 1 1
0 2 1
0 2 1
0 2 1
0 2 1
0 2 1
0 2 1
0 2 1
0 2 1
1 2 0
1 2 0
1 2 0
1 2 0
1 2 0
1 2 0
1 2 0
1 2 0
0 3 0
1 4 1
1 4 1
1 4 1
1 3 2
1 3 2
1 3 2
0 4 5
1 6 12
0 8 14
0 1 6
1 1 5
2 6 12
14 29 40
53 72 83
81 106 120
97 121 136
90 113 128
81 110 128
82 113 130
82 115 132
77 115 134
77 115 134
76 115 135
76 116 136
75 116 136
74 116 136
74 116 136
74 116 136
74 116 136
74 116 136
74 116 136
74 116 136
74 116 136
74 116 136
74 116 136
74 116 136
74 116 136
74 116 136
74 116 136
74 116 136
74 116 136
74 116 136
74 116 136
74 116 136
74 116 136
74 116 136
74 116 136
74 116 136
74 116 136
74 116 136
74 116 136
74 116 136
74 116 136
73 117 136
72 117 138
73 117 138
74 116 138
75 116 138
77 116 139
78 115 142
80 115 140
79 114 138
79 113 135
82 113 130
81 110 128
90 113 128
81 101 115
53 72 83
14 29 40
0 8 14
0 8 14
6 12 17
2 0 0
2 0 0
2 0 0
2 0 0
2 0 0
2 0 0
2 0 0
2 0 0
2 0 0
2 0 0
1 0 0
0 0 0
0 1 0
0 1 0
0 1 0
0 1 3
0 4 5
0 4 9
0 4 5
0 2 4
1 4 5
5 6 9
0 3 5
0 0 1
0 4 9
12 20 29
12 20 29
6 12 17
2 6 12
1 6 12
0 4 9
0 4 9
0 6 5
0 4 5
0 4 5
1 3 2
1 3 2
1 3 2
1 3 2
1 3 2
1 3 2
1 1 2
1 1 2
1 1 2
1 1 2
1 1 1
1 1 1
1 1 1
1 1 1
1 1 1
1 1 1
1 1 1
0 0 0
0 0 0
0 0 0
0 0 0
0 0 0
0 0 0
1 1 1
1 1 1
1 1 1
1 1 1
1 1 1
1 1 1
1 1 1
1 1 1
1 1 1
1 1 1
1 1 1
1 1 1
1 1 1
1 1 1
1 1 1
1 1 1
2 1 1
3 0 1
3 0 1
3 0 1
2 0 1
1 1 1
1 1 1
1 1 1
1 1 1
2 2 2
2 2 2
2 2 2
2 2 2
2 2 2
2 2 2
2 2 2
2 2 2
2 2 2
2 2 2
2 2 2
2 2 2
2 1 3
1 4 5
0 4 5
0 4 5
0 6 5
2 6 12
0 2 4
0 4 9
12 20 29
39 51 61
62 77 90
81 106 120
93 116 131
93 121 136
85 116 133
82 113 130
77 111 130
70 105 125
77 111 130
79 115 135
82 118 141
82 118 141
78 117 140
76 115 140
76 115 138
77 115 137
76 116 136
76 116 136
76 116 136
76 116 136
77 117 137
77 117 137
77 117 137
77 117 137
77 117 137
77 117 137
77 117 137
76 117 136
75 116 136
74 116 136
74 116 136
74 116 136
74 116 136
74 116 136
74 116 136
74 116 136
74 116 136
74 116 136
74 116 136
74 116 136
74 116 136
74 116 136
74 116 136
74 116 136
74 116 136
74 116 136
74 116 136
74 116 136
74 116 136
74 116 136
74 116 136
74 116 136
74 116 136
74 116 136
74 116 136
74 116 136
74 116 136
74 116 136
74 116 136
75 116 134
77 116 134
79 115 132
89 120 137
97 124 139
81 101 115
39 51 61
0 0 9
0 0 0
2 0 2
3 4 2
0 2 0
0 3 0
0 3 2
0 2 3
0 1 5
0 1 6
0 1 5
0 1 4
0 2 3
0 2 2
0 2 1
0 2 1
0 2 1
0 2 1
0 2 1
0 2 1
0 2 1
0 2 1
0 2 1
0 2 1
0 2 1
0 2 1
0 2 1
0 2 1
0 1 0
0 0 0
0 0 0
0 0 0
0 0 0
0 0 0
0 0 0
0 0 0
0 0 0
0 0 0
0 0 0
0 0 0
0 0 0
0 0 0
0 0 0
0 0 0
0 0 0
0 0 0
0 0 0
0 0 0
0 0 0
0 0 0
0 0 0
0 0 0
0 0 0
0 0 0
0 0 0
0 0 0
0 0 0
0 0 0
0 0 0
0 0 0
0 0 0
1 1 1
1 2 1
0 0 0
0 3 2
6 12 17
24 35 46
47 64 75
79 97 109
88 109 125
90 113 128
84 109 126
83 113 128
82 115 132
79 114 134
79 114 136
79 114 138
79 114 138
82 113 136
82 113 136
82 113 136
82 113 136
82 113 136
82 113 136
82 113 136
82 113 136
82 113 136
82 113 136
79 113 135
79 113 135
79 113 135
79 113 135
79 113 135
79 113 135
79 113 135
79 114 134
79 114 134
78 115 132
78 115 132
78 115 132
78 115 132
78 115 132
79 115 132
78 115 132
78 115 132
77 115 131
75 117 131
75 117 131
75 117 131
75 117 131
75 117 131
75 117 131
75 117 131
75 117 131
75 117 131
75 117 131
75 117 131
75 117 131
75 117 131
75 117 131
75 117 131
75 117 131
75 117 131
75 117 131
75 117 131
75 117 131
75 117 131
75 117 131
75 117 131
75 117 131
75 117 131
75 117 131
75 117 131
75 117 131
75 117 131
75 117 131
75 117 131
75 117 131
75 117 131
75 117 131
75 117 131
75 117 131
75 117 131
75 117 131
75 117 131
75 117 131
75 117 131
75 117 131
75 117 131
75 117 131
75 117 131
75 117 131
75 117 131
75 117 131
75 117 131
75 117 131
75 117 131
75 117 131
75 117 131
77 115 131
78 115 132
79 114 134
79 113 135
82 113 136
83 113 135
85 113 132
85 113 132
93 116 131
90 113 128
81 101 115
62 77 90
31 43 53
6 12 17
0 1 3
1 1 5
5 6 9
5 4 5
5 4 5
2 1 1
0 1 1
0 1 1
1 1 1
1 1 1
1 1 1
1 1 1
1 1 1
1 1 1
1 1 1
1 1 1
1 1 1
1 1 1
1 1 1
1 1 1
1 1 1
1 1 1
1 1 1
1 1 1
1 1 1
1 1 1
1 1 1
1 1 1
1 1 1
1 1 1
1 1 1
1 1 1
1 1 1
1 1 1
1 1 1
1 1 1
1 1 1
1 1 1
1 1 1
1 1 1
1 1 1
1 1 1
1 1 1
1 1 1
1 1 1
1 1 1
1 1 1
0 2 1
0 2 1
0 2 1
0 2 1
0 2 1
0 2 1
0 2 1
0 2 1
1 2 0
1 2 0
1 2 0
1 2 0
1 2 0
1 2 0
1 2 0
1 2 0
0 3 0
1 4 1
1 4 1
1 4 1
1 3 2
1 3 2
1 3 2
0 4 5
0 6 5
1 6 12
0 0 3
0 1 4
12 20 29
31 51 61
68 87 100
90 113 128
97 121 136
90 116 132
83 113 128
82 115 132
82 115 132
77 115 134
77 115 134
76 115 135
76 116 136
75 116 136
74 116 136
74 116 136
74 116 136
74 116 136
74 116 136
74 116 136
74 116 136
74 116 136
74 116 136
74 116 136
74 116 136
74 116 136
74 116 136
74 116 136
74 116 136
74 116 136
74 116 136
74 116 136
74 116 136
74 116 136
74 116 136
74 116 136
74 116 136
74 116 136
74 116 136
74 116 136
74 116 136
74 116 136
73 117 136
72 117 138
73 117 138
74 116 138
75 116 138
77 116 139
80 117 140
82 118 141
79 114 138
79 113 135
85 116 133
85 116 133
90 113 128
79 97 109
47 64 75
14 29 40
0 8 14
1 6 12
6 8 13
2 0 0
2 0 0
2 0 0
2 0 0
2 0 0
2 0 0
2 0 0
2 0 0
1 0 1
0 0 2
0 0 1
0 0 1
0 0 1
0 0 1
0 0 1
0 1 4
1 4 5
2 6 12
0 4 9
0 2 4
6 8 13
12 20 29
1 6 12
0 0 0
12 20 29
47 64 75
62 77 90
39 51 61
12 20 29
6 12 17
2 10 15
0 8 14
2 6 12
1 4 10
0 4 5
0 4 5
0 3 2
0 3 2
0 3 2
1 3 2
1 4 5
1 4 5
1 2 3
1 2 3
1 2 3
1 2 3
2 2 2
2 2 2
1 1 1
1 1 1
0 0 0
0 0 0
0 0 0
0 0 0
0 0 0
0 0 0
0 0 0
0 0 0
0 0 0
0 0 0
0 0 0
0 0 0
0 0 0
0 0 0
0 0 0
0 0 0
1 1 1
1 1 1
1 1 1
1 1 1
1 1 1
1 1 1
1 1 1
1 1 1
1 1 1
1 1 1
1 1 1
1 1 1
1 1 1
1 1 1
1 1 1
1 1 1
1 1 1
2 2 2
2 2 2
2 2 2
2 2 2
2 2 2
2 2 2
2 2 2
2 2 2
2 2 2
2 2 2
2 2 2
2 2 2
2 2 2
1 3 2
0 3 2
0 4 5
0 6 5
1 6 12
0 4 9
0 4 9
0 3 5
6 12 17
31 43 53
68 87 100
93 116 131
93 116 131
84 109 126
85 113 132
82 113 130
77 107 124
71 110 131
79 113 132
82 116 140
82 118 141
80 117 140
77 116 138
77 115 137
77 115 137
76 115 138
76 115 138
76 115 138
76 115 138
76 115 138
76 115 138
76 115 138
76 115 138
76 115 138
76 115 138
76 115 138
76 115 138
74 116 136
74 116 136
74 116 136
74 116 136
74 116 136
74 116 136
74 116 136
74 116 136
74 116 136
74 116 136
74 116 136
74 116 136
74 116 136
74 116 136
74 116 136
74 116 136
74 116 136
74 116 136
74 116 136
74 116 136
74 116 136
74 116 136
74 116 136
74 116 136
74 116 136
74 116 136
74 116 136
74 116 136
74 116 136
74 116 136
74 116 136
75 116 134
77 116 134
79 115 132
89 120 137
97 124 139
81 101 115
39 51 61
0 0 9
0 0 0
2 1 3
3 4 6
0 2 1
0 3 0
0 3 2
0 2 3
0 1 6
0 1 6
0 1 6
0 1 5
0 2 4
0 2 2
0 2 1
0 2 1
0 2 1
0 2 1
0 2 1
0 2 1
0 2 1
0 2 1
0 2 1
0 2 1
0 2 1
0 2 1
0 2 1
0 2 1
0 1 0
0 0 0
0 0 0
0 0 0
0 0 0
0 0 0
0 0 0
0 0 0
0 0 0
0 0 0
0 0 0
0 0 0
0 0 0
0 0 0
0 0 0
0 0 0
0 0 0
0 0 0
0 0 0
0 0 0
0 0 0
0 0 0
0 0 0
0 0 0
0 0 0
0 0 0
0 0 0
0 0 0
0 0 0
0 0 0
0 0 0
0 0 0
0 1 0
1 2 1
1 3 2
0 1 0
0 3 2
6 12 17
24 35 46
47 64 75
79 97 109
90 113 128
93 116 131
85 113 132
85 116 133
85 116 133
82 117 137
80 117 140
82 118 141
82 116 140
80 115 140
80 115 140
82 116 140
82 116 140
82 116 140
82 116 140
82 116 140
82 116 140
82 116 140
80 115 137
79 114 138
79 114 138
79 114 138
79 114 138
79 114 138
79 114 138
79 114 138
78 116 135
78 116 135
78 116 135
78 116 135
78 116 135
78 116 135
78 116 135
78 116 135
77 117 135
77 117 133
77 117 133
77 117 133
77 117 133
77 117 133
77 117 133
77 117 133
77 117 133
77 117 133
77 117 133
77 117 133
77 117 133
77 117 133
77 117 133
77 117 133
77 117 133
77 117 133
77 117 133
77 117 133
77 117 133
77 117 133
77 117 133
77 117 133
77 117 133
77 117 133
77 117 133
77 117 133
77 117 133
77 117 133
77 117 133
77 117 133
77 117 133
77 117 133
77 117 133
77 117 133
77 117 133
77 117 133
77 117 133
77 117 133
77 117 133
77 117 133
77 117 133
77 117 133
77 117 133
77 117 133
77 117 133
77 117 133
77 117 133
77 117 133
77 117 133
77 117 133
77 117 133
77 117 133
77 117 133
77 117 133
77 117 135
77 116 137
77 115 137
79 114 138
79 114 138
82 113 136
83 113 135
85 113 132
93 116 131
90 113 128
81 101 115
53 72 83
31 43 53
6 12 17
0 2 4
3 4 6
5 6 9
5 4 5
2 2 2
0 0 0
0 0 0
0 0 0
0 0 0
0 0 0
0 0 0
0 0 0
0 0 0
0 0 0
0 0 0
0 0 0
0 0 0
0 0 0
0 0 0
0 0 0
0 0 0
0 0 0
1 1 1
1 1 1
1 1 1
1 1 1
1 1 1
1 1 1
1 1 1
1 1 1
1 1 1
1 1 1
1 1 1
1 1 1
1 1 1
1 1 1
1 1 1
1 1 1
1 1 1
1 1 1
1 1 1
1 1 1
1 1 1
1 1 1
1 1 1
1 1 1
1 1 1
0 2 1
0 2 1
0 2 1
0 2 1
0 2 1
0 2 1
0 2 1
0 2 1
0 2 0
0 2 0
0 2 0
0 2 0
0 3 0
1 4 1
1 4 1
1 4 1
1 4 1
1 4 1
1 4 1
1 4 1
1 4 1
2 3 2
1 4 5
0 6 5
0 6 5
1 4 5
0 1 3
2 10 15
23 41 52
55 79 91
88 109 125
96 123 138
96 123 138
93 121 136
85 116 133
85 116 133
82 115 136
77 115 134
77 115 134
76 115 135
76 116 136
75 116 136
74 116 136
74 116 136
74 116 136
74 116 136
74 116 136
74 116 136
74 116 136
74 116 136
74 116 136
74 116 136
74 116 136
74 116 136
74 116 136
74 116 136
74 116 136
74 116 136
74 116 136
74 116 136
74 116 136
74 116 136
74 116 136
74 116 136
74 116 136
74 116 136
74 116 136
74 116 136
74 116 136
74 116 136
73 117 136
72 117 138
73 116 139
75 117 139
77 117 139
78 117 140
80 117 140
82 118 141
80 115 137
82 113 136
89 120 137
96 123 138
90 113 128
68 87 100
39 51 61
12 20 29
0 4 5
0 3 2
3 4 6
2 0 0
2 0 0
2 0 0
2 0 0
2 0 0
2 0 0
2 0 0
2 0 0
1 0 1
0 0 2
0 0 2
0 0 3
0 0 2
0 0 2
0 0 2
0 1 4
0 4 9
2 6 12
1 6 12
1 4 10
2 6 12
6 12 17
0 8 14
6 12 17
39 51 61
79 97 109
93 116 131
79 97 109
39 51 61
23 29 39
2 10 15
1 6 12
2 10 15
1 6 12
0 4 9
0 4 5
0 4 5
0 4 5
0 4 5
1 4 5
1 4 5
1 4 5
1 4 5
1 4 5
1 4 5
1 3 2
2 2 2
2 2 2
1 1 1
1 1 1
0 0 0
0 0 0
0 0 0
0 0 0
0 0 0
0 0 0
0 0 0
0 0 0
0 0 0
0 0 0
0 0 0
0 0 0
0 0 0
0 0 0
0 0 0
0 0 0
1 1 1
1 1 1
1 1 1
1 1 1
1 1 1
1 1 1
1 1 1
1 1 1
1 1 1
1 1 1
1 1 1
1 1 1
1 1 1
1 1 1
1 1 1
1 1 1
1 1 1
2 2 2
2 2 2
2 2 2
2 2 2
2 2 2
2 2 2
2 2 2
2 2 2
2 2 2
2 2 2
2 2 2
2 2 2
2 2 2
1 3 2
0 3 2
0 3 2
0 6 5
0 4 9
1 6 12
2 6 12
1 1 5
0 0 4
12 20 29
47 64 75
70 92 106
88 109 125
90 113 128
90 113 128
81 110 128
82 113 130
79 113 132
79 113 132
79 113 132
79 115 135
80 115 137
78 116 135
77 115 136
77 115 137
76 115 138
76 115 138
76 115 138
76 115 138
76 115 138
76 115 138
76 115 138
76 115 138
76 115 138
76 115 138
76 115 138
76 115 138
74 116 136
74 116 136
74 116 136
74 116 136
74 116 136
74 116 136
74 116 136
74 116 136
74 116 136
74 116 136
74 116 136
74 116 136
74 116 136
74 116 136
74 116 136
74 116 136
74 116 136
74 116 136
74 116 136
74 116 136
74 116 136
74 116 136
74 116 136
74 116 136
74 116 136
74 116 136
74 116 136
74 116 136
74 116 136
74 116 136
74 116 136
75 116 134
77 116 134
79 115 132
89 120 137
97 124 139
81 101 115
39 51 61
0 0 9
0 0 0
2 1 3
3 4 6
0 2 1
0 3 0
0 3 2
0 2 3
0 1 6
1 1 8
0 1 6
0 1 6
0 2 4
0 2 2
0 2 1
0 2 1
0 2 1
0 2 1
0 2 1
0 2 1
0 2 1
0 2 1
0 2 1
0 2 1
0 2 1
0 2 1
0 2 1
0 2 1
0 1 0
0 0 0
0 0 0
0 0 0
0 0 0
0 0 0
0 0 0
0 0 0
0 0 0
0 0 0
0 0 0
0 0 0
0 0 0
0 0 0
0 0 0
0 0 0
0 0 0
0 0 0
0 0 0
0 0 0
0 0 0
0 0 0
0 0 0
0 0 0
0 0 0
0 0 0
0 0 0
0 0 0
0 0 0
0 0 0
0 0 0
0 0 0
0 1 0
1 2 1
1 4 1
0 1 0
0 3 5
6 12 17
23 29 39
47 64 75
79 97 109
93 116 131
93 121 136
85 116 133
85 116 133
83 118 136
82 118 141
82 118 141
82 118 141
82 118 141
82 118 141
78 115 142
82 116 140
82 116 140
82 116 140
82 116 140
82 116 140
82 118 141
82 116 140
80 115 140
80 115 140
80 115 140
80 115 140
80 115 140
80 115 140
80 115 140
80 115 140
78 116 138
78 116 138
78 116 138
78 116 138
78 116 138
78 116 138
78 116 138
78 116 138
77 117 137
77 117 135
77 117 135
77 117 135
77 117 135
77 117 135
77 117 135
77 117 135
77 117 135
77 117 135
77 117 135
77 117 135
77 117 135
77 117 135
77 117 135
77 117 135
77 117 135
77 117 135
77 117 135
77 117 135
77 117 135
77 117 135
77 117 135
77 117 135
77 117 135
77 117 135
77 117 135
77 117 135
77 117 135
77 117 135
77 117 135
77 117 135
77 117 135
77 117 135
77 117 135
77 117 135
77 117 135
77 117 135
77 117 135
77 117 135
77 117 135
77 117 135
77 117 135
77 117 135
77 117 135
77 117 135
77 117 135
77 117 135
77 117 135
77 117 135
77 117 135
77 117 135
77 117 135
77 117 135
77 117 135
77 117 135
77 117 135
77 117 137
77 116 138
78 115 139
79 114 138
82 113 136
83 113 135
85 113 132
91 117 133
90 113 128
79 97 109
53 72 83
23 41 52
6 12 17
0 4 5
3 4 6
5 6 9
3 4 6
0 1 0
0 0 0
0 0 0
0 0 0
0 0 0
0 0 0
0 0 0
0 0 0
0 0 0
0 0 0
0 0 0
0 0 0
0 0 0
0 0 0
0 0 0
0 0 0
0 0 0
0 0 0
1 1 1
1 1 1
1 1 1
1 1 1
1 1 1
1 1 1
1 1 1
1 1 1
1 1 1
1 1 1
1 1 1
1 1 1
1 1 1
1 1 1
1 1 1
1 1 1
1 1 1
1 1 1
1 1 1
1 1 1
1 1 1
1 1 1
1 1 1
1 1 1
1 1 1
0 2 1
0 2 1
0 2 1
0 2 1
0 2 1
0 2 1
0 2 1
0 2 1
0 2 0
0 2 0
0 2 0
0 2 0
0 3 0
1 4 1
1 4 1
1 4 1
1 4 1
1 4 1
1 4 1
1 4 1
1 4 1
2 3 2
0 6 5
0 6 5
1 3 2
0 2 3
1 6 12
14 29 40
31 51 61
71 97 112
93 116 131
97 124 139
93 121 136
89 120 137
85 116 133
82 115 136
82 115 136
77 115 134
77 115 134
76 115 135
76 116 136
75 116 136
74 116 136
74 116 136
74 116 136
74 116 136
74 116 136
74 116 136
74 116 136
74 116 136
74 116 136
74 116 136
74 116 136
74 116 136
74 116 136
74 116 136
74 116 136
74 116 136
74 116 136
74 116 136
74 116 136
74 116 136
74 116 136
74 116 136
74 116 136
74 116 136
74 116 136
74 116 136
74 116 136
74 116 136
73 117 136
72 117 138
73 116 139
75 117 139
77 117 139
78 117 140
80 117 140
82 118 141
80 115 137
82 115 136
87 124 142
97 124 139
84 109 126
55 79 91
31 43 53
4 17 26
0 1 4
0 0 0
2 0 0
2 0 0
2 0 0
2 0 0
2 0 0
2 0 0
2 0 0
2 0 0
2 0 0
1 0 1
0 0 2
0 0 3
0 0 4
0 0 4
0 0 3
0 0 3
0 1 5
0 4 9
1 6 12
2 10 15
2 10 15
0 4 9
0 1 5
12 20 29
39 51 61
68 87 100
81 101 115
97 121 136
97 121 136
79 97 109
39 51 61
4 17 26
0 8 14
2 10 15
1 6 12
1 6 12
0 4 5
0 3 5
0 4 5
0 3 5
1 4 5
1 4 5
1 4 5
1 4 5
1 4 5
1 4 5
1 3 2
2 2 2
2 2 2
1 1 1
1 1 1
0 0 0
0 0 0
0 0 0
0 0 0
0 0 0
0 0 0
0 0 0
0 0 0
0 0 0
0 0 0
0 0 0
0 0 0
0 0 0
0 0 0
0 0 0
0 0 0
1 1 1
1 1 1
1 1 1
1 1 1
1 1 1
1 1 1
1 1 1
1 1 1
1 1 1
1 1 1
1 1 1
1 1 1
1 1 1
1 1 1
1 1 1
1 1 1
1 1 1
2 2 2
2 2 2
2 2 2
2 2 2
2 2 2
2 2 2
2 2 2
2 2 2
2 2 2
2 2 2
2 2 2
2 2 2
2 3 2
1 3 2
1 2 1
0 2 2
0 3 2
0 4 5
0 4 9
1 6 12
2 10 15
2 10 15
0 12 19
12 20 29
39 51 61
79 97 109
93 116 131
84 109 126
81 106 120
85 113 132
89 120 137
79 113 132
70 105 125
77 111 130
79 114 134
77 115 136
76 114 136
76 114 136
76 115 138
76 114 136
76 114 136
76 114 136
76 115 138
76 115 138
76 115 138
76 115 138
76 115 138
76 115 138
76 115 138
76 115 138
74 116 136
74 116 136
74 116 136
74 116 136
74 116 136
74 116 136
74 116 136
74 116 136
74 116 136
74 116 136
74 116 136
74 116 136
74 116 136
74 116 136
74 116 136
74 116 136
74 116 136
74 116 136
74 116 136
74 116 136
74 116 136
74 116 136
74 116 136
74 116 136
74 116 136
74 116 136
74 116 136
74 116 136
74 116 136
74 116 136
74 116 136
75 116 134
77 116 134
79 115 132
89 120 137
97 124 139
81 101 115
39 51 61
0 0 9
0 0 0
2 1 3
3 4 6
0 2 1
0 3 0
0 3 2
0 2 3
0 1 6
1 1 8
0 1 6
0 1 6
0 2 4
0 2 2
0 2 1
0 2 1
0 2 1
0 2 1
0 2 1
0 2 1
0 2 1
0 2 1
0 2 1
0 2 1
0 2 1
0 2 1
0 2 1
0 2 1
0 1 0
0 0 0
0 0 0
0 0 0
0 0 0
0 0 0
0 0 0
0 0 0
0 0 0
0 0 0
0 0 0
0 0 0
0 0 0
0 0 0
0 0 0
0 0 0
0 0 0
0 0 0
0 0 0
0 0 0
0 0 0
0 0 0
0 0 0
0 0 0
0 0 0
0 0 0
0 0 0
0 0 0
0 0 0
0 0 0
0 0 0
0 0 0
0 1 0
1 3 2
1 4 1
0 1 1
0 2 4
6 12 17
23 29 39
47 64 75
79 97 109
93 116 131
93 121 136
85 116 133
82 117 137
82 116 140
82 118 141
82 118 141
77 116 142
77 116 142
78 115 142
78 115 142
78 115 142
82 118 141
82 118 141
82 118 141
82 118 141
78 115 142
78 115 142
78 115 142
80 115 140
80 115 140
80 115 140
80 115 140
80 115 140
80 115 140
80 115 140
77 116 140
77 116 140
77 116 139
77 116 139
77 116 139
77 116 139
77 116 139
77 116 139
77 117 139
77 117 139
77 117 137
77 117 137
77 117 137
77 117 137
77 117 137
77 117 137
77 117 137
77 117 137
77 117 137
77 117 137
77 117 137
77 117 137
77 117 137
77 117 137
77 117 137
77 117 137
77 117 137
77 117 137
77 117 137
77 117 137
77 117 137
77 117 137
77 117 137
77 117 137
77 117 137
77 117 137
77 117 137
77 117 137
77 117 137
77 117 137
77 117 137
77 117 137
77 117 137
77 117 137
77 117 137
77 117 137
77 117 137
77 117 137
77 117 137
77 117 137
77 117 137
77 117 137
77 117 137
77 117 137
77 117 137
77 117 137
77 117 137
77 117 137
77 117 137
77 117 137
77 117 137
77 117 137
77 117 137
77 117 137
77 117 137
77 117 137
77 117 139
77 116 139
78 115 139
80 115 137
79 114 134
82 113 130
90 116 132
90 113 128
79 97 109
53 72 83
23 41 52
6 12 17
0 4 5
0 6 5
5 6 9
2 3 2
0 1 0
0 0 0
0 0 0
0 0 0
0 0 0
0 0 0
0 0 0
0 0 0
0 0 0
0 0 0
0 0 0
0 0 0
0 0 0
0 0 0
0 0 0
0 0 0
0 0 0
0 0 0
1 1 1
1 1 1
1 1 1
1 1 1
1 1 1
1 1 1
1 1 1
1 1 1
1 1 1
1 1 1
1 1 1
1 1 1
1 1 1
1 1 1
1 1 1
1 1 1
1 1 1
1 1 1
1 1 1
1 1 1
1 1 1
1 1 1
1 1 1
1 1 1
1 1 1
0 2 1
0 2 1
0 2 1
0 2 1
0 2 1
0 2 1
0 2 1
0 2 1
0 2 0
0 2 0
0 2 0
0 2 0
0 3 0
1 4 1
1 4 1
1 4 1
1 4 1
1 4 1
1 4 1
1 4 1
2 3 2
2 3 2
3 4 6
0 6 5
1 4 5
1 6 12
12 20 29
31 51 61
55 79 91
81 106 120
90 116 132
93 121 136
89 120 137
85 116 133
82 115 132
82 115 132
79 115 132
77 115 134
76 114 136
77 115 136
77 115 136
76 116 136
75 116 136
75 116 136
74 116 136
74 116 136
74 116 136
74 116 136
74 116 136
74 116 136
74 116 136
74 116 136
74 116 136
74 116 136
74 116 136
74 116 136
74 116 136
74 116 136
74 116 136
74 116 136
74 116 136
74 116 136
74 116 136
74 116 136
74 116 136
74 116 136
74 116 136
74 116 136
74 116 136
74 116 136
73 117 138
74 118 139
74 118 139
75 117 139
78 118 139
78 118 139
80 117 140
80 117 140
82 117 137
83 118 136
87 124 142
89 118 136
71 97 112
47 64 75
24 35 46
0 12 19
0 2 4
0 0 0
1 0 0
2 0 0
2 0 0
2 0 0
2 0 0
2 0 0
2 0 0
2 0 0
2 0 0
1 0 1
0 0 2
0 0 3
0 0 4
0 0 4
0 0 4
0 0 4
0 1 6
0 4 9
0 6 13
2 10 15
0 12 19
2 10 15
4 17 26
31 43 53
79 97 109
90 113 128
88 109 125
93 116 131
99 127 141
93 116 131
62 77 90
24 35 46
4 17 26
0 8 14
1 6 12
1 6 12
1 4 10
0 3 5
0 3 5
0 3 5
1 4 5
1 4 5
1 4 5
1 4 5
1 4 5
1 4 5
1 3 2
2 2 2
2 2 2
1 1 1
1 1 1
0 0 0
0 0 0
0 0 0
0 0 0
0 0 0
0 0 0
0 0 0
0 0 0
0 0 0
0 0 0
0 0 0
0 0 0
0 0 0
0 0 0
0 0 0
0 0 0
1 1 1
1 1 1
1 1 1
1 1 1
1 1 1
1 1 1
1 1 1
1 1 1
1 1 1
1 1 1
1 1 1
1 1 1
1 1 1
1 1 1
1 1 1
1 1 1
1 1 1
2 2 2
2 2 2
2 2 2
2 2 2
2 2 2
2 2 2
2 2 2
2 2 2
2 2 2
2 2 2
2 2 2
2 2 2
2 3 2
1 3 2
1 2 1
0 2 1
0 3 2
0 4 5
0 6 5
2 10 15
6 12 17
12 20 29
0 8 14
0 0 5
12 20 29
53 72 83
81 106 120
88 109 125
81 106 120
90 113 128
85 116 133
79 113 127
77 111 130
77 111 130
79 113 132
79 114 134
76 114 136
76 114 136
76 114 136
76 114 136
76 114 136
76 114 136
76 115 138
76 115 138
76 115 138
76 115 138
76 115 138
76 115 138
76 115 138
76 115 138
74 116 136
74 116 136
74 116 136
74 116 136
74 116 136
74 116 136
74 116 136
74 116 136
74 116 136
74 116 136
74 116 136
74 116 136
74 116 136
74 116 136
74 116 136
74 116 136
74 116 136
74 116 136
74 116 136
74 116 136
74 116 136
74 116 136
74 116 136
74 116 136
74 116 136
74 116 136
74 116 136
74 116 136
74 116 136
74 116 136
74 116 136
75 116 134
77 116 134
79 115 132
89 120 137
97 124 139
81 101 115
39 51 61
0 0 9
0 0 0
2 1 3
3 4 6
0 2 1
0 3 0
0 3 2
0 2 3
0 1 6
1 1 8
0 1 6
0 1 6
0 2 4
0 2 2
0 2 1
0 2 1
0 2 1
0 2 1
0 2 1
0 2 1
0 2 1
0 2 1
0 2 1
0 2 1
0 2 1
0 2 1
0 2 1
0 2 1
0 1 0
0 0 0
0 0 0
0 0 0
0 0 0
0 0 0
0 0 0
0 0 0
0 0 0
0 0 0
0 0 0
0 0 0
0 0 0
0 0 0
0 0 0
0 0 0
0 0 0
0 0 0
0 0 0
0 0 0
0 0 0
0 0 0
0 0 0
0 0 0
0 0 0
0 0 0
0 0 0
0 0 0
0 0 0
0 0 0
0 0 0
0 0 0
0 1 0
1 3 2
1 4 5
0 1 1
0 2 4
6 12 17
24 35 46
47 64 75
79 97 109
93 116 131
89 118 136
85 116 133
82 117 137
80 117 140
80 117 140
77 116 142
75 119 142
75 119 142
77 116 142
78 115 142
78 115 142
78 115 142
78 115 142
78 115 142
78 115 142
78 115 142
78 115 142
78 115 142
78 115 142
78 115 142
78 115 142
78 115 142
78 115 142
78 115 142
78 115 142
77 116 142
77 116 142
77 116 139
77 116 139
77 116 139
77 116 139
77 116 139
77 116 139
77 116 139
77 116 139
77 117 139
77 117 137
77 117 137
77 117 137
77 117 137
77 117 137
77 117 137
77 117 137
77 117 137
77 117 137
77 117 137
77 117 137
77 117 137
77 117 137
77 117 137
77 117 137
77 117 137
77 117 137
77 117 137
77 117 137
77 117 137
77 117 137
77 117 137
77 117 137
77 117 137
77 117 137
77 117 137
77 117 137
77 117 137
77 117 137
77 117 137
77 117 137
77 117 137
77 117 137
77 117 137
77 117 137
77 117 137
77 117 137
77 117 137
77 117 137
77 117 137
77 117 137
77 117 137
77 117 137
77 117 137
77 117 137
77 117 137
77 117 137
77 117 137
77 117 137
77 117 137
77 117 137
77 117 137
77 117 137
77 117 137
77 117 137
77 117 139
77 116 139
78 115 139
80 115 137
79 114 134
82 113 130
90 116 132
90 113 128
81 101 115
53 72 83
31 43 53
6 12 17
0 4 5
0 6 5
5 6 9
1 3 2
0 1 0
0 0 0
0 0 0
0 0 0
0 0 0
0 0 0
0 0 0
0 0 0
0 0 0
0 0 0
0 0 0
0 0 0
0 0 0
0 0 0
0 0 0
0 0 0
0 0 0
0 0 0
1 1 1
1 1 1
1 1 1
1 1 1
1 1 1
1 1 1
1 1 1
1 1 1
1 1 1
1 1 1
1 1 1
1 1 1
1 1 1
1 1 1
1 1 1
1 1 1
1 1 1
1 1 1
1 1 1
1 1 1
1 1 1
1 1 1
1 1 1
1 1 1
1 1 1
0 2 1
0 2 1
0 2 1
0 2 1
0 2 1
0 2 1
0 2 1
0 2 1
0 2 0
0 2 0
0 2 0
0 2 0
0 3 0
1 4 1
1 4 1
1 4 1
1 4 1
1 4 1
1 4 1
1 4 1
2 3 2
2 3 2
0 6 5
0 6 5
0 6 5
0 12 19
23 41 52
55 79 91
71 97 112
77 107 124
79 113 127
85 116 133
82 115 132
82 113 130
77 111 130
78 115 132
78 115 132
77 115 134
76 114 136
77 115 136
77 115 136
77 116 137
76 116 136
75 116 136
74 116 136
74 116 136
74 116 136
74 116 136
74 116 136
74 116 136
74 116 136
74 116 136
74 116 136
74 116 136
74 116 136
74 116 136
74 116 136
74 116 136
74 116 136
74 116 136
74 116 136
74 116 136
74 116 136
74 116 136
74 116 136
74 116 136
74 116 136
74 116 136
74 116 136
74 116 136
73 117 138
74 118 139
74 118 139
75 117 139
78 118 139
78 118 139
78 116 137
82 117 137
83 118 136
86 121 140
89 120 137
84 109 126
55 79 91
31 51 61
12 20 29
2 10 15
0 4 5
0 1 1
1 1 2
3 0 0
3 0 0
4 0 0
4 0 0
3 1 0
3 1 0
3 0 1
3 0 1
1 1 2
0 1 1
0 0 3
0 0 4
0 0 5
0 0 5
0 0 6
1 1 8
2 6 12
2 10 15
0 8 14
0 12 19
14 29 40
47 64 75
68 87 100
88 109 125
93 116 131
93 116 131
93 116 131
93 116 131
90 113 128
81 101 115
62 77 90
24 35 46
2 10 15
1 6 12
2 10 15
2 6 12
1 4 10
1 1 8
1 1 8
0 1 6
1 1 5
0 2 4
2 1 3
2 1 3
2 1 3
2 1 3
2 2 2
2 2 2
1 1 1
1 1 1
0 0 0
0 0 0
0 0 0
0 0 0
0 0 0
0 0 0
0 0 0
0 0 0
0 0 0
0 0 0
0 0 0
0 0 0
0 0 0
0 0 0
0 0 0
0 0 0
1 1 1
1 1 1
1 1 1
1 1 1
1 1 1
1 1 1
1 1 1
1 1 1
1 1 1
1 1 1
1 1 1
1 1 1
1 1 1
1 1 1
1 1 1
1 1 1
1 1 1
2 2 2
2 2 2
2 2 2
2 2 2
2 2 2
2 2 2
2 2 2
2 2 2
2 2 2
2 2 2
2 2 2
2 2 2
2 3 2
2 3 2
0 3 0
1 1 2
1 3 2
0 6 5
6 8 13
6 12 17
6 12 17
2 6 12
0 1 1
0 0 0
0 8 14
23 41 52
62 77 90
88 109 125
97 121 136
84 109 126
71 97 112
77 107 124
83 118 136
82 115 136
79 113 132
76 113 132
76 114 136
76 114 136
76 114 136
73 115 135
74 114 140
74 115 139
76 115 138
76 115 138
76 115 138
76 115 138
77 114 138
77 114 138
76 115 138
75 116 138
74 116 136
74 116 136
74 116 136
74 116 136
74 116 136
74 116 136
74 116 136
74 116 136
74 116 136
74 116 136
74 116 136
74 116 136
74 116 136
74 116 136
74 116 136
74 116 136
74 116 136
74 116 136
74 116 136
74 116 136
74 116 136
74 116 136
74 116 136
74 116 136
74 116 136
74 116 136
74 116 136
74 116 136
74 116 136
74 116 136
74 116 136
75 116 134
77 116 134
79 115 132
89 120 137
97 124 139
81 101 115
39 51 61
0 0 9
0 0 0
2 1 3
3 4 6
0 2 0
0 3 0
0 3 2
0 2 3
0 1 5
0 1 6
0 1 6
0 1 5
0 2 3
0 2 2
0 2 1
0 2 1
0 2 1
0 2 1
0 2 1
0 2 1
0 2 1
0 2 1
0 2 1
0 2 1
0 2 1
0 2 1
0 2 1
0 2 1
0 1 0
0 0 0
0 0 0
0 0 0
0 0 0
0 0 0
0 0 0
0 0 0
0 0 0
0 0 0
0 0 0
0 0 0
0 0 0
0 0 0
0 0 0
0 0 0
0 0 0
0 0 0
0 0 0
0 0 0
0 0 0
0 0 0
0 0 0
0 0 0
0 0 0
0 0 0
0 0 0
0 0 0
0 0 0
0 0 0
0 0 0
0 0 0
0 0 1
1 3 2
0 6 5
0 2 4
0 1 6
6 12 17
24 35 46
47 64 75
79 97 109
93 116 131
89 118 136
85 116 133
82 116 140
82 118 141
77 116 142
75 119 142
75 119 142
75 119 142
77 116 142
78 115 142
78 115 142
78 115 142
78 115 142
78 115 142
78 115 142
78 115 142
78 115 142
78 115 142
78 115 142
78 115 142
78 115 142
78 115 142
78 115 142
78 115 142
78 115 142
78 115 142
78 115 142
78 115 139
78 115 139
78 115 139
78 115 139
78 115 139
78 115 139
78 115 139
77 115 139
77 116 139
77 116 138
77 116 138
77 116 138
78 116 138
78 116 138
78 116 138
78 116 138
78 116 138
78 116 138
78 116 138
78 116 138
78 116 138
78 116 138
78 116 138
78 116 138
78 116 138
78 116 138
78 116 138
78 116 138
78 116 138
78 116 138
78 116 138
78 116 138
78 116 138
78 116 138
77 116 138
77 116 138
77 116 138
77 116 138
77 116 138
77 116 138
77 116 138
77 116 138
77 116 138
77 116 138
77 116 138
77 116 138
77 116 138
77 116 138
77 116 138
77 116 138
77 116 138
77 116 138
77 116 138
77 116 138
77 116 138
77 116 138
77 116 138
77 116 138
77 116 138
77 116 138
77 116 138
77 116 138
78 116 138
78 116 138
77 116 139
77 116 139
77 116 139
78 116 137
79 115 135
82 113 130
85 116 133
90 113 128
81 101 115
53 72 83
31 43 53
6 12 17
0 4 5
0 6 5
2 6 12
0 6 5
0 2 0
0 0 0
0 0 0
0 0 0
0 0 0
0 0 0
0 0 0
0 0 0
0 0 0
0 0 0
0 0 0
0 0 0
0 0 0
0 0 0
0 0 0
0 0 0
0 0 0
0 0 0
1 1 1
1 1 1
1 1 1
1 1 1
1 1 1
1 1 1
1 1 1
1 1 1
1 1 1
1 1 1
1 1 1
1 1 1
1 1 1
1 1 1
1 1 1
1 1 1
1 1 1
1 1 1
1 1 1
1 1 1
0 2 1
0 2 1
0 2 1
0 2 1
0 2 1
0 2 1
0 2 1
0 2 1
0 2 1
0 2 1
0 2 1
0 2 1
0 2 1
0 3 0
0 3 0
0 3 0
0 3 0
0 4 1
0 5 1
0 5 1
0 5 1
0 4 1
0 4 1
0 4 1
0 5 1
1 4 5
0 6 5
0 6 5
2 10 15
2 10 15
14 29 40
47 64 75
71 97 112
82 115 132
85 116 133
79 113 127
79 115 132
77 115 131
77 111 130
76 113 132
77 115 131
77 115 134
77 115 134
77 115 136
77 115 137
77 115 137
77 115 137
76 116 136
75 116 136
74 116 136
74 116 136
74 116 136
74 116 136
74 116 136
74 116 136
74 116 136
74 116 136
74 116 136
74 116 136
74 116 136
74 116 136
74 116 136
74 116 136
74 116 136
74 116 136
74 116 136
74 116 136
74 116 136
74 116 136
74 116 136
74 116 136
74 116 136
74 116 136
74 116 136
74 116 136
73 117 138
74 118 139
73 116 139
75 116 137
78 118 139
78 118 139
78 116 135
79 115 135
83 118 136
89 120 137
89 118 136
71 97 112
47 64 75
14 29 40
0 12 19
0 8 14
1 6 12
0 3 5
0 3 5
4 0 0
4 0 0
4 0 0
4 0 0
3 1 0
3 1 0
3 0 1
3 0 1
1 1 2
0 0 2
0 0 3
0 0 4
0 0 5
0 0 6
0 0 7
1 1 8
0 4 9
0 8 14
2 10 15
12 20 29
47 64 75
81 101 115
93 116 131
90 113 128
88 109 125
95 118 134
90 113 128
81 101 115
81 101 115
93 116 131
81 106 120
47 64 75
14 29 40
2 10 15
1 6 12
0 1 13
2 4 11
2 4 11
1 1 8
1 1 8
1 1 8
1 1 5
2 1 3
2 1 3
2 1 3
2 1 3
2 2 2
2 2 2
1 1 1
1 1 1
0 0 0
0 0 0
0 0 0
0 0 0
0 0 0
0 0 0
0 0 0
0 0 0
0 0 0
0 0 0
0 0 0
0 0 0
0 0 0
0 0 0
0 0 0
0 0 0
1 1 1
1 1 1
1 1 1
1 1 1
1 1 1
1 1 1
1 1 1
1 1 1
1 1 1
1 1 1
1 1 1
1 1 1
1 1 1
1 1 1
1 1 1
1 1 1
1 1 1
2 2 2
2 2 2
2 2 2
2 2 2
2 2 2
2 2 2
2 2 2
2 2 2
2 2 2
2 2 2
2 2 2
2 2 2
2 3 2
3 2 0
0 3 0
1 3 2
1 3 2
0 6 5
5 6 9
6 8 13
5 6 9
3 4 6
2 2 2
2 1 7
1 4 10
4 17 26
31 43 53
79 97 109
95 118 134
88 109 125
71 97 112
77 107 124
85 116 133
82 115 136
79 113 132
76 113 132
75 113 134
76 114 136
76 114 136
74 115 139
74 114 140
74 114 140
76 115 138
76 115 138
76 115 138
76 115 138
77 114 138
77 114 138
76 115 138
75 116 138
74 116 136
74 116 136
74 116 136
74 116 136
74 116 136
74 116 136
74 116 136
74 116 136
74 116 136
74 116 136
74 116 136
74 116 136
74 116 136
74 116 136
74 116 136
74 116 136
74 116 136
74 116 136
74 116 136
74 116 136
74 116 136
74 116 136
74 116 136
74 116 136
74 116 136
74 116 136
74 116 136
74 116 136
74 116 136
74 116 136
74 116 136
75 116 134
77 116 134
79 115 132
89 120 137
97 124 139
81 101 115
39 51 61
0 0 9
0 0 0
2 0 2
3 4 2
0 2 0
0 3 0
0 3 2
0 2 3
0 1 5
0 1 6
0 1 5
0 1 4
0 2 3
0 2 2
0 2 1
0 2 1
0 2 1
0 2 1
0 2 1
0 2 1
0 2 1
0 2 1
0 2 1
0 2 1
0 2 1
0 2 1
0 2 1
0 2 1
0 1 0
0 0 0
0 0 0
0 0 0
0 0 0
0 0 0
0 0 0
0 0 0
0 0 0
0 0 0
0 0 0
0 0 0
0 0 0
0 0 0
0 0 0
0 0 0
0 0 0
0 0 0
0 0 0
0 0 0
0 0 0
0 0 0
0 0 0
0 0 0
0 0 0
0 0 0
0 0 0
0 0 0
0 0 0
0 0 0
0 0 0
0 0 0
0 0 2
1 4 5
0 6 5
0 2 4
0 1 6
6 12 17
24 35 46
47 64 75
81 101 115
93 116 131
89 120 137
83 118 136
82 116 140
82 118 141
77 116 142
75 119 142
75 119 142
75 119 142
77 116 142
78 115 142
78 115 142
78 115 142
78 115 142
78 115 142
78 115 142
78 115 142
78 115 142
78 115 142
78 115 142
78 115 142
78 115 142
78 115 142
78 115 142
78 115 142
78 115 142
78 115 142
78 115 142
78 115 142
78 115 142
78 115 142
78 115 142
78 115 142
78 115 142
78 115 139
78 115 139
78 115 139
78 115 139
78 115 139
78 115 139
78 115 139
78 115 139
78 115 139
78 115 139
78 115 139
78 115 139
78 115 139
78 115 139
78 115 139
78 115 139
78 115 139
78 115 139
78 115 139
78 115 139
78 115 139
78 115 139
78 115 139
78 115 139
78 115 139
78 115 139
78 115 139
78 115 139
78 115 139
78 115 139
78 115 139
78 115 139
78 115 139
78 115 139
78 115 139
78 115 139
78 115 139
78 115 139
78 115 139
78 115 139
78 115 139
78 115 139
78 115 139
78 115 139
78 115 139
78 115 139
78 115 139
78 115 139
78 115 139
78 115 139
78 115 139
78 115 139
78 115 139
78 115 139
78 115 139
78 115 139
78 115 139
78 115 139
77 115 139
77 116 139
77 116 139
78 116 137
79 115 135
82 113 130
85 116 133
90 113 128
79 97 109
53 72 83
23 41 52
6 12 17
0 4 9
0 6 5
2 6 12
0 6 5
0 2 0
0 0 0
0 0 0
0 0 0
0 0 0
0 0 0
0 0 0
0 0 0
0 0 0
0 0 0
0 0 0
0 0 0
0 0 0
0 0 0
0 0 0
0 0 0
0 0 0
0 0 0
1 1 1
1 1 1
1 1 1
1 1 1
1 1 1
1 1 1
1 1 1
1 1 1
1 1 1
1 1 1
1 1 1
1 1 1
1 1 1
1 1 1
1 1 1
1 1 1
1 1 1
1 1 1
1 1 1
1 1 1
0 2 1
0 2 1
0 2 1
0 2 1
0 2 1
0 2 1
0 2 1
0 2 1
0 2 1
0 2 1
0 2 1
0 2 1
0 2 1
1 4 1
1 4 1
1 4 1
1 4 1
0 5 1
0 5 1
0 5 1
0 5 1
0 5 1
0 4 5
0 4 5
0 4 5
0 6 5
0 6 5
0 2 1
0 6 5
4 17 26
31 51 61
55 79 91
79 113 127
89 120 137
86 122 140
82 115 132
77 115 131
77 115 131
77 115 131
76 113 132
77 115 134
77 115 134
77 115 134
77 115 137
77 114 138
77 114 138
77 115 137
76 116 136
75 116 136
74 116 136
74 116 136
74 116 136
74 116 136
74 116 136
74 116 136
74 116 136
74 116 136
74 116 136
74 116 136
74 116 136
74 116 136
74 116 136
74 116 136
74 116 136
74 116 136
74 116 136
74 116 136
74 116 136
74 116 136
74 116 136
74 116 136
74 116 136
74 116 136
74 116 136
74 116 136
73 117 138
72 117 138
72 117 138
74 116 136
78 118 139
78 118 139
76 113 132
77 111 130
89 120 137
97 124 139
91 117 133
71 97 112
39 51 61
4 17 26
0 4 12
0 4 9
2 6 12
0 4 9
0 6 5
4 0 0
4 0 0
3 1 0
3 1 0
3 1 0
3 1 0
3 2 1
2 0 0
0 0 1
0 0 1
0 0 3
0 0 6
0 0 6
0 0 7
0 2 9
2 4 11
0 0 6
0 2 9
4 17 26
31 51 61
70 92 106
93 116 131
97 121 136
93 116 131
88 109 125
90 113 128
88 109 125
81 101 115
81 106 120
90 113 128
90 113 128
79 97 109
47 64 75
14 29 40
0 1 10
0 0 9
6 8 13
2 6 12
0 1 10
0 4 9
0 4 9
0 3 5
1 1 5
2 1 3
2 1 3
2 1 3
2 2 2
2 2 2
1 1 1
1 1 1
0 0 0
0 0 0
0 0 0
0 0 0
0 0 0
0 0 0
0 0 0
0 0 0
0 0 0
0 0 0
0 0 0
0 0 0
0 0 0
0 0 0
0 0 0
0 0 0
1 1 1
1 1 1
1 1 1
1 1 1
1 1 1
1 1 1
1 1 1
1 1 1
1 1 1
1 1 1
1 1 1
1 1 1
1 1 1
1 1 1
1 1 1
1 1 1
1 1 1
1 1 1
1 1 1
1 1 1
1 1 1
1 1 1
1 1 1
1 1 1
1 1 1
2 1 1
2 2 2
2 2 2
2 2 2
2 1 1
3 2 0
3 2 0
2 3 2
1 4 1
2 3 2
2 3 2
3 4 6
5 6 9
6 12 17
6 12 17
5 6 9
0 1 3
0 3 5
12 20 29
39 51 61
70 92 106
93 116 131
95 118 134
84 109 126
81 101 115
77 107 124
79 114 134
76 114 136
72 113 134
72 113 134
74 115 139
74 114 140
74 114 140
74 114 140
77 115 137
77 116 138
76 115 138
76 115 138
77 114 138
77 114 138
77 114 138
76 115 138
75 116 136
75 116 136
74 116 136
74 116 136
74 116 136
74 116 136
74 116 136
74 116 136
74 116 136
74 116 136
74 116 136
74 116 136
74 116 136
74 116 136
74 116 136
74 116 136
74 116 136
74 116 136
74 116 136
74 116 136
74 116 136
74 116 136
74 116 136
74 116 136
74 116 136
74 116 136
74 116 136
74 116 136
74 116 136
74 116 136
74 116 136
75 116 134
77 116 134
79 114 134
89 120 137
97 124 139
81 101 115
39 51 61
0 0 9
0 0 0
2 0 2
3 4 2
0 2 0
0 3 0
0 3 0
0 2 2
0 1 5
0 1 6
0 1 5
0 1 4
0 2 3
0 2 2
0 2 1
0 2 1
0 2 1
0 2 1
0 2 1
0 2 1
0 2 1
0 2 1
0 2 1
0 2 1
0 2 1
0 2 1
0 2 1
0 2 1
0 1 0
0 0 0
0 0 0
0 0 0
0 0 0
0 0 0
0 0 0
0 0 0
0 0 0
0 0 0
0 0 0
0 0 0
0 0 0
0 0 0
0 0 0
0 0 0
0 0 0
0 0 0
0 0 0
0 0 0
0 0 0
0 0 0
0 0 0
0 0 0
0 0 0
0 0 0
0 0 0
0 0 0
0 0 0
0 0 0
0 0 0
0 0 0
0 0 2
0 2 4
1 4 5
0 2 4
0 1 6
6 12 17
24 35 46
47 64 75
81 101 115
91 117 133
89 120 137
83 118 136
82 116 140
82 118 141
77 116 142
75 119 142
75 119 142
75 118 142
75 118 142
77 116 142
77 116 142
78 115 142
78 115 142
78 115 142
78 115 142
78 115 142
78 115 142
78 115 142
78 115 142
78 115 142
78 115 142
78 115 142
78 115 142
78 115 142
78 115 142
78 115 142
78 115 142
78 115 142
78 115 142
78 115 142
78 115 142
78 115 142
78 115 142
80 115 140
80 115 140
80 115 140
80 115 140
80 115 140
80 115 140
78 115 139
78 115 139
78 115 139
78 115 139
78 115 139
78 115 139
78 115 139
78 115 139
78 115 139
78 115 139
78 115 139
78 115 139
78 115 139
78 115 139
78 115 139
78 115 139
78 115 139
78 115 139
78 115 139
78 115 139
78 115 139
78 115 139
80 115 140
80 115 140
80 115 140
80 115 140
80 115 140
80 115 140
80 115 140
80 115 140
80 115 140
80 115 140
80 115 140
80 115 140
80 115 140
80 115 140
80 115 140
80 115 140
80 115 140
80 115 140
80 115 140
80 115 140
80 115 140
80 115 140
80 115 140
80 115 140
80 115 140
80 115 140
80 115 140
80 115 140
78 115 139
78 115 139
77 115 139
77 116 139
75 117 139
77 117 137
77 115 134
82 113 130
85 116 133
90 116 132
81 101 115
53 72 83
23 41 52
6 12 17
0 4 9
0 6 5
2 6 12
0 6 5
0 2 0
0 0 0
0 0 0
0 0 0
0 0 0
0 0 0
0 0 0
0 0 0
0 0 0
0 0 0
0 0 0
0 0 0
0 0 0
0 0 0
0 0 0
0 0 0
0 0 0
0 0 0
1 1 1
1 1 1
1 1 1
1 1 1
1 1 1
1 1 1
1 1 1
1 1 1
1 1 1
1 1 1
1 1 1
1 1 1
1 1 1
1 1 1
1 1 1
1 1 1
1 1 1
1 1 1
1 1 1
1 1 1
0 2 1
0 2 1
0 2 1
0 2 1
0 2 1
0 2 1
0 2 1
0 2 1
0 2 1
0 2 1
0 2 1
0 2 1
0 2 1
1 4 1
1 4 1
0 4 1
0 4 1
0 5 1
0 5 1
0 5 1
0 5 1
0 6 5
0 6 5
0 6 5
0 6 5
2 6 12
0 6 5
0 0 0
0 0 1
24 35 46
55 79 91
77 107 124
79 113 127
75 117 131
83 118 136
77 117 133
77 117 133
77 115 131
77 115 131
77 115 134
77 115 134
77 115 136
76 114 136
77 114 138
77 114 138
77 114 138
77 115 137
76 116 136
75 116 136
74 116 136
74 116 136
74 116 136
74 116 136
74 116 136
74 116 136
74 116 136
74 116 136
74 116 136
74 116 136
74 116 136
73 117 136
73 117 136
74 116 136
75 118 137
75 118 137
74 116 136
73 115 135
73 115 135
73 115 135
74 116 136
74 116 136
74 116 136
74 116 136
74 116 136
74 116 136
73 117 138
73 117 136
73 115 135
75 116 136
78 118 139
78 117 135
77 111 130
77 107 124
85 116 133
99 127 141
93 121 136
70 92 106
31 51 61
0 12 19
0 0 3
0 3 5
2 6 12
0 4 9
0 4 9
4 0 0
4 0 0
3 1 0
3 1 0
3 1 0
3 1 0
2 1 0
1 1 1
1 1 5
0 1 6
0 1 6
0 0 6
0 0 7
0 0 9
0 0 9
0 2 9
2 4 11
4 17 26
31 51 61
68 87 100
81 106 120
90 113 128
90 113 128
93 116 131
83 113 128
81 106 120
81 106 120
81 106 120
84 109 126
81 106 120
90 113 128
95 118 134
81 101 115
39 51 61
4 17 26
0 1 13
0 4 16
0 4 12
0 1 10
0 4 9
0 3 5
0 3 5
0 1 6
1 1 5
2 1 3
2 1 3
2 2 2
2 2 2
1 1 1
1 1 1
0 0 0
0 0 0
0 0 0
0 0 0
0 0 0
0 0 0
0 0 0
0 0 0
0 0 0
0 0 0
0 0 0
0 0 0
0 0 0
0 0 0
0 0 0
0 0 0
1 1 1
1 1 1
1 1 1
1 1 1
1 1 1
1 1 1
1 1 1
1 1 1
1 1 1
1 1 1
1 1 1
1 1 1
1 1 1
1 1 1
1 1 1
1 1 1
1 1 1
1 1 1
1 1 1
1 1 1
1 1 1
1 1 1
1 1 1
1 1 1
1 1 1
2 1 1
2 2 2
2 2 2
2 2 2
2 1 1
3 2 0
3 2 0
3 2 0
3 2 0
1 2 0
0 0 0
0 0 0
5 6 9
12 20 29
12 20 29
5 6 9
0 0 0
0 0 0
2 6 12
12 20 29
47 64 75
81 101 115
99 127 141
90 113 128
71 97 112
71 97 112
79 113 132
78 115 139
74 115 139
74 114 140
74 114 140
74 114 140
76 115 140
76 115 140
76 115 138
77 116 138
77 114 138
77 114 138
77 114 138
77 114 138
77 114 138
77 114 138
76 116 136
76 116 136
74 116 136
74 116 136
74 116 136
74 116 136
74 116 136
74 116 136
74 116 136
74 116 136
74 116 136
74 116 136
74 116 136
74 116 136
74 116 136
74 116 136
74 116 136
74 116 136
74 116 136
74 116 136
74 116 136
74 116 136
74 116 136
74 116 136
74 116 136
74 116 136
74 116 136
74 116 136
74 116 136
74 116 136
74 116 136
75 116 134
77 116 134
79 114 134
89 120 137
97 124 139
81 101 115
39 51 61
0 0 7
0 0 0
2 0 2
3 4 2
0 2 0
0 3 0
0 3 0
0 2 2
0 1 5
0 1 6
0 1 5
0 1 4
0 2 3
0 2 2
0 2 1
0 2 1
0 2 1
0 2 1
0 2 1
0 2 1
0 2 1
0 2 1
0 2 1
0 2 1
0 2 1
0 2 1
0 2 1
0 2 1
0 1 0
0 0 0
0 0 0
0 0 0
0 0 0
0 0 0
0 0 0
0 0 0
0 0 0
0 0 0
0 0 0
0 0 0
0 0 0
0 0 0
0 0 0
0 0 0
0 0 0
0 0 0
0 0 0
0 0 0
0 0 0
0 0 0
0 0 0
0 0 0
0 0 0
0 0 0
0 0 0
0 0 0
0 0 0
0 0 0
0 0 0
0 0 0
0 0 2
0 2 4
1 4 5
0 2 4
0 1 6
6 12 17
24 35 46
47 64 75
81 101 115
91 117 133
89 120 137
83 118 136
82 116 140
82 118 141
77 116 142
75 119 142
75 119 142
75 118 142
75 118 142
77 116 142
77 116 142
77 116 142
77 116 142
77 116 142
77 116 142
77 116 142
77 116 142
78 115 142
78 115 142
78 115 142
78 115 142
78 115 142
78 115 142
78 115 142
78 115 142
78 115 142
78 115 142
78 115 142
78 115 142
78 115 142
78 115 142
78 115 142
78 115 142
80 115 140
80 115 140
80 115 140
80 115 140
80 115 140
80 115 140
78 115 139
78 115 139
78 115 139
78 115 139
78 115 139
78 115 139
78 115 139
78 115 139
78 115 139
78 115 139
78 115 139
78 115 139
78 115 139
78 115 139
78 115 139
78 115 139
78 115 139
78 115 139
78 115 139
78 115 139
78 115 139
78 115 139
80 115 140
80 115 140
80 115 140
80 115 140
80 115 140
80 115 140
80 115 140
80 115 140
80 115 140
80 115 140
80 115 140
80 115 140
80 115 140
80 115 140
80 115 140
80 115 140
80 115 140
80 115 140
80 115 140
80 115 140
80 115 140
80 115 140
80 115 140
80 115 140
80 115 140
80 115 140
80 115 140
80 115 140
78 115 139
78 115 139
77 115 139
77 116 139
75 117 139
77 117 137
77 115 134
82 113 130
85 116 133
90 116 132
81 101 115
53 72 83
23 41 52
6 12 17
0 4 9
0 6 5
2 6 12
1 4 1
0 2 0
0 0 0
0 0 0
0 0 0
0 0 0
0 0 0
0 0 0
0 0 0
0 0 0
0 0 0
0 0 0
0 0 0
0 0 0
0 0 0
0 0 0
0 0 0
0 0 0
0 0 0
1 1 1
1 1 1
1 1 1
1 1 1
1 1 1
1 1 1
1 1 1
1 1 1
1 1 1
1 1 1
1 1 1
1 1 1
1 1 1
1 1 1
1 1 1
1 1 1
1 1 1
1 1 1
1 1 1
1 1 1
0 2 1
0 2 1
0 2 1
0 2 1
0 2 1
0 2 1
0 2 1
0 2 1
0 2 1
0 2 1
0 2 1
0 2 1
0 2 1
1 4 1
1 4 1
0 4 1
0 4 1
0 5 1
0 5 1
0 5 1
0 6 5
0 6 5
0 6 5
0 4 5
0 4 5
1 6 12
1 6 12
1 4 5
6 12 17
39 51 61
81 106 120
83 118 136
79 113 127
79 113 127
77 117 133
77 117 133
77 117 133
77 117 133
77 116 134
78 116 135
77 115 136
77 115 136
77 115 137
77 114 138
77 114 138
77 114 138
77 115 137
76 116 136
75 116 136
74 116 136
74 116 136
74 116 136
74 116 136
74 116 136
74 116 136
74 116 136
74 116 136
74 116 136
74 116 136
74 116 136
74 116 136
74 116 136
74 116 136
74 116 136
74 116 136
74 116 136
74 116 136
75 116 137
74 116 136
74 116 136
74 116 136
74 116 136
74 116 136
74 116 136
74 116 136
74 116 136
74 116 136
74 116 136
76 116 136
82 117 137
83 118 136
77 115 131
77 111 130
89 120 137
97 124 139
83 113 128
55 79 91
23 41 52
2 10 15
0 1 1
0 3 5
2 6 12
0 4 9
0 4 9
4 2 0
4 2 0
4 2 0
4 2 0
3 2 0
2 1 0
1 1 0
1 4 5
6 8 13
6 12 17
5 6 9
0 0 4
0 2 9
2 6 12
0 0 7
0 1 10
14 29 40
47 64 75
70 92 106
81 106 120
83 113 128
83 113 128
83 113 128
83 113 128
83 113 128
79 113 127
79 113 127
83 113 128
83 113 128
77 107 124
83 113 128
93 121 136
90 113 128
68 87 100
39 51 61
12 20 29
0 1 13
0 0 9
2 4 11
0 4 9
0 1 3
0 2 4
0 3 5
1 1 8
1 2 3
2 3 2
2 2 2
2 2 2
1 1 1
1 1 1
1 0 0
1 0 0
1 0 0
1 0 0
0 0 0
0 0 0
0 0 0
0 0 0
0 0 0
0 0 0
0 0 0
0 0 0
0 0 0
0 0 0
0 0 0
0 0 0
1 1 1
1 1 1
1 1 1
1 1 1
1 1 1
1 1 1
1 1 1
1 1 1
1 1 1
1 1 1
1 1 1
1 1 1
1 1 1
1 1 1
1 1 1
1 1 1
1 1 1
1 1 1
1 1 1
1 1 1
1 1 1
1 1 1
1 1 1
1 1 1
1 1 1
1 1 1
1 1 1
1 1 1
1 1 1
1 1 1
1 2 1
2 1 1
1 2 0
1 1 0
0 0 0
0 0 0
0 0 0
1 4 5
6 8 13
6 12 17
0 6 5
0 2 1
0 0 0
0 0 3
2 10 15
24 35 46
53 72 83
81 101 115
88 109 125
81 101 115
81 101 115
70 105 125
78 115 142
87 124 142
77 116 142
71 110 131
74 114 140
82 118 141
82 118 141
78 115 142
77 114 140
77 114 140
80 115 140
78 115 139
78 115 139
78 115 139
77 114 138
77 116 137
76 116 136
74 116 136
74 116 136
74 116 136
74 116 136
74 116 136
74 116 136
74 116 136
74 116 136
74 116 136
74 116 136
74 116 136
74 116 136
74 116 136
74 116 136
74 116 136
74 116 136
74 116 136
74 116 136
74 116 136
74 116 136
74 116 136
74 116 136
74 116 136
74 116 136
74 116 136
74 116 136
74 116 136
74 116 136
74 116 136
75 116 134
77 116 134
79 113 132
89 120 137
97 124 139
81 101 115
39 51 61
0 0 7
0 0 0
2 0 1
3 4 2
0 3 0
0 3 0
0 3 0
0 3 2
0 2 4
0 1 5
0 1 5
0 1 5
0 2 3
0 2 3
0 2 2
0 2 2
0 2 2
0 2 2
0 2 2
0 2 2
0 2 2
0 2 2
0 2 2
0 2 2
0 2 2
0 2 2
0 2 2
0 2 2
0 1 1
0 0 0
0 0 0
0 0 0
0 0 0
0 0 0
0 0 0
0 0 0
0 0 0
0 0 0
0 0 0
0 0 0
0 0 0
0 0 0
0 0 0
0 0 0
0 0 0
0 0 0
0 0 0
0 0 0
0 0 0
0 0 0
0 0 0
0 0 0
0 0 0
0 0 0
0 0 0
0 0 0
0 0 0
0 0 0
0 0 0
0 0 0
0 0 2
0 2 4
1 4 5
0 2 4
0 1 6
6 12 17
24 35 46
47 64 75
81 101 115
91 117 133
89 118 136
82 115 136
82 116 140
80 117 140
77 116 142
77 116 142
75 118 142
75 118 142
75 118 142
77 116 142
77 116 142
77 116 142
77 116 142
77 116 142
77 116 142
75 116 141
75 116 141
77 116 142
77 116 142
77 116 142
77 116 142
77 116 142
77 116 142
77 116 142
77 116 142
77 114 140
77 114 140
77 114 140
77 114 140
77 114 140
77 114 140
77 114 140
77 114 140
78 115 139
79 114 138
79 114 138
79 114 138
79 114 138
79 114 138
79 114 138
77 116 138
77 116 138
77 116 138
77 116 138
77 116 138
76 115 138
75 116 138
75 116 138
75 116 138
75 116 138
77 116 138
77 116 138
77 116 138
77 116 138
77 116 138
77 116 138
77 116 138
77 116 138
77 116 138
77 116 138
79 114 138
79 114 138
79 114 138
79 114 138
79 114 138
79 114 138
79 114 138
79 114 138
79 114 138
79 114 138
79 114 138
79 114 138
79 114 138
79 114 138
79 114 138
79 114 138
79 114 138
79 114 138
79 114 138
79 114 138
79 114 138
79 114 138
79 114 138
79 114 138
79 114 138
79 114 138
79 114 138
79 114 138
79 114 138
79 114 138
77 114 138
77 115 139
77 116 139
77 117 139
77 117 137
78 115 132
82 113 130
85 116 133
90 116 132
81 101 115
53 72 83
23 41 52
6 12 17
0 4 9
0 6 5
2 6 12
1 4 1
0 2 0
0 1 0
0 1 0
0 0 0
0 0 0
0 0 0
0 0 0
0 0 0
0 0 0
0 0 0
0 0 0
0 0 0
0 0 0
0 0 0
0 0 0
0 0 0
0 0 0
0 0 0
1 1 1
1 1 1
1 1 1
1 1 1
1 1 1
1 1 1
1 1 1
1 1 1
1 1 1
1 1 1
1 1 1
1 1 1
0 2 1
0 2 1
0 2 1
0 2 1
0 2 1
0 2 1
0 2 1
0 2 1
0 2 1
0 2 1
0 2 1
0 2 1
0 2 1
0 2 1
0 2 1
0 2 1
0 3 2
0 3 0
0 3 0
0 3 0
0 3 0
0 4 1
0 4 1
0 4 1
0 4 1
0 5 1
0 6 5
0 6 5
0 6 5
0 4 5
0 3 5
0 2 4
0 3 5
0 8 14
4 17 26
23 29 39
39 51 61
68 87 100
83 113 128
83 118 136
79 113 127
79 113 127
77 117 133
78 117 135
78 117 135
78 117 135
78 117 135
78 117 135
77 116 137
77 116 137
78 115 139
78 115 139
78 115 139
78 115 139
77 116 138
77 117 137
76 117 136
76 117 136
76 117 136
76 117 136
76 117 136
76 117 136
76 117 136
76 117 136
76 117 136
76 117 136
76 117 136
76 117 136
77 117 137
77 117 137
73 115 135
72 113 134
72 113 134
73 117 136
75 118 138
78 118 139
78 118 139
75 118 138
73 118 135
75 118 137
75 118 137
73 117 136
73 117 136
75 118 137
76 117 136
76 115 135
77 116 137
83 118 136
86 122 140
89 120 137
89 120 137
96 123 138
90 116 132
68 87 100
31 51 61
12 20 29
2 6 12
1 4 5
0 4 5
1 6 12
0 6 5
0 6 5
4 2 0
4 2 0
4 2 0
4 2 0
3 2 0
0 3 0
0 1 0
3 4 6
6 12 17
12 20 29
6 12 17
0 1 6
0 0 9
0 4 12
0 1 13
4 17 26
47 64 75
84 109 126
96 123 138
83 113 128
77 107 124
79 113 127
79 113 127
79 113 127
79 113 127
82 113 130
82 113 130
83 113 128
83 113 128
82 113 130
83 113 128
83 113 128
83 113 128
88 109 125
70 92 106
31 51 61
4 17 26
0 0 12
0 1 10
0 0 4
0 0 1
0 2 4
0 4 9
0 4 9
1 4 5
2 3 2
2 2 2
2 2 2
1 1 1
1 1 1
2 0 0
2 0 0
2 0 0
2 0 0
0 0 0
0 0 0
0 0 0
0 0 0
0 0 0
0 0 0
0 0 0
0 0 0
0 0 0
0 0 0
0 0 0
0 0 0
1 1 1
1 1 1
1 1 1
1 1 1
1 1 1
1 1 1
1 1 1
1 1 1
1 1 1
1 1 1
1 1 1
1 1 1
1 1 1
1 1 1
1 1 1
1 1 1
1 1 1
1 1 1
1 1 1
1 1 1
1 1 1
1 1 1
1 1 1
1 1 1
1 1 1
1 1 1
1 1 1
1 1 1
1 1 1
1 1 1
1 1 1
1 1 1
1 1 1
1 0 0
0 0 0
0 1 1
1 3 2
1 3 2
0 2 1
0 3 2
0 4 5
0 3 2
0 1 3
0 0 3
2 6 12
12 20 29
31 43 53
47 64 75
79 97 109
88 109 125
88 109 125
77 111 130
78 115 142
82 118 141
77 116 142
72 113 134
77 116 142
87 124 142
87 124 142
78 115 142
77 113 139
80 115 140
80 115 140
80 115 140
80 115 140
78 115 139
77 116 138
77 116 137
75 116 136
74 116 136
74 116 136
74 116 136
74 116 136
74 116 136
74 116 136
74 116 136
74 116 136
74 116 136
74 116 136
74 116 136
74 116 136
74 116 136
74 116 136
74 116 136
74 116 136
74 116 136
74 116 136
74 116 136
74 116 136
74 116 136
74 116 136
74 116 136
74 116 136
74 116 136
74 116 136
74 116 136
74 116 136
74 116 136
75 116 134
77 116 134
79 115 132
89 120 137
97 124 139
81 101 115
39 51 61
0 0 7
0 0 0
2 0 0
3 4 2
0 3 0
0 3 0
0 3 0
0 3 2
0 2 3
0 1 4
0 1 5
0 1 5
0 2 3
0 2 3
0 2 3
0 2 3
0 2 3
0 2 3
0 2 3
0 2 3
0 2 3
0 2 3
0 2 3
0 2 3
0 2 3
0 2 3
0 2 3
0 2 3
0 1 1
0 0 0
0 0 0
0 0 0
0 0 0
0 0 0
0 0 0
0 0 0
0 0 0
0 0 0
0 0 0
0 0 0
0 0 0
0 0 0
0 0 0
0 0 0
0 0 0
0 0 0
0 0 0
0 0 0
0 0 0
0 0 0
0 0 0
0 0 0
0 0 0
0 0 0
0 0 0
0 0 0
0 0 0
0 0 0
0 0 0
0 0 0
0 0 2
0 2 4
1 4 5
0 2 4
0 1 6
6 12 17
24 35 46
47 64 75
81 101 115
93 116 131
89 118 136
83 113 135
82 116 140
80 115 140
77 116 142
77 116 142
75 118 142
75 118 142
77 116 142
77 116 142
77 116 142
76 115 140
76 115 140
76 115 140
76 115 140
76 115 140
76 115 140
76 115 140
76 115 140
76 115 140
76 115 140
76 115 140
76 115 140
76 115 140
76 115 140
77 114 140
77 114 140
77 114 140
77 114 140
77 114 140
77 114 140
77 114 140
77 114 140
77 114 140
77 114 138
77 114 138
77 114 138
77 114 138
77 114 138
77 114 138
76 115 138
76 115 138
76 115 138
76 115 138
76 115 138
75 116 138
74 116 138
74 116 138
74 116 138
75 116 138
76 115 138
76 115 138
76 115 138
76 115 138
76 115 138
76 115 138
76 115 138
76 115 138
76 115 138
76 115 138
77 114 138
77 114 138
77 114 138
77 114 138
77 114 138
77 114 138
77 114 138
77 114 138
77 114 138
77 114 138
77 114 138
77 114 138
77 114 138
77 114 138
77 114 138
77 114 138
77 114 138
77 114 138
77 114 138
77 114 138
77 114 138
77 114 138
77 114 138
77 114 138
77 114 138
77 114 138
77 114 138
77 114 138
77 114 138
77 114 138
77 114 138
77 115 139
77 116 139
77 117 139
77 117 137
78 115 132
82 113 130
85 116 133
90 116 132
81 101 115
53 72 83
23 41 52
6 12 17
0 4 9
0 6 5
2 6 12
1 4 1
0 2 0
0 1 0
0 1 0
0 0 0
0 0 0
0 0 0
0 0 0
0 0 0
0 0 0
0 0 0
0 0 0
0 0 0
0 0 0
0 0 0
0 0 0
0 0 0
0 0 0
0 0 0
1 1 1
1 1 1
1 1 1
1 1 1
1 1 1
1 1 1
1 1 1
1 1 1
1 1 1
1 1 1
1 1 1
1 1 1
0 2 1
0 2 1
0 2 1
0 2 1
0 2 1
0 2 1
0 2 1
0 2 1
0 2 1
0 2 1
0 2 1
0 2 1
0 2 1
0 2 1
0 2 1
0 2 1
0 3 2
1 4 1
1 4 1
1 4 1
1 4 1
0 4 1
0 4 1
0 4 1
0 4 1
0 5 1
0 6 5
0 6 5
0 6 5
0 4 5
0 1 1
0 0 3
0 4 9
4 17 26
24 35 46
53 72 83
71 97 112
84 109 126
83 113 128
79 113 127
77 115 131
77 115 131
77 117 133
77 117 133
77 117 135
77 117 135
77 117 135
77 117 135
77 117 135
77 117 139
78 115 139
78 115 139
78 115 139
78 115 139
77 116 138
77 117 137
77 117 137
77 117 137
77 117 137
77 117 137
77 117 137
77 117 137
77 117 137
77 117 137
77 117 137
77 117 137
77 117 137
77 117 137
78 118 139
78 118 139
73 115 135
71 110 131
72 113 134
73 117 136
78 118 139
82 120 140
82 120 140
75 118 138
73 118 135
75 118 137
75 118 137
75 118 137
75 118 137
75 118 137
77 117 137
77 116 134
78 116 135
83 118 136
86 122 140
97 124 139
97 124 139
96 123 138
81 106 120
47 64 75
14 29 40
0 8 14
1 6 12
2 6 12
0 4 9
0 4 9
0 6 5
0 6 5
4 2 0
4 2 0
3 2 0
3 2 0
3 2 0
1 3 2
0 3 2
1 4 5
5 6 9
6 8 13
6 12 17
2 10 15
0 0 9
0 0 9
12 20 29
39 51 61
70 92 106
89 118 136
93 121 136
82 115 132
79 113 127
79 113 127
77 115 131
77 115 131
79 115 132
79 115 132
79 115 132
82 115 132
82 115 132
82 115 132
82 115 132
82 113 130
83 113 128
90 113 128
81 106 120
68 87 100
31 51 61
12 20 29
0 0 9
0 0 2
0 1 6
1 4 10
0 4 9
0 4 9
0 3 5
1 4 5
2 3 2
2 2 2
1 1 1
0 0 0
1 0 0
2 0 0
2 0 0
2 0 0
1 0 0
0 0 0
0 0 0
0 0 0
0 0 0
0 0 0
0 0 0
0 0 0
0 0 0
0 0 0
0 0 0
0 0 0
1 1 1
1 1 1
1 1 1
1 1 1
1 1 1
1 1 1
1 1 1
1 1 1
1 1 1
1 1 1
1 1 1
1 1 1
1 1 1
1 1 1
1 1 1
1 1 1
1 1 1
0 0 0
0 0 0
0 0 0
0 0 0
0 0 0
0 0 0
0 0 0
0 0 0
1 1 1
1 1 1
1 1 1
1 1 1
1 1 1
1 1 1
1 1 1
1 1 1
1 0 1
1 1 1
1 1 2
2 3 2
1 1 2
0 1 0
0 1 0
0 3 2
1 3 2
0 2 4
1 0 3
0 3 5
5 6 9
12 20 29
24 35 46
47 64 75
79 97 109
97 121 136
97 124 139
76 113 137
70 105 125
72 113 134
87 124 142
87 124 142
78 115 139
77 113 139
80 115 140
80 115 140
80 115 140
80 115 140
80 115 140
80 115 140
78 115 139
77 116 138
77 116 137
75 116 136
74 116 136
74 116 136
74 116 136
74 116 136
74 116 136
74 116 136
74 116 136
74 116 136
74 116 136
74 116 136
74 116 136
74 116 136
74 116 136
74 116 136
74 116 136
74 116 136
74 116 136
74 116 136
74 116 136
74 116 136
74 116 136
74 116 136
74 116 136
74 116 136
74 116 136
74 116 136
74 116 136
74 116 136
74 116 136
75 116 134
77 116 134
79 115 132
89 120 137
96 123 138
81 101 115
39 51 61
0 0 6
0 0 0
2 0 0
3 4 2
0 3 0
0 4 1
0 4 1
0 3 2
0 2 3
0 1 4
0 1 5
0 1 5
0 2 3
0 2 3
0 2 3
0 2 3
0 2 3
0 2 3
0 2 3
0 2 3
0 2 3
0 2 3
0 2 3
0 2 3
0 2 3
0 2 3
0 2 3
0 2 3
0 1 1
0 0 0
0 0 0
0 0 0
0 0 0
0 0 0
0 0 0
0 0 0
0 0 0
0 0 0
0 0 0
0 0 0
0 0 0
0 0 0
0 0 0
0 0 0
0 0 0
0 0 0
0 0 0
0 0 0
0 0 0
0 0 0
0 0 0
0 0 0
0 0 0
0 0 0
0 0 0
0 0 0
0 0 0
0 0 0
0 0 0
0 0 0
0 0 2
0 2 4
1 4 5
0 2 4
0 1 6
6 12 17
24 35 46
47 64 75
81 101 115
93 116 131
91 117 133
83 113 135
82 116 140
80 115 140
78 115 142
78 115 142
77 116 142
77 116 142
77 116 142
77 116 142
76 115 140
74 114 140
74 114 140
74 114 140
74 114 140
74 114 140
74 114 140
76 115 140
76 115 140
76 115 140
76 115 140
76 115 140
76 115 140
76 115 140
76 115 140
77 114 140
77 114 140
77 114 140
77 114 140
77 114 140
77 114 140
77 114 140
77 114 140
77 114 140
77 114 138
77 114 138
77 114 138
76 115 138
76 115 138
76 115 138
76 115 138
75 116 138
75 116 138
75 116 138
75 116 138
74 116 138
72 117 138
72 117 138
72 117 138
73 117 138
75 116 138
75 116 138
75 116 138
75 116 138
75 116 138
75 116 138
75 116 138
75 116 138
75 116 138
76 115 138
76 115 138
76 115 138
76 115 138
76 115 138
76 115 138
76 115 138
76 115 138
77 114 138
77 114 138
77 114 138
77 114 138
77 114 138
77 114 138
77 114 138
77 114 138
77 114 138
77 114 138
77 114 138
77 114 138
77 114 138
77 114 138
77 114 138
77 114 138
77 114 138
77 114 138
77 114 138
77 114 138
77 114 138
77 114 138
77 114 138
77 114 138
77 115 139
77 116 139
77 116 139
78 116 137
79 115 132
82 113 130
85 116 133
90 116 132
81 101 115
53 72 83
23 41 52
6 12 17
0 4 9
0 6 5
2 6 12
1 4 1
0 2 0
0 1 0
0 1 0
0 0 0
0 0 0
0 0 0
0 0 0
0 0 0
0 0 0
0 0 0
0 0 0
0 0 0
0 0 0
0 0 0
0 0 0
0 0 0
0 0 0
0 0 0
1 1 1
1 1 1
1 1 1
1 1 1
1 1 1
1 1 1
1 1 1
1 1 1
1 1 1
1 1 1
1 1 1
1 1 1
0 2 1
0 2 1
0 2 1
0 2 1
0 2 1
0 2 1
0 2 1
0 2 1
0 2 1
0 2 1
0 2 1
0 2 1
0 2 1
0 2 1
0 2 1
0 2 1
0 3 2
1 4 1
1 4 1
1 4 1
1 4 1
0 4 1
0 4 1
0 4 1
0 4 1
0 5 1
0 6 5
0 6 5
0 4 9
1 4 5
0 3 5
0 4 9
0 12 19
14 29 40
47 64 75
70 92 106
90 116 132
93 121 136
83 113 128
79 113 127
79 115 132
77 117 133
77 117 133
76 117 136
76 117 136
76 117 136
77 117 135
77 117 135
77 117 135
77 117 137
78 116 138
78 115 139
78 115 139
78 115 139
77 116 138
77 117 137
77 117 137
77 117 137
77 117 137
77 117 137
77 117 137
77 117 137
77 117 137
77 117 137
77 117 137
77 117 137
77 117 137
77 117 137
78 118 139
78 118 139
75 116 136
73 115 135
73 117 136
75 118 138
82 120 140
82 120 140
78 118 139
74 117 135
73 115 135
73 118 135
75 118 137
75 118 137
75 118 137
77 117 137
78 117 135
78 117 135
79 115 135
79 113 132
85 116 133
89 120 137
93 121 136
90 113 128
70 92 106
31 51 61
4 17 26
0 6 13
1 6 12
2 6 12
0 6 5
0 6 5
0 4 5
0 4 5
4 2 0
4 2 0
3 2 0
3 2 0
1 3 2
1 3 2
0 4 5
0 3 5
0 0 2
0 1 5
2 10 15
0 12 19
0 4 16
0 12 19
39 51 61
70 92 106
90 113 128
83 113 128
79 113 127
79 113 127
79 113 127
79 115 132
79 115 132
79 115 132
79 115 132
79 115 132
79 115 132
79 115 132
79 115 132
82 115 132
82 115 132
82 115 132
82 115 132
84 109 126
81 106 120
81 106 120
68 87 100
31 51 61
0 12 19
0 2 9
0 4 12
2 4 11
0 4 9
0 4 9
0 3 5
0 3 5
1 4 5
1 2 3
1 1 1
0 0 0
0 0 0
1 0 0
2 0 0
2 0 0
1 0 0
0 0 0
0 0 0
0 0 0
0 0 0
0 0 0
0 0 0
0 0 0
0 0 0
0 0 0
0 0 0
0 0 0
1 1 1
1 1 1
1 1 1
1 1 1
1 1 1
1 1 1
1 1 1
1 1 1
1 1 1
1 1 1
1 1 1
1 1 1
1 1 1
1 1 1
1 1 1
1 1 1
1 1 1
0 0 0
0 0 0
0 0 0
0 0 0
0 0 0
0 0 0
0 0 0
0 0 0
1 1 1
1 1 1
1 1 1
1 1 1
1 1 1
1 1 1
1 1 1
1 1 1
1 1 1
2 2 2
2 2 2
2 2 2
2 2 2
1 3 2
1 3 2
1 3 2
1 1 2
1 1 2
0 0 2
0 2 3
1 4 5
6 8 13
12 20 29
31 43 53
53 72 83
93 116 131
99 127 141
76 112 136
70 92 106
71 110 131
87 124 142
87 124 142
71 110 131
71 110 131
79 114 138
82 116 140
80 115 140
80 115 140
80 115 140
80 115 140
78 115 139
77 116 138
77 116 137
75 116 136
74 116 136
74 116 136
74 116 136
74 116 136
74 116 136
74 116 136
74 116 136
74 116 136
74 116 136
74 116 136
74 116 136
74 116 136
74 116 136
74 116 136
74 116 136
74 116 136
74 116 136
74 116 136
74 116 136
74 116 136
74 116 136
74 116 136
74 116 136
74 116 136
74 116 136
74 116 136
74 116 136
74 116 136
74 116 136
75 116 134
77 116 134
79 115 132
89 120 137
96 123 138
81 101 115
39 51 61
0 0 5
0 0 0
2 0 0
3 4 2
0 3 0
0 4 1
0 4 1
0 3 2
0 2 3
0 1 4
0 1 5
0 1 5
0 2 3
0 2 3
0 2 3
0 2 3
0 2 3
0 2 3
0 2 3
0 2 3
0 2 3
0 2 3
0 2 3
0 2 3
0 2 3
0 2 3
0 2 3
0 2 3
0 1 1
0 0 0
0 0 0
0 0 0
0 0 0
0 0 0
0 0 0
0 0 0
0 0 0
0 0 0
0 0 0
0 0 0
0 0 0
0 0 0
0 0 0
0 0 0
0 0 0
0 0 0
0 0 0
0 0 0
0 0 0
0 0 0
0 0 0
0 0 0
0 0 0
0 0 0
0 0 0
0 0 0
0 0 0
0 0 0
0 0 0
0 0 0
0 0 2
0 2 4
1 4 5
0 1 4
0 1 6
6 12 17
24 35 46
47 64 75
81 101 115
95 118 134
95 118 134
83 113 135
82 116 140
82 116 140
82 118 141
78 115 142
78 115 142
77 116 142
75 116 141
76 115 140
74 114 140
74 114 140
74 114 140
74 114 140
74 114 140
74 114 140
74 114 140
76 115 140
76 115 140
76 115 140
76 115 140
76 115 140
76 115 140
76 115 140
76 115 140
77 114 140
77 114 140
77 114 140
77 114 140
77 114 140
77 114 140
77 114 140
77 114 140
77 114 140
77 114 138
77 114 138
77 114 138
76 115 138
76 115 138
76 115 138
76 115 138
75 116 138
74 116 138
74 116 138
74 116 138
73 116 139
72 117 138
72 117 138
72 117 138
73 117 138
74 116 138
74 116 138
74 116 138
74 116 138
74 116 138
74 116 138
74 116 138
74 116 138
75 116 138
76 115 138
76 115 138
76 115 138
76 115 138
76 115 138
76 115 138
76 115 138
76 115 138
77 114 138
77 114 138
77 114 138
77 114 138
77 114 138
77 114 138
77 114 138
77 114 138
77 114 138
77 114 138
77 114 138
77 114 138
77 114 138
77 114 138
77 114 138
77 114 138
77 114 138
77 114 138
77 114 138
77 114 138
77 114 138
77 114 138
77 114 138
77 114 138
77 115 139
77 116 139
77 116 139
78 116 137
79 115 132
82 113 130
85 116 133
90 116 132
81 101 115
53 72 83
23 41 52
6 12 17
0 4 9
0 6 5
2 6 12
1 4 1
0 2 0
0 1 0
0 1 0
0 0 0
0 0 0
0 0 0
0 0 0
0 0 0
0 0 0
0 0 0
0 0 0
0 0 0
0 0 0
0 0 0
0 0 0
0 0 0
0 0 0
0 0 0
1 1 1
1 1 1
1 1 1
1 1 1
1 1 1
1 1 1
1 1 1
1 1 1
1 1 1
1 1 1
1 1 1
1 1 1
0 2 1
0 2 1
0 2 1
0 2 1
0 2 1
0 2 1
0 2 1
0 2 1
0 2 1
0 2 1
0 2 1
0 2 1
0 2 1
0 2 1
0 2 1
0 2 1
0 3 2
1 4 1
1 4 1
0 4 1
0 4 1
0 4 1
0 4 1
0 5 1
0 5 1
0 6 5
0 6 5
1 6 12
0 4 9
0 4 9
1 6 12
4 17 26
14 29 40
47 64 75
68 87 100
81 106 120
85 116 133
89 118 136
82 115 132
79 115 132
77 117 133
78 117 135
77 117 135
76 117 136
75 118 137
75 118 137
77 117 137
77 117 137
77 117 137
77 117 137
78 116 138
78 115 139
78 115 139
78 115 139
77 116 138
77 117 137
77 117 137
77 117 137
77 117 137
77 117 137
77 117 137
77 117 137
77 117 137
77 117 137
77 117 137
77 117 137
77 117 137
77 117 137
77 117 137
77 117 137
75 118 137
75 118 138
78 118 139
78 118 139
78 118 139
75 118 138
74 117 135
72 113 134
72 113 134
74 117 135
75 118 137
77 117 137
77 117 137
77 116 137
78 116 135
78 117 135
79 115 132
77 111 130
81 110 128
85 116 133
90 116 132
81 101 115
53 72 83
23 41 52
4 17 26
2 10 15
1 6 12
1 4 10
0 6 5
0 6 5
0 4 5
0 4 5
4 2 0
4 2 0
3 4 2
1 4 1
0 5 1
1 4 5
0 6 5
0 4 5
1 4 5
0 1 6
0 0 6
0 6 13
12 20 29
39 51 61
68 87 100
90 113 128
91 117 133
81 110 128
77 107 124
77 111 130
79 115 132
78 115 132
78 115 132
77 115 134
78 115 132
78 115 132
78 115 132
78 115 132
78 115 132
79 115 132
79 115 132
82 115 132
82 113 130
81 110 128
84 109 126
90 113 128
81 106 120
55 79 91
23 41 52
12 20 29
0 4 16
0 4 12
0 4 12
1 4 10
0 4 9
0 3 5
1 4 5
1 4 5
1 1 2
0 0 1
0 0 0
0 0 0
1 0 0
1 0 0
1 0 0
0 0 0
0 0 0
0 0 0
0 0 0
0 0 0
0 0 0
0 0 0
0 0 0
0 0 0
0 0 0
0 0 0
1 1 1
1 1 1
1 1 1
1 1 1
1 1 1
1 1 1
1 1 1
1 1 1
1 1 1
1 1 1
1 1 1
1 1 1
1 1 1
1 1 1
1 1 1
1 1 1
1 1 1
0 0 0
0 0 0
0 0 0
0 0 0
0 0 0
0 0 0
0 0 0
0 0 0
1 1 1
1 1 1
1 1 1
1 1 1
1 1 1
1 1 1
1 1 1
1 1 1
1 1 1
2 2 2
2 2 2
2 2 2
2 2 2
2 3 2
2 3 2
2 3 2
1 1 1
1 0 1
0 0 1
1 1 2
3 4 2
5 4 5
6 8 13
12 20 29
39 51 61
79 97 109
99 127 141
82 113 136
70 105 125
71 110 131
87 124 142
86 121 140
71 110 131
71 110 131
79 114 138
82 116 140
80 115 140
80 115 140
80 115 140
80 115 140
78 115 139
78 115 137
77 116 137
75 116 136
74 116 136
74 116 136
74 116 136
74 116 136
74 116 136
74 116 136
74 116 136
74 116 136
74 116 136
74 116 136
74 116 136
74 116 136
74 116 136
74 116 136
74 116 136
74 116 136
74 116 136
74 116 136
74 116 136
74 116 136
74 116 136
74 116 136
74 116 136
74 116 136
74 116 136
74 116 136
74 116 136
74 116 136
74 116 136
75 116 134
77 116 134
79 115 132
89 120 137
96 123 138
81 101 115
39 51 61
0 0 5
0 0 0
2 0 0
3 4 2
0 3 0
0 4 1
0 4 1
0 3 2
0 2 2
0 1 3
0 1 4
0 1 4
0 2 3
0 2 3
0 2 3
0 2 3
0 2 3
0 2 3
0 2 3
0 2 3
0 2 3
0 2 3
0 2 3
0 2 3
0 2 3
0 2 3
0 2 3
0 2 3
0 1 1
0 0 0
0 0 0
0 0 0
0 0 0
0 0 0
0 0 0
0 0 0
0 0 0
0 0 0
0 0 0
0 0 0
0 0 0
0 0 0
0 0 0
0 0 0
0 0 0
0 0 0
0 0 0
0 0 0
0 0 0
0 0 0
0 0 0
0 0 0
0 0 0
0 0 0
0 0 0
0 0 0
0 0 0
0 0 0
0 0 0
0 0 0
0 0 2
0 2 4
1 4 5
0 0 4
0 0 7
6 12 17
24 35 46
47 64 75
81 101 115
93 116 131
95 118 134
83 113 135
83 113 135
82 116 140
82 118 141
78 115 142
78 115 142
77 116 142
76 115 140
76 115 140
76 113 137
76 115 138
76 115 138
76 115 138
76 113 137
76 113 137
76 113 137
77 114 140
77 114 140
77 114 140
77 114 140
77 114 140
77 114 140
77 114 140
77 114 140
77 114 140
77 114 140
77 114 140
77 114 140
77 114 140
77 114 140
77 114 140
77 114 140
77 114 140
77 114 138
77 114 138
77 114 138
76 115 138
76 115 138
76 115 138
76 115 138
75 116 138
74 116 138
74 116 138
74 116 138
73 116 139
72 117 138
72 117 138
72 117 138
73 117 138
74 116 138
74 116 138
74 116 138
74 116 138
74 116 138
74 116 138
74 116 138
74 116 138
75 116 138
76 115 138
76 115 138
76 115 138
76 115 138
76 115 138
76 115 138
76 115 138
76 115 138
77 114 138
77 114 138
77 114 138
77 114 138
77 114 138
77 114 138
77 114 138
77 114 138
77 114 138
77 114 138
77 114 138
77 114 138
77 114 138
77 114 138
77 114 138
77 114 138
77 114 138
77 114 138
77 114 138
77 114 138
77 114 138
77 114 138
77 114 138
77 114 138
77 115 139
77 116 139
77 116 139
78 116 137
79 115 132
82 113 130
90 116 132
90 113 128
81 101 115
53 72 83
23 41 52
6 12 17
0 4 9
0 6 5
5 6 9
1 4 1
0 2 0
0 1 0
0 1 0
0 0 0
0 0 0
0 0 0
0 0 0
0 0 0
0 0 0
0 0 0
0 0 0
0 0 0
0 0 0
0 0 0
0 0 0
0 0 0
0 0 0
0 0 0
1 1 1
1 1 1
1 1 1
1 1 1
1 1 1
1 1 1
1 1 1
1 1 1
1 1 1
1 1 1
1 1 1
1 1 1
0 2 1
0 2 1
0 2 1
0 2 1
0 2 1
0 2 1
0 2 1
0 2 1
0 2 1
0 3 2
0 3 2
0 3 2
0 3 2
0 3 2
0 3 2
0 3 2
0 3 2
0 4 1
0 4 1
0 4 1
0 4 1
0 5 1
0 5 1
0 5 1
0 6 5
0 6 5
1 6 12
2 10 15
2 10 15
0 4 9
0 12 19
24 35 46
47 64 75
70 92 106
84 109 126
83 113 128
77 107 124
77 111 130
82 115 132
79 115 135
78 117 135
78 117 135
77 117 135
76 117 136
76 117 138
76 117 138
77 116 138
77 116 138
77 116 138
77 116 138
77 116 138
77 115 139
77 115 139
77 115 139
77 116 138
77 117 137
77 117 137
77 117 137
77 117 137
77 117 137
77 117 137
77 117 137
77 117 137
77 117 137
77 117 137
77 117 137
77 117 137
77 117 137
77 116 137
77 117 137
78 118 139
82 120 140
82 120 140
78 118 139
75 118 138
74 117 135
73 115 135
72 113 134
72 113 134
74 117 135
75 118 137
77 117 137
77 117 137
77 115 136
78 116 135
78 117 135
79 115 132
77 107 124
77 107 124
90 116 132
90 113 128
70 92 106
39 51 61
14 29 40
4 17 26
0 8 14
0 4 9
0 4 9
0 4 5
0 6 5
0 4 5
0 4 5
3 4 2
3 4 2
3 4 2
3 4 2
0 6 5
0 6 5
0 6 5
0 4 9
0 8 14
1 6 12
0 0 6
0 12 19
39 51 61
70 92 106
90 113 128
90 116 132
85 113 132
82 113 130
77 111 130
78 115 132
78 115 132
77 115 131
77 115 134
77 115 134
77 115 134
77 115 134
77 115 134
77 115 134
77 115 134
77 117 133
77 117 133
82 115 132
82 113 130
81 110 128
81 110 128
84 109 126
81 106 120
79 97 109
62 77 90
31 51 61
4 17 26
0 6 13
0 4 12
1 4 10
0 4 9
0 4 9
0 3 5
0 3 5
0 2 3
0 1 1
0 0 0
0 0 0
0 0 0
0 0 0
0 0 0
0 0 0
0 0 0
0 0 0
0 0 0
0 0 0
0 0 0
0 0 0
0 0 0
0 0 0
0 0 0
0 0 0
1 1 1
1 1 1
1 1 1
1 1 1
1 1 1
1 1 1
1 1 1
1 1 1
1 1 1
1 1 1
1 1 1
1 1 1
1 1 1
1 1 1
1 1 1
1 1 1
1 1 1
0 0 0
0 0 0
0 0 0
0 0 0
0 0 0
0 0 0
0 0 0
0 0 0
1 1 1
1 1 1
1 1 1
1 1 1
1 1 1
1 1 1
1 1 1
1 1 1
1 1 1
2 2 2
2 2 2
2 2 2
2 2 2
2 2 2
2 2 2
2 2 2
1 1 1
0 0 0
0 0 0
2 2 2
3 4 2
5 4 5
5 6 9
6 8 13
23 29 39
47 64 75
81 101 115
85 113 132
83 113 135
82 113 136
82 113 136
79 113 135
82 113 136
82 113 136
82 116 140
82 116 140
82 116 140
80 115 140
80 115 140
80 115 140
78 115 139
78 115 137
77 116 137
75 116 136
74 116 136
74 116 136
74 116 136
74 116 136
74 116 136
74 116 136
74 116 136
74 116 136
74 116 136
74 116 136
74 116 136
74 116 136
74 116 136
74 116 136
74 116 136
74 116 136
74 116 136
74 116 136
74 116 136
74 116 136
74 116 136
74 116 136
74 116 136
74 116 136
74 116 136
74 116 136
74 116 136
74 116 136
74 116 136
75 116 134
77 116 134
79 115 132
89 118 136
96 123 138
81 101 115
39 51 61
0 0 5
0 0 0
2 0 0
3 4 2
0 3 0
0 4 1
0 4 1
0 3 0
0 2 1
0 2 2
0 2 3
0 2 3
0 2 3
0 2 3
0 2 3
0 2 3
0 2 3
0 2 3
0 2 3
0 2 3
0 2 3
0 2 3
0 2 3
0 2 3
0 2 3
0 2 3
0 2 3
0 2 3
0 1 1
0 0 0
0 0 0
0 0 0
0 0 0
0 0 0
0 0 0
0 0 0
0 0 0
0 0 0
0 0 0
0 0 0
0 0 0
0 0 0
0 0 0
0 0 0
0 0 0
0 0 0
0 0 0
0 0 0
0 0 0
0 0 0
0 0 0
0 0 0
0 0 0
0 0 0
0 0 0
0 0 0
0 0 0
0 0 0
0 0 0
0 0 0
0 0 2
0 2 4
1 4 5
0 0 4
0 0 7
6 12 17
24 35 46
47 64 75
81 101 115
93 116 131
95 118 134
85 113 132
83 113 135
82 116 140
82 118 141
78 115 142
78 115 142
77 116 142
77 116 142
77 114 140
77 113 139
76 113 137
76 113 137
76 113 137
76 113 137
76 113 137
76 113 137
77 114 138
77 114 138
77 114 138
77 114 138
77 114 138
77 114 138
77 114 138
77 114 138
77 114 138
77 114 138
77 114 138
77 114 138
77 114 138
77 114 138
77 114 138
77 114 138
77 114 138
77 114 138
77 114 138
77 114 138
76 115 138
76 115 138
76 115 138
76 115 138
75 116 138
74 116 138
74 116 138
74 116 138
73 116 139
72 117 138
72 117 138
72 117 138
73 117 138
74 116 138
74 116 138
74 116 138
74 116 138
74 116 138
74 116 138
74 116 138
74 116 138
75 116 138
76 115 138
76 115 138
76 115 138
76 115 138
76 115 138
76 115 138
76 115 138
76 115 138
77 114 138
77 114 138
77 114 138
77 114 138
77 114 138
77 114 138
77 114 138
77 114 138
77 114 138
77 114 138
77 114 138
77 114 138
77 114 138
77 114 138
77 114 138
77 114 138
77 114 138
77 114 138
77 114 138
77 114 138
77 114 138
77 114 138
77 114 138
77 114 138
77 115 139
77 116 139
77 116 139
78 116 137
79 115 132
82 113 130
91 117 133
90 113 128
81 101 115
53 72 83
23 41 52
6 12 17
0 4 9
0 6 5
5 6 9
1 4 1
0 2 0
0 1 0
0 1 0
0 0 0
0 0 0
0 0 0
0 0 0
0 0 0
0 0 0
0 0 0
0 0 0
0 0 0
0 0 0
0 0 0
0 0 0
0 0 0
0 0 0
0 0 0
1 1 1
1 1 1
1 1 1
1 1 1
1 1 1
1 1 1
1 1 1
1 1 1
1 1 1
1 1 1
1 1 1
1 1 1
0 2 1
0 2 1
0 2 1
0 2 1
0 2 1
0 2 1
0 2 1
0 2 1
0 3 2
0 3 2
0 3 2
0 3 2
0 3 2
0 3 2
0 3 2
0 3 2
0 3 2
0 4 1
0 4 1
0 4 1
0 4 1
0 6 5
0 6 5
0 6 5
0 6 5
1 6 12
1 6 12
0 8 14
0 8 14
0 12 19
14 29 40
47 64 75
79 97 109
93 116 131
93 121 136
81 110 128
70 105 125
70 105 125
79 114 134
82 117 137
78 116 137
77 116 137
77 117 137
77 117 139
77 116 139
77 116 139
77 116 139
77 116 139
77 116 139
77 116 139
77 116 139
77 116 139
77 116 139
77 116 139
77 117 139
77 117 137
77 117 137
77 117 137
77 117 137
77 117 137
77 117 137
77 117 137
77 117 137
77 117 137
77 117 137
77 117 137
77 117 137
77 117 137
77 116 137
77 117 137
78 118 139
82 120 140
82 120 140
75 118 138
74 117 135
73 115 135
73 115 135
74 116 136
74 117 135
75 118 137
75 118 137
75 118 137
77 117 137
78 116 135
78 116 135
78 117 135
79 115 132
77 107 124
81 110 128
95 118 134
93 116 131
68 87 100
23 41 52
0 12 19
1 6 12
0 4 9
0 4 5
0 4 9
0 4 5
0 4 5
0 4 5
0 4 5
3 4 2
3 4 2
0 6 5
0 6 5
0 6 5
0 6 5
2 6 12
0 4 5
0 1 5
0 4 9
12 20 29
31 51 61
68 87 100
93 116 131
97 121 136
83 113 128
81 110 128
82 113 130
79 113 132
76 113 132
77 115 131
77 115 134
77 115 134
76 115 135
76 115 135
76 115 135
76 115 135
76 115 135
76 115 135
77 117 133
78 117 135
82 115 132
82 113 130
79 113 127
77 107 124
77 107 124
84 109 126
88 109 125
81 101 115
53 72 83
23 41 52
4 17 26
0 1 10
1 1 8
1 4 10
1 4 10
0 1 6
0 1 5
0 1 4
0 1 3
0 0 1
0 0 0
0 0 0
0 0 0
0 0 0
0 0 0
0 0 0
0 0 0
0 0 0
0 0 0
0 0 0
0 0 0
0 0 0
0 0 0
0 0 0
0 0 0
1 1 1
1 1 1
1 1 1
1 1 1
1 1 1
1 1 1
1 1 1
1 1 1
1 1 1
1 1 1
1 1 1
1 1 1
1 1 1
1 1 1
1 1 1
1 1 1
1 1 1
0 0 0
0 0 0
0 0 0
0 0 0
0 0 0
0 0 0
0 0 0
0 0 0
1 1 1
1 1 1
1 1 1
1 1 1
1 1 1
1 1 1
1 1 1
1 1 1
1 1 1
2 2 2
2 2 2
2 2 2
2 2 2
2 2 2
2 2 2
2 1 1
1 1 1
0 0 0
0 0 0
2 2 2
5 4 5
5 6 9
5 6 9
5 6 9
4 17 26
24 35 46
53 72 83
81 106 120
97 124 139
89 118 136
77 107 124
81 110 128
89 120 137
86 121 140
82 116 140
82 113 136
82 116 140
80 115 140
80 115 140
77 114 140
77 116 140
77 115 139
77 116 137
75 116 137
74 116 136
74 116 136
74 116 136
74 116 136
74 116 136
74 116 136
74 116 136
74 116 136
74 116 136
74 116 136
74 116 136
74 116 136
74 116 136
74 116 136
74 116 136
74 116 136
74 116 136
74 116 136
74 116 136
74 116 136
74 116 136
74 116 136
74 116 136
74 116 136
74 116 136
74 116 136
74 116 136
74 116 136
74 116 136
75 116 134
77 116 134
79 115 132
89 118 136
96 123 138
81 101 115
39 51 61
0 0 5
0 0 0
2 0 0
3 4 2
0 3 0
0 4 1
0 4 1
0 3 0
0 2 1
0 2 2
0 2 3
0 2 3
0 2 3
0 2 3
0 2 3
0 2 3
0 2 3
0 2 3
0 2 3
0 2 3
0 2 3
0 2 3
0 2 3
0 2 3
0 2 3
0 2 3
0 2 3
0 2 3
0 1 1
0 0 0
0 0 0
0 0 0
0 0 0
0 0 0
0 0 0
0 0 0
0 0 0
0 0 0
0 0 0
0 0 0
0 0 0
0 0 0
0 0 0
0 0 0
0 0 0
0 0 0
0 0 0
0 0 0
0 0 0
0 0 0
0 0 0
0 0 0
0 0 0
0 0 0
0 0 0
0 0 0
0 0 0
0 0 0
0 0 0
0 0 0
0 0 2
0 2 4
1 4 5
0 0 4
0 0 6
6 12 17
24 35 46
47 64 75
81 101 115
93 116 131
95 118 134
85 113 132
83 113 135
82 116 140
82 118 141
78 115 142
78 115 142
77 116 142
77 116 142
77 114 140
77 113 139
76 113 137
76 113 137
76 113 137
76 113 137
76 113 137
76 113 137
77 114 138
77 114 138
77 114 138
77 114 138
77 114 138
77 114 138
77 114 138
77 114 138
77 114 138
77 114 138
77 114 138
77 114 138
77 114 138
77 114 138
77 114 138
77 114 138
77 114 138
77 114 138
77 114 138
77 114 138
76 115 138
76 115 138
76 115 138
76 115 138
75 116 138
74 116 138
74 116 138
74 116 138
73 116 139
72 117 138
72 117 138
72 117 138
73 117 138
74 116 138
74 116 138
74 116 138
74 116 138
74 116 138
74 116 138
74 116 138
74 116 138
75 116 138
76 115 138
76 115 138
76 115 138
76 115 138
76 115 138
76 115 138
76 115 138
76 115 138
77 114 138
77 114 138
77 114 138
77 114 138
77 114 138
77 114 138
77 114 138
77 114 138
77 114 138
77 114 138
77 114 138
77 114 138
77 114 138
77 114 138
77 114 138
77 114 138
77 114 138
77 114 138
77 114 138
77 114 138
77 114 138
77 114 138
77 114 138
77 114 138
77 115 139
77 116 139
77 116 139
78 116 137
79 115 132
82 113 130
91 117 133
90 113 128
81 101 115
53 72 83
23 41 52
6 12 17
0 4 9
0 6 5
5 6 9
1 3 2
0 1 0
0 1 0
0 1 0
0 0 0
0 0 0
0 0 0
0 0 0
0 0 0
0 0 0
0 0 0
0 0 0
0 0 0
0 0 0
0 0 0
0 0 0
0 0 0
0 0 0
0 0 0
1 1 1
1 1 1
1 1 1
1 1 1
1 1 1
1 1 1
1 1 1
1 1 1
1 1 1
1 1 1
1 1 1
1 1 1
0 2 1
0 2 1
0 2 1
0 2 1
0 2 1
0 2 1
0 2 1
0 2 1
0 3 2
0 3 2
0 3 2
0 3 2
0 3 2
0 3 2
0 3 2
0 3 2
0 3 2
0 4 1
0 3 2
0 3 2
0 4 5
0 6 5
0 6 5
1 6 12
1 6 12
0 8 14
0 2 4
0 0 0
0 1 6
14 29 40
47 64 75
70 92 106
81 106 120
90 116 132
85 113 132
81 110 128
77 107 124
77 111 130
79 114 136
80 115 137
78 116 137
77 116 138
77 117 139
77 117 139
77 116 139
77 116 139
77 116 139
77 116 139
77 116 139
77 116 139
77 116 139
77 116 139
77 116 139
77 116 139
77 117 139
77 117 137
77 117 137
77 117 137
77 117 137
77 117 137
77 117 137
77 117 137
77 117 137
77 117 137
77 117 137
77 117 137
77 117 137
77 117 137
77 116 137
77 117 137
78 118 139
82 120 140
78 118 139
73 115 135
72 113 134
72 113 134
74 116 136
78 118 139
78 118 139
75 118 138
75 118 137
75 118 137
75 118 137
78 117 135
78 117 135
82 117 137
82 115 132
77 107 124
81 110 128
95 118 134
88 109 125
53 72 83
12 20 29
0 4 5
0 1 4
1 4 5
0 4 5
0 4 9
0 4 5
0 4 5
0 3 2
0 3 2
0 6 5
0 6 5
0 6 5
0 6 5
0 6 5
0 4 9
2 6 12
1 6 12
0 4 9
4 17 26
39 51 61
70 92 106
90 113 128
93 116 131
85 113 132
83 113 128
81 110 128
79 113 132
79 113 132
76 113 132
77 115 134
75 116 134
75 116 134
75 116 134
75 116 134
75 116 134
75 116 134
75 116 134
75 116 134
77 116 134
79 115 135
78 117 135
79 115 132
77 111 130
77 107 124
77 107 124
85 113 132
90 116 132
88 109 125
70 92 106
47 64 75
14 29 40
0 4 16
0 0 9
0 4 12
1 6 12
0 4 9
0 1 6
0 1 5
0 1 3
0 0 2
0 0 1
0 0 0
0 0 0
0 0 0
0 0 0
0 0 0
0 0 0
0 0 0
0 0 0
0 0 0
0 0 0
0 0 0
0 0 0
0 0 0
0 0 0
1 1 1
1 1 1
1 1 1
1 1 1
1 1 1
1 1 1
1 1 1
1 1 1
1 1 1
1 1 1
1 1 1
1 1 1
1 1 1
1 1 1
1 1 1
1 1 1
1 1 1
0 0 0
0 0 0
0 0 0
0 0 0
0 0 0
0 0 0
0 0 0
0 0 0
1 1 1
1 1 1
1 1 1
1 1 1
1 1 1
1 1 1
1 1 1
1 1 1
1 1 1
2 2 2
2 2 2
2 2 2
2 2 2
2 2 2
2 2 2
1 1 1
1 1 1
1 1 1
1 1 1
2 2 2
5 4 5
5 6 9
5 6 9
6 8 13
6 12 17
4 17 26
23 41 52
62 77 90
90 113 128
91 117 133
84 109 126
85 113 132
89 120 137
89 118 136
83 113 135
82 113 136
82 116 140
80 115 140
79 114 138
77 113 139
77 113 139
76 115 140
76 115 138
76 115 138
75 116 136
74 116 136
74 116 136
74 116 136
74 116 136
74 116 136
74 116 136
74 116 136
74 116 136
74 116 136
74 116 136
74 116 136
74 116 136
74 116 136
74 116 136
74 116 136
74 116 136
74 116 136
74 116 136
74 116 136
74 116 136
74 116 136
74 116 136
74 116 136
74 116 136
74 116 136
74 116 136
74 116 136
74 116 136
75 116 134
77 116 134
79 115 132
89 118 136
96 123 138
81 101 115
39 51 61
0 0 5
0 0 0
2 0 0
3 4 2
0 3 0
0 4 1
0 4 1
0 3 0
0 2 1
0 2 2
0 2 3
0 2 3
0 2 3
0 2 3
0 2 3
0 2 3
0 2 3
0 2 3
0 2 3
0 2 3
0 2 3
0 2 3
0 2 3
0 2 3
0 2 3
0 2 3
0 2 3
0 2 3
0 1 1
0 0 0
0 0 0
0 0 0
0 0 0
0 0 0
0 0 0
0 0 0
0 0 0
0 0 0
0 0 0
0 0 0
0 0 0
0 0 0
0 0 0
0 0 0
0 0 0
0 0 0
0 0 0
0 0 0
0 0 0
0 0 0
0 0 0
0 0 0
0 0 0
0 0 0
0 0 0
0 0 0
0 0 0
0 0 0
0 0 0
0 0 0
0 0 2
1 1 5
3 4 6
0 0 3
0 0 5
6 12 17
24 35 46
47 64 75
81 101 115
93 116 131
95 118 134
85 113 132
83 113 135
82 116 140
82 118 141
78 115 142
78 115 142
77 116 142
77 116 142
77 114 140
77 113 139
76 113 137
76 113 137
76 113 137
76 113 137
76 113 137
76 113 137
77 114 138
77 114 138
77 114 138
77 114 138
77 114 138
77 114 138
77 114 138
77 114 138
77 114 138
77 114 138
77 114 138
77 114 138
77 114 138
77 114 138
77 114 138
77 114 138
77 114 138
77 114 138
77 114 138
77 114 138
76 115 138
76 115 138
76 115 138
76 115 138
75 116 138
74 116 138
74 116 138
74 116 138
73 116 139
72 117 138
72 117 138
72 117 138
73 117 138
74 116 138
74 116 138
74 116 138
74 116 138
74 116 138
74 116 138
74 116 138
74 116 138
75 116 138
76 115 138
76 115 138
76 115 138
76 115 138
76 115 138
76 115 138
76 115 138
76 115 138
77 114 138
77 114 138
77 114 138
77 114 138
77 114 138
77 114 138
77 114 138
77 114 138
77 114 138
77 114 138
77 114 138
77 114 138
77 114 138
77 114 138
77 114 138
77 114 138
77 114 138
77 114 138
77 114 138
77 114 138
77 114 138
77 114 138
77 114 138
77 114 138
77 115 139
77 116 139
77 116 139
78 116 137
79 115 132
82 113 130
91 117 133
90 113 128
81 101 115
53 72 83
23 41 52
6 12 17
0 3 5
0 6 5
5 6 9
1 3 2
0 0 0
0 0 0
0 0 0
0 0 0
0 0 0
0 0 0
0 0 0
0 0 0
0 0 0
0 0 0
0 0 0
0 0 0
0 0 0
0 0 0
0 0 0
0 0 0
0 0 0
0 0 0
1 1 1
1 1 1
1 1 1
1 1 1
1 1 1
1 1 1
1 1 1
1 1 1
1 1 1
1 1 1
1 1 1
1 1 1
0 2 1
0 2 1
0 2 1
0 2 1
0 2 1
0 2 1
0 2 1
0 2 1
0 3 2
0 3 2
0 3 2
0 3 2
0 3 2
0 3 2
0 3 2
0 3 2
0 3 2
0 4 1
0 3 2
0 4 5
0 4 5
0 6 5
0 6 5
1 6 12
1 6 12
2 10 15
0 4 9
0 0 3
4 17 26
47 64 75
81 101 115
88 109 125
81 106 120
81 106 120
77 107 124
77 111 130
82 115 132
82 117 137
80 115 137
80 115 137
78 116 137
77 116 138
77 116 139
77 116 139
77 116 139
77 116 139
77 116 139
77 116 139
77 116 139
77 116 139
77 116 139
77 116 139
77 116 139
77 116 139
77 117 139
77 117 137
77 117 137
77 117 137
77 117 137
77 117 137
77 117 137
77 117 137
77 117 137
77 117 137
77 117 137
77 117 137
77 117 137
77 117 137
77 117 137
77 117 137
77 117 137
75 118 137
74 117 135
72 113 134
72 113 134
72 113 134
75 118 138
82 120 140
82 120 140
78 118 139
74 117 135
75 118 137
75 118 137
76 117 136
77 117 135
79 115 135
82 115 132
81 110 128
84 109 126
88 109 125
79 97 109
39 51 61
0 12 19
0 0 0
0 0 0
1 2 3
0 3 5
0 4 5
0 4 5
0 3 2
1 3 2
1 3 2
0 6 5
0 6 5
0 4 5
0 4 5
1 6 12
1 6 12
0 6 13
6 12 17
23 29 39
47 64 75
70 92 106
93 116 131
95 118 134
84 109 126
81 110 128
82 113 130
82 113 130
79 113 132
79 113 132
75 113 134
76 115 135
76 115 135
76 115 135
76 115 135
76 115 135
76 117 136
76 117 136
76 117 136
76 117 136
77 116 137
78 116 135
78 117 135
79 115 132
79 113 132
77 111 130
81 110 128
85 113 132
85 113 132
88 109 125
84 109 126
68 87 100
39 51 61
12 20 29
0 4 12
0 1 10
0 6 13
2 10 15
2 10 15
1 1 8
0 0 3
0 0 3
0 1 3
0 1 1
0 1 1
1 0 0
1 0 0
0 0 0
0 0 0
0 0 0
0 0 0
0 0 0
0 0 0
0 0 0
0 0 0
0 0 0
0 0 0
1 1 1
1 1 1
1 1 1
1 1 1
1 1 1
1 1 1
1 1 1
1 1 1
1 1 1
1 1 1
1 1 1
1 1 1
1 1 1
1 1 1
1 1 1
1 1 1
1 1 1
0 0 0
0 0 0
0 0 0
0 0 0
0 0 0
0 0 0
0 0 0
0 0 0
1 1 1
1 1 1
1 1 1
1 1 1
1 1 1
1 1 1
1 1 1
1 1 1
1 1 1
2 2 2
2 2 2
2 2 2
2 2 2
2 2 2
2 2 2
1 1 1
1 1 1
2 2 2
2 2 2
2 2 2
3 4 6
5 4 5
5 4 5
6 8 13
5 6 9
0 4 9
4 17 26
39 51 61
68 87 100
88 109 125
93 116 131
88 109 125
81 106 120
77 107 124
83 113 135
82 116 140
82 116 140
79 114 138
77 113 139
76 112 136
76 112 136
76 113 137
76 115 138
76 115 138
75 116 136
74 116 136
74 116 136
74 116 136
74 116 136
74 116 136
74 116 136
74 116 136
74 116 136
74 116 136
74 116 136
74 116 136
74 116 136
74 116 136
74 116 136
74 116 136
74 116 136
74 116 136
74 116 136
74 116 136
74 116 136
74 116 136
74 116 136
74 116 136
74 116 136
74 116 136
74 116 136
74 116 136
74 116 136
75 116 134
77 116 134
79 115 132
89 120 137
96 123 138
81 101 115
39 51 61
0 0 5
0 0 0
2 0 0
3 4 2
0 3 0
0 4 1
0 4 1
0 3 0
0 2 2
0 2 3
0 2 4
0 2 4
0 2 3
0 2 3
0 2 3
0 2 3
0 2 3
0 2 3
0 2 3
0 2 3
0 2 3
0 2 3
0 2 3
0 2 3
0 2 3
0 2 3
0 2 3
0 2 3
0 1 1
0 0 0
0 0 0
0 0 0
0 0 0
0 0 0
0 0 0
0 0 0
0 0 0
0 0 0
0 0 0
0 0 0
0 0 0
0 0 0
0 0 0
0 0 0
0 0 0
0 0 0
0 0 0
0 0 0
0 0 0
0 0 0
0 0 0
0 0 0
0 0 0
0 0 0
0 0 0
0 0 0
0 0 0
0 0 0
0 0 0
0 0 0
0 0 2
1 1 5
3 4 6
0 0 3
0 0 5
6 12 17
24 35 46
47 64 75
81 101 115
93 116 131
93 116 131
85 113 132
83 113 135
82 116 140
78 115 142
78 115 142
78 115 142
77 116 142
77 116 142
77 114 140
77 113 139
76 113 137
76 113 137
76 113 137
76 113 137
76 113 137
76 113 137
77 114 138
77 114 138
77 114 138
77 114 138
77 114 138
77 114 138
77 114 138
77 114 138
77 114 138
77 114 138
77 114 138
77 114 138
77 114 138
77 114 138
77 114 138
77 114 138
77 114 138
77 114 138
77 114 138
77 114 138
76 115 138
76 115 138
76 115 138
76 115 138
75 116 138
74 116 138
74 116 138
74 116 138
73 116 139
72 117 138
72 117 138
72 117 138
73 117 138
74 116 138
74 116 138
74 116 138
74 116 138
74 116 138
74 116 138
74 116 138
74 116 138
75 116 138
76 115 138
76 115 138
76 115 138
76 115 138
76 115 138
76 115 138
76 115 138
76 115 138
77 114 138
77 114 138
77 114 138
77 114 138
77 114 138
77 114 138
77 114 138
77 114 138
77 114 138
77 114 138
77 114 138
77 114 138
77 114 138
77 114 138
77 114 138
77 114 138
77 114 138
77 114 138
77 114 138
77 114 138
77 114 138
77 114 138
77 114 138
77 114 138
77 115 139
77 116 139
77 116 139
78 116 137
79 115 132
82 113 130
91 117 133
90 113 128
81 101 115
53 72 83
23 41 52
6 12 17
0 3 5
0 6 5
0 4 9
1 1 2
0 0 0
0 0 0
0 0 0
0 0 0
0 0 0
0 0 0
0 0 0
0 0 0
0 0 0
0 0 0
0 0 0
0 0 0
0 0 0
0 0 0
0 0 0
0 0 0
0 0 0
0 0 0
1 1 1
1 1 1
1 1 1
1 1 1
1 1 1
1 1 1
1 1 1
1 1 1
1 1 1
1 1 1
1 1 1
1 1 1
0 2 1
0 2 1
0 2 1
0 2 1
0 2 1
0 2 1
0 2 1
0 2 1
0 3 2
0 3 2
0 4 1
0 3 2
0 3 2
0 3 2
0 3 2
0 3 2
0 4 1
0 3 2
0 4 5
0 4 5
1 3 2
1 4 5
0 1 3
0 1 4
0 4 5
0 12 19
14 29 40
31 43 53
53 72 83
79 97 109
90 113 128
90 116 132
77 107 124
77 107 124
77 107 124
77 111 130
82 117 137
82 118 141
78 116 137
78 115 137
78 116 138
77 116 138
77 116 139
77 116 139
77 116 139
77 116 139
77 116 139
77 116 139
77 116 139
77 116 139
77 116 139
77 116 139
77 116 139
77 116 139
77 117 139
77 117 139
77 117 139
77 117 139
77 117 139
77 117 139
77 117 139
77 117 139
77 117 139
77 117 139
77 117 139
77 117 139
77 117 137
77 117 137
77 117 137
77 117 137
76 117 136
74 116 136
73 115 135
74 116 136
74 116 136
75 118 137
78 118 139
78 118 139
78 118 139
75 118 138
74 117 135
73 117 136
73 115 135
72 117 135
75 116 134
76 113 132
79 113 132
90 116 132
90 113 128
81 101 115
53 72 83
24 35 46
0 6 13
0 0 1
0 0 1
0 2 4
0 2 4
0 3 5
0 3 5
1 3 2
2 3 2
2 3 2
0 8 14
1 6 12
1 4 5
0 3 5
1 6 12
2 10 15
0 12 19
24 35 46
53 72 83
88 109 125
97 121 136
95 118 134
83 113 128
81 106 120
81 110 128
89 118 136
83 118 136
79 115 132
76 113 132
77 115 134
77 115 134
76 116 136
76 116 136
76 116 136
76 116 136
77 117 137
77 117 137
77 117 137
77 117 137
77 117 137
77 117 137
77 116 137
78 116 135
79 115 135
82 115 132
83 113 135
83 113 135
81 110 128
81 110 128
90 116 132
84 109 126
62 77 90
31 43 53
4 17 26
0 1 13
0 4 16
4 17 26
4 17 26
1 4 10
0 0 4
0 1 5
0 3 5
0 2 4
0 2 2
1 1 1
1 1 1
1 1 1
1 1 1
1 1 1
1 1 1
1 1 1
1 1 1
1 1 1
1 1 1
1 1 1
1 1 1
1 1 1
1 1 1
1 1 1
1 1 1
1 1 1
1 1 1
1 1 1
1 1 1
1 1 1
1 1 1
1 1 1
1 1 1
1 1 1
1 1 1
1 1 1
1 1 1
1 1 1
1 1 1
1 1 1
1 1 1
1 1 1
1 1 1
1 1 1
1 1 1
1 1 1
1 1 1
1 1 1
1 1 1
1 1 1
1 1 1
1 1 1
1 1 1
1 1 1
1 1 1
2 2 2
2 2 2
2 2 2
2 2 2
2 2 2
2 2 2
2 2 2
2 2 2
3 4 2
3 4 2
3 4 2
3 4 2
3 4 2
3 4 2
5 6 9
1 4 5
0 0 3
0 4 9
12 20 29
39 51 61
70 92 106
93 116 131
81 106 120
70 92 106
70 92 106
81 110 128
89 120 137
82 116 140
79 114 138
77 113 139
76 112 136
76 112 136
76 112 136
76 115 138
75 116 138
75 116 137
74 116 136
74 116 136
74 116 136
74 116 136
74 116 136
74 116 136
74 116 136
74 116 136
74 116 136
74 116 136
74 116 136
74 116 136
74 116 136
74 116 136
74 116 136
74 116 136
74 116 136
74 116 136
74 116 136
74 116 136
74 116 136
74 116 136
74 116 136
74 116 136
74 116 136
74 116 136
74 116 136
74 116 136
75 116 134
77 116 134
79 115 132
89 120 137
96 123 138
81 101 115
39 51 61
0 0 5
0 0 0
2 0 0
3 4 2
0 3 0
0 4 1
0 4 1
0 3 2
0 2 3
0 1 4
0 1 5
0 1 5
0 2 3
0 2 3
0 2 3
0 2 3
0 2 3
0 2 3
0 2 3
0 2 3
0 2 3
0 2 3
0 2 3
0 2 3
0 2 3
0 2 3
0 2 3
0 2 3
0 1 1
0 0 0
0 0 0
0 0 0
0 0 0
0 0 0
0 0 0
0 0 0
0 0 0
0 0 0
0 0 0
0 0 0
0 0 0
0 0 0
0 0 0
0 0 0
0 0 0
0 0 0
0 0 0
0 0 0
0 0 0
0 0 0
0 0 0
0 0 0
0 0 0
0 0 0
0 0 0
0 0 0
0 0 0
0 0 0
0 0 0
0 0 0
0 0 2
1 1 5
3 4 6
0 0 3
0 0 5
6 12 17
24 35 46
47 64 75
81 101 115
93 116 131
93 116 131
85 113 132
83 113 135
82 113 136
80 115 140
78 115 142
77 116 142
77 116 142
77 116 142
77 114 140
77 114 140
77 114 138
77 114 138
77 114 138
77 114 138
77 114 138
77 114 138
77 114 138
77 114 138
77 114 138
77 114 138
77 114 138
77 114 138
77 114 138
77 114 138
77 114 138
77 114 138
77 114 138
77 114 138
77 114 138
77 114 138
77 114 138
77 114 138
77 114 138
77 114 138
77 114 138
77 114 138
76 115 138
76 115 138
76 115 138
76 115 138
75 116 138
74 116 138
74 116 138
74 116 138
73 116 139
72 117 138
72 117 138
72 117 138
73 117 138
74 116 138
74 116 138
74 116 138
74 116 138
74 116 138
74 116 138
74 116 138
74 116 138
75 116 138
76 115 138
76 115 138
76 115 138
76 115 138
76 115 138
76 115 138
76 115 138
76 115 138
77 114 138
77 114 138
77 114 138
77 114 138
77 114 138
77 114 138
77 114 138
77 114 138
77 114 138
77 114 138
77 114 138
77 114 138
77 114 138
77 114 138
77 114 138
77 114 138
77 114 138
77 114 138
77 114 138
77 114 138
77 114 138
77 114 138
77 114 138
77 114 138
77 115 139
77 116 139
77 116 139
78 116 137
79 115 132
82 113 130
91 117 133
90 113 128
81 101 115
53 72 83
24 35 46
6 12 17
0 2 4
0 4 5
0 6 5
0 2 2
0 0 0
0 0 0
0 0 0
0 0 0
0 0 0
0 0 0
0 0 0
0 0 0
0 0 0
0 0 0
0 0 0
0 0 0
0 0 0
0 0 0
0 0 0
0 0 0
0 0 0
0 0 0
1 1 1
1 1 1
1 1 1
1 1 1
1 1 1
1 1 1
1 1 1
1 1 1
1 1 1
1 1 1
1 1 1
1 1 1
0 2 1
0 2 1
0 2 1
0 2 1
0 2 1
0 2 1
0 2 1
0 2 1
0 2 1
0 3 2
0 4 1
0 4 1
0 4 1
0 4 1
0 4 1
0 4 1
0 3 2
0 3 2
0 3 2
0 3 2
1 1 2
2 1 3
0 0 3
0 3 5
0 12 19
14 29 40
47 64 75
81 101 115
99 127 141
97 121 136
84 109 126
81 110 128
82 113 130
82 113 130
79 113 132
79 114 134
79 114 136
80 115 137
78 116 137
78 116 138
77 116 139
77 116 139
77 116 139
77 116 139
77 116 139
77 116 139
77 116 139
77 116 139
77 116 139
77 116 139
77 116 139
77 116 139
77 116 139
77 116 139
77 116 139
77 116 139
77 116 139
77 116 139
77 116 139
77 116 139
77 116 139
77 116 139
77 116 139
77 116 139
77 116 139
77 116 139
77 116 138
77 117 137
77 117 137
77 117 137
75 116 136
73 115 135
74 116 136
78 118 139
78 118 139
82 120 140
78 118 139
74 116 136
74 116 136
74 117 135
75 118 137
74 116 136
73 115 135
72 117 135
75 116 134
76 113 132
79 113 132
93 121 136
90 113 128
68 87 100
31 43 53
4 17 26
0 4 12
0 0 6
0 0 5
0 1 6
0 1 5
0 1 5
1 1 3
2 1 3
4 1 2
4 1 2
0 8 14
0 8 14
2 6 12
0 4 9
0 4 9
0 12 19
14 29 40
47 64 75
81 101 115
97 124 139
99 127 141
90 113 128
84 109 126
83 113 128
82 113 130
83 118 136
83 118 136
79 115 132
76 113 132
77 115 134
77 115 134
76 116 136
76 116 136
76 116 136
76 116 136
77 117 137
77 117 137
77 117 137
77 117 137
77 117 137
77 117 137
77 116 137
78 116 135
80 115 137
82 117 137
83 113 135
83 113 135
81 110 128
82 113 130
90 116 132
90 116 132
81 101 115
55 79 91
23 41 52
4 17 26
0 4 16
0 12 19
6 12 17
0 4 12
0 1 6
0 1 6
0 3 5
0 2 4
0 2 2
1 1 1
1 2 1
1 1 1
1 1 1
1 1 1
1 1 1
1 1 1
1 1 1
1 1 1
1 1 1
1 1 1
1 1 1
1 1 1
1 1 1
1 1 1
1 1 1
1 1 1
1 1 1
1 1 1
1 1 1
1 1 1
1 1 1
1 1 1
1 1 1
1 1 1
1 1 1
1 1 1
1 1 1
1 1 1
1 1 1
1 1 1
1 1 1
1 1 1
1 1 1
1 1 1
1 1 1
1 1 1
1 1 1
1 1 1
1 1 1
1 1 1
1 1 1
1 1 1
1 1 1
1 1 1
1 1 1
2 2 2
2 2 2
2 2 2
2 2 2
2 2 2
2 2 2
2 2 2
2 2 2
3 4 2
3 4 2
3 4 2
3 4 2
3 4 2
2 2 2
3 4 6
0 2 4
3 4 6
1 1 8
1 4 10
12 20 29
47 64 75
79 97 109
81 101 115
79 97 109
81 101 115
84 109 126
85 116 133
82 115 136
82 116 140
79 114 138
76 112 136
72 113 134
72 113 134
74 115 139
76 117 138
75 116 137
74 116 136
74 116 136
74 116 136
74 116 136
74 116 136
74 116 136
74 116 136
74 116 136
74 116 136
74 116 136
74 116 136
74 116 136
74 116 136
74 116 136
74 116 136
74 116 136
74 116 136
74 116 136
74 116 136
74 116 136
74 116 136
74 116 136
74 116 136
74 116 136
74 116 136
74 116 136
74 116 136
74 116 136
75 116 134
77 116 134
79 115 132
89 120 137
96 123 138
81 101 115
39 51 61
0 0 6
0 0 0
2 0 0
3 4 2
0 3 0
0 4 1
0 4 1
0 3 2
0 2 3
0 1 4
0 1 5
0 1 5
0 2 3
0 2 3
0 2 3
0 2 3
0 2 3
0 2 3
0 2 3
0 2 3
0 2 3
0 2 3
0 2 3
0 2 3
0 2 3
0 2 3
0 2 3
0 2 3
0 1 1
0 0 0
0 0 0
0 0 0
0 0 0
0 0 0
0 0 0
0 0 0
0 0 0
0 0 0
0 0 0
0 0 0
0 0 0
0 0 0
0 0 0
0 0 0
0 0 0
0 0 0
0 0 0
0 0 0
0 0 0
0 0 0
0 0 0
0 0 0
0 0 0
0 0 0
0 0 0
0 0 0
0 0 0
0 0 0
0 0 0
0 0 0
0 0 2
1 1 5
3 4 6
0 0 3
0 0 5
6 12 17
24 35 46
47 64 75
81 101 115
93 116 131
93 116 131
85 113 132
83 113 135
82 113 136
80 115 140
78 115 142
77 116 142
77 116 142
77 116 142
77 114 140
77 114 140
77 114 138
77 114 138
77 114 138
77 114 138
77 114 138
77 114 138
77 114 138
77 114 138
77 114 138
77 114 138
77 114 138
77 114 138
77 114 138
77 114 138
77 114 138
77 114 138
77 114 138
77 114 138
77 114 138
77 114 138
77 114 138
77 114 138
77 114 138
77 114 138
77 114 138
77 114 138
76 115 138
76 115 138
76 115 138
76 115 138
75 116 138
74 116 138
74 116 138
74 116 138
73 116 139
72 117 138
72 117 138
72 117 138
73 117 138
74 116 138
74 116 138
74 116 138
74 116 138
74 116 138
74 116 138
74 116 138
74 116 138
75 116 138
76 115 138
76 115 138
76 115 138
76 115 138
76 115 138
76 115 138
76 115 138
76 115 138
77 114 138
77 114 138
77 114 138
77 114 138
77 114 138
77 114 138
77 114 138
77 114 138
77 114 138
77 114 138
77 114 138
77 114 138
77 114 138
77 114 138
77 114 138
77 114 138
77 114 138
77 114 138
77 114 138
77 114 138
77 114 138
77 114 138
77 114 138
77 114 138
77 115 139
77 116 139
77 116 139
78 116 137
79 115 132
82 113 130
91 117 133
90 113 128
79 97 109
53 72 83
24 35 46
6 12 17
0 1 5
0 4 5
0 6 5
0 2 2
0 0 0
0 0 0
0 0 0
0 0 0
0 0 0
0 0 0
0 0 0
0 0 0
0 0 0
0 0 0
0 0 0
0 0 0
0 0 0
0 0 0
0 0 0
0 0 0
0 0 0
0 0 0
1 1 1
1 1 1
1 1 1
1 1 1
1 1 1
1 1 1
1 1 1
1 1 1
1 1 1
1 1 1
1 1 1
1 1 1
0 2 1
0 2 1
0 2 1
0 2 1
0 2 1
0 2 1
0 2 1
0 2 1
0 2 1
0 3 2
0 4 1
0 4 1
0 5 1
0 6 5
1 4 5
0 5 1
0 3 2
0 2 2
0 1 1
0 1 1
0 0 0
0 0 2
1 6 12
12 20 29
31 43 53
53 72 83
79 97 109
97 121 136
99 127 141
96 123 138
81 110 128
81 110 128
82 113 130
82 115 132
82 115 136
79 115 135
76 114 136
77 115 136
77 116 138
78 115 139
77 116 139
77 116 139
77 116 139
77 116 139
77 116 139
77 116 139
77 116 139
77 116 139
77 116 139
77 116 139
77 116 139
77 116 139
77 116 139
77 116 139
77 116 139
77 116 139
77 116 139
77 116 139
77 116 139
77 116 139
77 116 139
77 116 139
77 116 139
77 116 139
77 116 139
77 116 139
77 116 138
77 117 137
77 117 137
77 117 137
75 116 136
73 115 135
74 116 136
78 118 139
82 120 140
82 120 140
78 118 139
73 115 135
72 113 134
74 117 135
78 118 139
75 118 138
75 118 137
73 118 135
75 118 137
77 117 135
82 115 136
91 117 133
81 101 115
47 64 75
23 29 39
0 4 16
0 4 12
0 2 9
0 2 9
2 1 7
1 1 5
1 1 5
2 1 3
3 0 3
4 1 2
4 1 2
0 8 14
0 8 14
2 10 15
0 8 14
0 6 13
12 20 29
47 64 75
70 92 106
90 113 128
93 116 131
90 113 128
84 109 126
85 113 132
89 120 137
83 118 136
79 113 132
79 113 132
77 115 134
77 115 134
77 115 134
77 115 134
76 116 136
76 116 136
76 116 136
76 116 136
77 117 137
77 117 137
77 117 137
77 117 137
77 117 137
77 117 137
78 116 137
78 116 137
80 115 137
80 115 137
80 115 137
82 113 136
83 113 135
83 113 135
85 113 132
85 113 132
90 116 132
81 101 115
53 72 83
24 35 46
4 17 26
0 4 16
0 4 16
0 4 16
0 4 12
0 4 9
0 2 4
0 2 4
0 2 2
0 2 1
0 2 1
1 1 1
1 1 1
1 1 1
1 1 1
1 1 1
1 1 1
1 1 1
1 1 1
1 1 1
1 1 1
1 1 1
1 1 1
1 1 1
1 1 1
1 1 1
1 1 1
1 1 1
1 1 1
1 1 1
1 1 1
1 1 1
1 1 1
1 1 1
1 1 1
1 1 1
1 1 1
1 1 1
1 1 1
1 1 1
1 1 1
1 1 1
1 1 1
1 1 1
1 1 1
1 1 1
1 1 1
1 1 1
1 1 1
1 1 1
1 1 1
1 1 1
1 1 1
1 1 1
1 1 1
2 2 2
2 2 2
2 2 2
2 2 2
2 2 2
2 2 2
2 2 2
2 2 2
3 4 2
3 4 2
3 4 2
3 4 2
3 4 2
3 4 2
3 2 1
3 4 2
5 6 9
5 6 9
0 0 5
1 4 10
23 29 39
47 64 75
70 92 106
88 109 125
90 113 128
84 109 126
81 110 128
83 113 135
82 116 140
80 115 140
77 113 139
76 112 136
72 113 134
74 115 139
73 117 138
75 116 137
74 116 136
74 116 136
74 116 136
74 116 136
74 116 136
74 116 136
74 116 136
74 116 136
74 116 136
74 116 136
74 116 136
74 116 136
74 116 136
74 116 136
74 116 136
74 116 136
74 116 136
74 116 136
74 116 136
74 116 136
74 116 136
74 116 136
74 116 136
74 116 136
74 116 136
74 116 136
74 116 136
74 116 136
75 116 134
77 116 134
79 115 132
89 120 137
97 124 139
81 101 115
39 51 61
0 0 7
0 0 0
2 0 0
3 4 2
0 3 0
0 4 1
0 4 1
0 3 2
0 2 3
0 1 4
0 1 5
0 1 5
0 2 3
0 2 3
0 2 3
0 2 3
0 2 3
0 2 3
0 2 3
0 2 3
0 2 3
0 2 3
0 2 3
0 2 3
0 2 3
0 2 3
0 2 3
0 2 3
0 1 1
0 0 0
0 0 0
0 0 0
0 0 0
0 0 0
0 0 0
0 0 0
0 0 0
0 0 0
0 0 0
0 0 0
0 0 0
0 0 0
0 0 0
0 0 0
0 0 0
0 0 0
0 0 0
0 0 0
0 0 0
0 0 0
0 0 0
0 0 0
0 0 0
0 0 0
0 0 0
0 0 0
0 0 0
0 0 0
0 0 0
0 0 0
0 0 2
0 2 4
1 4 5
0 0 3
0 0 5
6 12 17
24 35 46
47 64 75
81 101 115
93 116 131
93 116 131
85 113 132
83 113 135
82 113 136
80 115 140
78 115 142
77 116 142
77 116 142
77 116 142
77 114 140
77 114 140
77 114 138
77 114 138
77 114 138
77 114 138
77 114 138
77 114 138
77 114 138
77 114 138
77 114 138
77 114 138
77 114 138
77 114 138
77 114 138
77 114 138
77 114 138
77 114 138
77 114 138
77 114 138
77 114 138
77 114 138
77 114 138
77 114 138
77 114 138
77 114 138
77 114 138
77 114 138
76 115 138
76 115 138
76 115 138
76 115 138
75 116 138
74 116 138
74 116 138
74 116 138
73 116 139
72 117 138
72 117 138
72 117 138
73 117 138
74 116 138
74 116 138
74 116 138
74 116 138
74 116 138
74 116 138
74 116 138
74 116 138
75 116 138
76 115 138
76 115 138
76 115 138
76 115 138
76 115 138
76 115 138
76 115 138
76 115 138
77 114 138
77 114 138
77 114 138
77 114 138
77 114 138
77 114 138
77 114 138
77 114 138
77 114 138
77 114 138
77 114 138
77 114 138
77 114 138
77 114 138
77 114 138
77 114 138
77 114 138
77 114 138
77 114 138
77 114 138
77 114 138
77 114 138
77 114 138
77 114 138
77 115 139
77 116 139
78 115 139
80 115 137
79 114 134
82 113 130
90 116 132
90 113 128
79 97 109
53 72 83
24 35 46
2 10 15
0 0 4
0 3 5
0 6 5
0 2 2
0 0 0
0 0 0
0 0 0
0 0 0
0 0 0
0 0 0
0 0 0
0 0 0
0 0 0
0 0 0
0 0 0
0 0 0
0 0 0
0 0 0
0 0 0
0 0 0
0 0 0
0 0 0
1 1 1
1 1 1
1 1 1
1 1 1
1 1 1
1 1 1
1 1 1
1 1 1
1 1 1
1 1 1
1 1 1
1 1 1
0 2 1
0 2 1
0 2 1
0 2 1
0 2 1
0 2 1
0 2 1
0 2 1
0 2 1
0 3 2
0 3 2
0 4 1
1 4 5
0 6 5
0 6 5
0 5 1
0 5 1
0 3 2
0 2 2
1 2 3
0 2 4
0 8 14
14 29 40
39 51 61
68 87 100
88 109 125
93 116 131
90 113 128
81 106 120
84 109 126
85 113 132
82 115 132
79 113 132
79 114 134
79 114 136
79 114 136
77 115 136
77 116 137
77 116 139
77 116 139
77 116 139
77 116 139
77 116 139
77 116 139
77 116 139
77 116 139
77 116 139
77 116 139
77 116 139
77 116 139
77 116 139
77 116 139
77 116 139
77 116 139
77 116 139
77 116 139
77 116 139
77 116 139
77 116 139
77 116 139
77 116 139
77 116 139
77 116 139
77 116 139
77 116 139
77 116 139
77 116 138
77 117 137
77 117 137
77 117 137
75 116 136
73 115 135
74 116 136
78 118 139
82 120 140
82 120 140
78 118 139
74 116 136
73 115 135
75 118 138
82 120 140
82 120 140
82 120 140
78 118 139
82 120 140
86 122 140
89 118 136
81 106 120
62 77 90
39 51 61
12 20 29
0 4 16
0 1 13
2 4 11
2 4 11
5 6 9
4 1 5
3 0 3
3 0 3
6 1 4
6 1 4
6 1 4
0 8 14
1 6 12
0 6 13
0 12 19
12 20 29
31 51 61
68 87 100
88 109 125
95 118 134
88 109 125
81 106 120
77 107 124
85 113 132
87 124 142
86 121 140
76 113 132
76 113 132
77 115 134
77 116 134
77 115 134
77 115 134
76 116 136
76 116 136
76 116 136
76 116 136
77 117 137
77 117 137
77 117 137
77 117 137
77 117 137
77 117 139
78 116 138
78 116 138
78 115 137
79 114 138
80 115 137
80 115 137
83 113 135
83 113 135
83 113 135
85 113 132
90 116 132
90 113 128
71 97 112
47 64 75
14 29 40
0 4 16
0 1 10
0 4 16
2 10 15
0 4 9
0 1 5
0 2 4
0 2 3
0 2 2
0 2 2
1 1 1
0 1 1
1 1 0
1 1 1
1 1 1
1 1 1
1 1 1
2 1 1
2 1 1
2 1 1
1 1 1
1 1 1
1 1 1
1 1 1
1 1 1
1 1 1
1 1 1
1 1 1
1 1 1
1 1 1
1 1 1
1 1 1
1 1 1
1 1 1
1 1 1
1 1 1
1 1 1
1 1 1
1 1 1
1 1 1
1 1 1
1 1 1
1 1 1
1 1 1
1 1 1
1 1 1
1 1 1
1 1 1
1 1 1
1 1 1
1 1 1
1 1 1
1 1 1
1 1 1
2 2 2
2 2 2
2 2 2
2 2 2
2 2 2
2 2 2
2 2 2
2 2 2
3 4 2
3 4 2
3 4 2
3 4 2
3 4 2
3 4 2
4 1 2
3 4 2
5 6 9
5 6 9
5 4 5
3 4 6
5 6 9
23 29 39
53 72 83
88 109 125
97 121 136
90 113 128
81 110 128
83 113 135
82 113 136
80 115 140
78 115 142
74 114 140
74 114 140
75 116 139
73 117 138
75 116 137
74 116 136
74 116 136
73 117 136
73 117 136
73 117 136
74 116 136
74 116 136
74 116 136
74 116 136
74 116 136
74 117 135
74 117 135
74 117 135
74 116 136
74 116 136
74 116 136
74 116 136
74 116 136
74 116 136
74 116 136
74 116 136
74 116 136
74 116 136
74 116 136
74 116 136
74 116 136
74 116 136
74 116 136
75 116 134
77 116 134
79 115 132
89 120 137
97 124 139
81 101 115
39 51 61
0 0 7
0 0 0
2 0 0
3 4 2
0 3 0
0 4 1
0 4 1
0 3 2
0 2 3
0 1 4
0 1 5
0 1 5
0 2 3
0 2 3
0 2 3
0 2 3
0 2 3
0 2 3
0 2 3
0 2 3
0 2 3
0 2 3
0 2 3
0 2 3
0 2 3
0 2 3
0 2 3
0 2 3
0 1 1
0 0 0
0 0 0
0 0 0
0 0 0
0 0 0
0 0 0
0 0 0
0 0 0
0 0 0
0 0 0
0 0 0
0 0 0
0 0 0
0 0 0
0 0 0
0 0 0
0 0 0
0 0 0
0 0 0
0 0 0
0 0 0
0 0 0
0 0 0
0 0 0
0 0 0
0 0 0
0 0 0
0 0 0
0 0 0
0 0 0
0 0 0
0 0 2
0 2 4
1 4 5
0 0 3
0 0 5
6 12 17
24 35 46
47 64 75
81 101 115
93 116 131
93 116 131
85 113 132
83 113 135
82 113 136
80 115 140
78 115 142
78 115 142
77 116 142
77 116 142
77 114 140
77 114 140
77 114 138
77 114 138
77 114 138
77 114 138
77 114 138
77 114 138
77 114 138
77 114 138
77 114 138
77 114 138
77 114 138
77 114 138
77 114 138
77 114 138
77 114 138
77 114 138
77 114 138
77 114 138
77 114 138
77 114 138
77 114 138
77 114 138
77 114 138
77 114 138
77 114 138
77 114 138
76 115 138
76 115 138
76 115 138
76 115 138
75 116 138
74 116 138
74 116 138
74 116 138
73 116 139
72 117 138
72 117 138
72 117 138
73 117 138
74 116 138
74 116 138
74 116 138
74 116 138
74 116 138
74 116 138
74 116 138
74 116 138
75 116 138
76 115 138
76 115 138
76 115 138
76 115 138
76 115 138
76 115 138
76 115 138
76 115 138
77 114 138
77 114 138
77 114 138
77 114 138
77 114 138
77 114 138
77 114 138
77 114 138
77 114 138
77 114 138
77 114 138
77 114 138
77 114 138
77 114 138
77 114 138
77 114 138
77 114 138
77 114 138
77 114 138
77 114 138
77 114 138
77 114 138
77 114 138
77 114 138
77 115 139
77 116 138
78 116 138
80 115 137
79 113 135
82 113 130
90 116 132
90 113 128
79 97 109
53 72 83
24 35 46
2 10 15
0 0 3
0 3 5
0 6 5
0 2 2
0 0 0
0 0 0
0 0 0
0 0 0
0 0 0
0 0 0
0 0 0
0 0 0
0 0 0
0 0 0
1 0 0
1 0 0
1 0 0
1 0 0
1 0 0
1 0 0
1 0 0
1 0 0
1 1 1
1 1 1
1 1 1
1 1 1
1 1 1
1 1 1
1 1 1
1 1 1
1 1 1
1 1 1
1 1 1
1 1 1
0 2 1
0 2 1
0 2 1
0 2 1
0 2 1
0 2 1
0 2 1
0 2 1
0 2 1
0 3 2
0 4 1
1 4 1
1 4 5
1 4 5
1 4 5
0 5 1
0 6 5
3 4 6
1 4 5
3 4 6
6 12 17
24 35 46
39 51 61
62 77 90
81 101 115
97 121 136
97 121 136
88 109 125
81 101 115
77 107 124
82 115 132
82 115 132
79 114 134
79 114 134
79 114 136
76 114 136
77 115 137
77 116 138
77 116 139
77 116 139
75 116 139
75 116 139
77 116 139
77 116 139
77 116 139
77 116 139
77 116 139
77 116 139
77 116 139
77 116 139
77 116 139
77 116 139
77 116 139
77 116 139
77 116 139
77 116 139
77 116 139
77 116 139
77 116 139
77 116 139
77 116 139
77 116 139
77 116 139
77 116 139
77 116 139
77 116 139
77 116 138
77 117 139
77 117 139
77 117 139
75 116 137
73 115 135
75 116 137
75 118 138
78 118 139
78 118 139
75 118 138
75 116 137
73 117 138
75 118 138
82 120 140
82 120 140
82 120 140
82 120 140
82 120 140
87 124 142
85 113 132
70 92 106
47 64 75
24 35 46
4 17 26
0 1 13
0 1 13
6 8 13
6 8 13
6 8 13
4 1 5
4 1 5
3 0 3
6 1 4
6 1 4
6 1 4
0 8 14
0 4 9
0 6 13
4 17 26
39 51 61
68 87 100
88 109 125
93 116 131
97 121 136
90 116 132
81 110 128
77 107 124
83 113 135
86 121 140
86 121 140
79 113 135
75 113 134
77 115 136
77 116 137
76 116 136
76 116 136
76 116 136
76 116 136
76 116 136
76 116 136
77 117 137
77 117 137
77 117 137
77 117 137
77 116 138
77 116 139
77 116 139
77 116 139
77 115 139
78 115 139
79 114 138
80 115 137
82 115 136
82 113 136
83 113 135
83 113 135
85 113 132
85 113 132
90 113 128
79 97 109
47 64 75
4 17 26
0 1 13
2 10 15
0 12 19
0 4 9
0 1 6
0 2 4
0 2 4
0 2 3
0 2 3
0 2 2
0 2 1
1 2 0
1 2 0
1 2 0
1 2 0
2 1 0
3 1 0
3 1 0
3 1 0
2 1 1
1 1 1
1 1 1
1 1 1
1 1 1
1 1 1
1 1 1
1 1 1
1 1 1
1 1 1
1 1 1
1 1 1
1 1 1
1 1 1
1 1 1
1 1 1
1 1 1
1 1 1
1 1 1
1 1 1
1 1 1
1 1 1
1 1 1
1 1 1
1 1 1
1 1 1
1 1 1
1 1 1
1 1 1
1 1 1
1 1 1
1 1 1
1 1 1
1 1 1
2 2 2
2 2 2
2 2 2
2 2 2
2 2 2
2 2 2
2 2 2
2 2 2
2 2 2
2 2 2
2 2 2
2 2 2
2 2 2
2 2 2
3 4 2
5 4 5
4 1 2
4 1 2
5 6 9
6 8 13
0 0 0
3 4 6
31 43 53
68 87 100
88 109 125
90 113 128
84 109 126
83 113 135
79 113 135
80 115 140
78 115 142
77 116 142
77 116 142
75 116 141
75 116 137
74 116 136
74 116 136
73 117 136
72 117 136
72 117 136
72 117 136
73 117 136
74 116 136
74 116 136
74 116 136
74 117 135
74 117 135
74 117 135
74 117 135
74 117 135
74 116 136
74 116 136
74 116 136
74 116 136
74 116 136
74 116 136
74 116 136
74 116 136
74 116 136
74 116 136
74 116 136
74 116 136
74 116 136
74 116 136
75 116 134
77 116 134
79 115 132
89 120 137
97 124 139
81 101 115
39 51 61
0 0 7
0 0 0
2 0 0
3 4 2
0 3 0
0 4 1
0 4 1
0 3 2
0 2 3
0 1 4
0 1 5
0 1 5
0 2 3
0 2 3
0 2 3
0 2 3
0 2 3
0 2 3
0 2 3
0 2 3
0 2 3
0 2 3
0 2 3
0 2 3
0 2 3
0 2 3
0 2 3
0 2 3
0 1 1
0 0 0
0 0 0
0 0 0
0 0 0
0 0 0
0 0 0
0 0 0
0 0 0
0 0 0
0 0 0
0 0 0
0 0 0
0 0 0
0 0 0
0 0 0
0 0 0
0 0 0
0 0 0
0 0 0
0 0 0
0 0 0
0 0 0
0 0 0
0 0 0
0 0 0
0 0 0
0 0 0
0 0 0
0 0 0
0 0 0
0 0 0
0 0 2
0 2 4
1 4 5
0 0 3
0 1 5
6 12 17
24 35 46
47 64 75
81 101 115
93 116 131
93 116 131
85 113 132
83 113 135
82 113 136
80 115 140
78 115 142
78 115 142
78 115 142
77 114 140
77 114 140
77 114 140
77 114 138
77 114 138
77 114 138
77 114 138
77 114 138
77 114 138
77 114 138
77 114 138
77 114 138
77 114 138
77 114 138
77 114 138
77 114 138
77 114 138
77 114 138
77 114 138
77 114 138
77 114 138
77 114 138
77 114 138
77 114 138
77 114 138
77 114 138
77 114 138
77 114 138
77 114 138
76 115 138
76 115 138
76 115 138
76 115 138
75 116 138
74 116 138
74 116 138
74 116 138
73 116 139
72 117 138
72 117 138
72 117 138
73 117 138
74 116 138
74 116 138
74 116 138
74 116 138
74 116 138
74 116 138
74 116 138
74 116 138
75 116 138
76 115 138
76 115 138
76 115 138
76 115 138
76 115 138
76 115 138
76 115 138
76 115 138
77 114 138
77 114 138
77 114 138
77 114 138
77 114 138
77 114 138
77 114 138
77 114 138
77 114 138
77 114 138
77 114 138
77 114 138
77 114 138
77 114 138
77 114 138
77 114 138
77 114 138
77 114 138
77 114 138
77 114 138
77 114 138
77 114 138
77 114 138
77 114 138
77 116 138
78 116 137
79 115 135
79 115 135
79 113 132
85 113 132
91 117 133
90 113 128
79 97 109
53 72 83
24 35 46
2 10 15
0 1 1
0 4 5
0 6 5
0 2 2
0 0 0
0 0 0
0 0 0
0 0 0
0 0 0
0 0 0
0 0 0
0 0 0
0 0 0
1 0 0
2 0 0
2 0 0
2 0 0
2 0 0
2 0 0
2 0 0
2 0 0
2 0 0
1 1 1
1 1 1
1 1 1
1 1 1
1 1 1
1 1 1
1 1 1
1 1 1
1 1 1
1 1 1
1 1 1
1 1 1
0 2 1
0 2 1
0 2 1
0 2 1
0 2 1
0 2 1
0 2 1
0 2 1
0 2 1
0 3 2
0 4 1
1 4 1
1 3 2
2 3 2
2 3 2
0 6 5
6 8 13
6 12 17
12 20 29
12 20 29
31 43 53
53 72 83
79 97 109
81 101 115
81 101 115
88 109 125
90 113 128
90 113 128
85 113 132
85 113 132
82 113 130
82 113 136
79 114 136
77 115 136
77 115 136
77 115 137
76 115 138
77 115 139
77 116 139
75 117 139
75 117 139
75 117 139
77 116 139
77 116 139
77 116 139
77 116 139
77 116 139
77 116 139
77 116 139
77 116 139
77 116 139
77 116 139
77 116 139
77 116 139
77 116 139
77 116 139
77 116 139
77 116 139
77 116 139
77 116 139
77 116 139
77 116 139
77 116 139
77 116 139
77 116 139
77 116 139
77 116 139
77 116 139
77 116 139
77 116 139
75 116 138
74 116 138
74 118 139
75 117 141
75 118 142
75 118 142
75 117 141
75 116 139
74 116 138
76 117 138
78 118 139
82 120 140
82 120 140
78 118 139
78 118 139
83 118 136
77 107 124
55 79 91
31 43 53
12 20 29
0 4 16
0 0 12
0 0 12
6 8 13
6 8 13
6 8 13
6 1 4
6 1 4
6 1 4
6 1 4
7 1 0
7 1 0
2 6 12
2 10 15
12 20 29
31 51 61
68 87 100
90 113 128
97 121 136
93 116 131
90 116 132
85 113 132
85 113 132
83 113 135
82 113 136
82 117 137
82 117 137
80 115 137
77 115 136
77 115 136
76 116 136
76 116 136
76 116 136
76 116 136
76 116 136
76 116 136
76 116 136
77 117 137
77 117 137
77 117 137
77 117 137
77 116 138
77 116 139
77 116 139
77 116 139
77 115 139
78 115 139
79 114 138
79 114 138
80 115 137
80 115 137
83 113 135
83 113 135
81 110 128
77 107 124
90 116 132
93 116 131
70 92 106
31 51 61
12 20 29
0 4 16
0 1 10
0 2 9
1 4 10
0 3 5
0 1 5
0 1 1
0 1 1
0 2 2
1 3 2
3 2 0
1 2 0
1 2 0
1 2 0
2 0 0
3 0 0
3 1 0
3 1 0
2 1 1
1 1 1
1 1 1
1 1 1
1 1 1
1 1 1
1 1 1
1 1 1
1 1 1
1 1 1
1 1 1
1 1 1
1 1 1
1 1 1
1 1 1
1 1 1
1 1 1
1 1 1
1 1 1
1 1 1
1 1 1
1 1 1
1 1 1
1 1 1
1 1 1
1 1 1
1 1 1
1 1 1
1 1 1
1 1 1
1 1 1
1 1 1
1 1 1
1 1 1
2 2 2
2 2 2
2 2 2
2 2 2
2 2 2
2 2 2
2 2 2
2 2 2
2 2 2
2 2 2
2 2 2
2 2 2
2 2 2
2 2 2
3 4 2
4 1 2
2 0 0
3 0 0
5 6 9
6 8 13
2 1 1
0 0 0
12 20 29
39 51 61
68 87 100
81 106 120
90 113 128
85 113 132
79 113 135
77 113 139
77 114 140
78 115 142
77 116 142
75 116 141
75 116 137
74 116 136
74 116 136
73 117 136
72 117 136
72 117 136
72 117 136
73 117 136
74 116 136
74 116 136
74 116 136
74 117 135
74 117 135
74 117 135
74 117 135
74 117 135
74 116 136
74 116 136
74 116 136
74 116 136
74 116 136
74 116 136
74 116 136
74 116 136
74 116 136
74 116 136
74 116 136
74 116 136
74 116 136
74 116 136
75 116 134
77 116 134
79 115 132
89 120 137
97 124 139
81 101 115
39 51 61
0 0 7
0 0 0
2 0 0
3 4 2
0 3 0
0 4 1
0 4 1
0 3 2
0 2 3
0 1 4
0 1 5
0 1 5
0 2 3
0 2 3
0 2 3
0 2 3
0 2 3
0 2 3
0 2 3
0 2 3
0 2 3
0 2 3
0 2 3
0 2 3
0 2 3
0 2 3
0 2 3
0 2 3
0 1 1
0 0 0
0 0 0
0 0 0
0 0 0
0 0 0
0 0 0
0 0 0
0 0 0
0 0 0
0 0 0
0 0 0
0 0 0
0 0 0
0 0 0
0 0 0
0 0 0
0 0 0
0 0 0
0 0 0
0 0 0
0 0 0
0 0 0
0 0 0
0 0 0
0 0 0
0 0 0
0 0 0
0 0 0
0 0 0
0 0 0
0 0 0
0 0 2
0 2 4
1 4 5
0 0 3
0 1 5
6 12 17
24 35 46
47 64 75
81 101 115
93 116 131
93 116 131
85 113 132
85 113 132
82 113 136
82 116 140
80 115 140
78 115 142
78 115 142
77 114 140
77 114 140
77 114 140
77 114 138
79 114 138
79 114 138
79 114 138
79 114 138
79 114 138
79 114 138
79 114 138
79 114 138
79 114 138
79 114 138
79 114 138
79 114 138
79 114 138
79 114 138
79 114 138
77 114 138
77 114 138
77 114 138
77 114 138
77 114 138
77 114 138
77 114 138
77 114 138
77 114 138
77 114 138
76 115 138
76 115 138
76 115 138
76 115 138
75 116 138
75 116 138
75 116 138
75 116 138
74 116 138
72 117 138
72 117 138
72 117 138
73 117 138
75 116 138
75 116 138
75 116 138
75 116 138
75 116 138
75 116 138
75 116 138
75 116 138
76 115 138
76 115 138
76 115 138
76 115 138
76 115 138
76 115 138
76 115 138
76 115 138
76 115 138
77 114 138
77 114 138
79 114 138
79 114 138
79 114 138
79 114 138
79 114 138
79 114 138
79 114 138
79 114 138
79 114 138
79 114 138
79 114 138
79 114 138
79 114 138
79 114 138
79 114 138
79 114 138
79 114 138
79 114 138
79 114 138
79 114 138
79 114 138
79 114 138
77 116 138
78 116 137
80 115 137
82 115 136
82 115 132
85 113 132
91 117 133
93 116 131
79 97 109
53 72 83
24 35 46
2 10 15
0 1 1
0 4 5
0 6 5
0 1 1
0 0 0
0 0 0
0 0 0
0 0 0
0 0 0
0 0 0
0 0 0
0 0 0
0 0 0
1 0 1
2 0 1
2 0 1
2 0 1
2 0 1
2 0 1
2 0 1
2 0 1
2 0 1
1 1 2
1 1 2
1 1 2
1 1 1
1 1 1
1 1 1
1 1 1
1 1 1
1 1 2
1 1 2
1 1 2
1 1 2
0 2 2
0 2 2
0 2 1
0 2 1
0 2 2
0 2 3
0 3 2
1 3 2
1 3 2
1 3 2
0 3 2
0 0 0
0 0 0
0 0 0
0 0 0
5 6 9
12 20 29
24 35 46
31 43 53
39 51 61
62 77 90
81 101 115
93 116 131
93 116 131
88 109 125
81 106 120
84 109 126
90 116 132
93 121 136
89 118 136
79 113 132
79 113 135
79 114 136
77 115 136
77 115 136
77 115 137
76 115 138
77 115 139
75 116 139
75 117 139
75 117 139
75 117 139
77 116 139
77 116 139
77 116 139
77 116 139
77 116 139
77 116 139
77 116 139
77 116 139
77 116 139
77 116 139
77 116 139
77 116 139
77 116 139
77 116 139
77 116 139
77 116 139
77 116 139
77 116 139
77 116 139
77 116 139
77 116 139
77 116 139
77 116 139
77 116 139
77 116 139
77 116 139
77 116 139
77 116 139
75 116 138
74 116 138
74 118 139
75 117 141
75 118 142
75 118 142
75 117 141
75 116 139
75 116 137
75 116 137
78 116 138
80 117 140
78 116 138
72 113 134
71 110 131
77 111 130
71 97 112
47 64 75
14 29 40
0 4 16
0 4 16
0 1 13
0 0 12
6 8 13
6 8 13
6 8 13
6 1 4
6 1 4
6 1 4
6 1 4
7 1 0
7 1 0
0 1 10
4 17 26
39 51 61
68 87 100
90 113 128
97 121 136
97 121 136
90 116 132
83 113 128
82 113 130
83 118 136
86 121 140
82 113 136
76 113 132
76 114 136
80 117 140
80 117 140
76 116 136
76 115 135
76 116 136
76 116 136
76 116 136
76 116 136
76 116 136
76 116 136
77 117 137
77 117 137
77 117 137
77 117 137
77 116 138
77 116 139
77 116 139
77 116 139
78 115 139
78 115 139
78 115 139
78 115 139
79 114 138
80 115 137
82 117 137
82 115 136
77 111 130
77 107 124
85 113 132
95 118 134
90 113 128
68 87 100
31 51 61
0 12 19
0 0 7
1 1 8
2 6 12
0 4 9
0 1 5
0 0 1
0 1 1
1 4 5
1 4 5
3 4 2
3 2 0
1 2 0
1 2 0
2 0 0
2 0 0
3 1 0
3 1 0
2 1 0
1 2 0
1 2 0
1 1 1
1 1 1
1 1 1
1 1 1
1 1 1
1 1 1
1 1 1
1 1 1
1 1 1
1 1 1
1 1 1
1 1 1
1 1 1
1 1 1
1 1 1
1 1 1
1 1 1
1 1 1
1 1 1
1 1 1
1 1 1
1 1 1
1 1 1
1 1 1
1 1 1
1 1 1
1 1 1
1 1 1
1 1 1
1 1 1
1 1 1
2 2 2
2 2 2
2 2 2
2 2 2
2 2 2
2 2 2
2 2 2
2 2 2
2 2 2
2 2 2
2 2 2
2 2 2
2 2 2
2 2 2
2 1 2
2 1 1
1 1 0
2 0 0
4 1 2
4 1 2
5 4 5
1 4 5
2 1 7
6 12 17
39 51 61
68 87 100
88 109 125
85 113 132
79 113 132
76 112 136
76 112 136
77 114 140
77 116 142
75 116 139
73 117 138
73 117 136
73 117 136
72 117 136
72 117 136
72 117 136
72 117 136
73 117 136
74 116 136
74 116 136
74 116 136
74 117 135
74 117 135
74 117 135
74 117 135
74 117 135
74 116 136
74 116 136
74 116 136
74 116 136
74 116 136
74 116 136
74 116 136
74 116 136
74 116 136
74 116 136
74 116 136
74 116 136
74 116 136
74 116 136
75 116 134
77 116 134
79 115 132
89 120 137
97 124 139
81 101 115
39 51 61
0 0 7
0 0 0
2 0 0
3 4 2
0 3 0
0 3 0
0 3 0
0 3 2
0 2 3
0 1 4
0 1 5
0 1 5
0 2 3
0 2 3
0 2 3
0 2 3
0 2 3
0 2 3
0 2 3
0 2 3
0 2 3
0 2 3
0 2 3
0 2 3
0 2 3
0 2 3
0 2 3
0 2 3
0 1 1
0 0 0
0 0 0
0 0 0
0 0 0
0 0 0
0 0 0
0 0 0
0 0 0
0 0 0
0 0 0
0 0 0
0 0 0
0 0 0
0 0 0
0 0 0
0 0 0
0 0 0
0 0 0
0 0 0
0 0 0
0 0 0
0 0 0
0 0 0
0 0 0
0 0 0
0 0 0
0 0 0
0 0 0
0 0 0
0 0 0
0 0 1
0 0 2
1 1 5
1 4 5
0 0 3
0 1 6
6 12 17
24 35 46
47 64 75
81 101 115
93 116 131
93 116 131
85 113 132
85 113 132
83 113 135
82 113 136
82 116 140
80 115 140
80 115 140
80 115 140
79 114 138
79 114 138
79 114 138
79 114 138
79 114 138
79 114 138
79 114 138
79 114 138
79 114 138
79 114 138
79 114 138
79 114 138
79 114 138
79 114 138
79 114 138
79 114 138
79 114 136
79 114 136
77 115 136
77 115 136
77 115 136
77 115 136
77 115 136
77 115 136
77 115 136
77 115 136
77 115 136
77 115 136
76 116 136
76 116 136
76 116 136
76 116 136
76 116 136
76 116 136
76 116 136
76 116 136
75 116 136
74 116 136
74 116 136
74 116 136
75 116 136
76 116 136
76 116 136
76 116 136
76 116 136
76 116 136
76 116 136
76 116 136
76 116 136
77 115 136
77 115 136
77 115 136
77 115 136
77 115 136
77 115 136
77 115 136
77 115 136
77 115 136
77 115 136
77 115 136
79 114 136
79 114 136
79 114 136
79 114 136
79 114 136
79 114 136
79 114 136
79 114 136
79 114 136
79 114 136
79 114 136
79 114 136
79 114 136
79 114 136
79 114 136
79 114 136
79 114 136
79 114 136
79 114 136
79 114 136
79 114 136
79 114 136
79 114 138
80 115 137
82 115 136
82 115 132
82 113 130
85 113 132
91 117 133
93 116 131
81 101 115
53 72 83
24 35 46
2 10 15
0 2 2
0 5 1
0 6 5
0 1 1
0 0 0
0 0 0
0 0 0
0 0 0
0 0 0
0 0 0
0 0 0
0 0 0
0 0 1
0 0 2
0 0 2
0 0 2
0 0 2
0 0 2
0 0 2
0 0 2
0 0 2
0 0 2
1 1 3
1 1 3
1 1 3
1 1 3
1 1 2
1 1 2
0 2 2
0 2 3
0 2 3
0 2 3
0 2 3
0 2 3
0 2 3
0 2 3
0 2 3
0 2 2
0 2 4
1 1 8
1 4 5
1 4 5
3 4 6
3 4 6
3 4 6
0 1 3
0 0 0
0 0 0
0 3 5
12 20 29
31 43 53
47 64 75
62 77 90
79 97 109
88 109 125
93 116 131
97 121 136
97 124 139
95 118 134
90 113 128
83 113 128
85 116 133
89 120 137
83 118 136
79 114 134
77 115 134
77 115 136
77 115 137
76 115 138
76 115 138
76 115 138
75 116 138
75 117 139
75 117 139
75 117 139
75 117 139
77 116 139
77 116 139
77 116 139
77 116 139
77 116 139
77 116 139
77 116 139
77 116 139
77 116 139
77 116 139
77 116 139
77 116 139
77 116 139
77 116 139
77 116 139
77 116 139
77 116 139
77 116 139
77 116 139
77 116 139
77 116 139
77 116 139
77 116 139
77 116 139
77 116 139
77 116 139
77 116 139
77 116 139
75 116 138
74 116 138
74 118 139
75 117 141
75 118 142
75 118 142
75 117 141
76 117 136
76 115 135
76 114 136
77 115 136
80 115 137
76 113 132
70 105 125
70 105 125
71 97 112
68 87 100
31 43 53
0 4 16
0 0 12
0 4 16
6 8 13
2 4 11
6 8 13
6 8 13
6 8 13
6 1 4
6 1 4
6 1 4
6 1 4
7 1 0
7 1 0
0 0 9
12 20 29
53 72 83
93 116 131
97 124 139
95 118 134
91 117 133
85 113 132
82 113 130
79 113 132
83 118 136
86 121 140
79 115 135
71 110 131
75 113 134
80 117 140
80 117 140
75 116 137
75 116 136
75 116 137
76 116 136
76 116 136
76 116 136
76 116 136
76 116 136
77 117 137
77 117 137
77 117 137
77 117 137
77 116 138
77 116 138
77 116 138
77 116 138
78 115 139
78 115 139
78 115 139
78 115 139
79 114 138
80 115 137
82 117 137
82 115 136
77 111 130
77 107 124
77 111 130
85 116 133
89 120 137
81 106 120
55 79 91
24 35 46
6 12 17
0 0 9
1 1 8
1 1 8
1 4 10
5 6 9
5 6 9
5 6 9
3 4 6
3 4 2
2 3 2
0 1 0
1 2 0
3 2 1
4 2 0
4 2 0
3 1 0
2 1 0
1 2 0
1 2 0
1 1 1
1 1 1
1 1 1
1 1 1
1 1 1
1 1 1
1 1 1
1 1 1
1 1 1
1 1 1
1 1 1
1 1 1
1 1 1
1 1 1
1 1 1
1 1 1
1 1 1
1 1 1
1 1 1
1 1 1
1 1 1
1 1 1
1 1 1
1 1 1
1 1 1
1 1 1
1 1 1
1 1 1
1 1 1
1 1 1
1 1 1
2 2 2
2 2 2
2 2 2
2 2 2
2 2 2
2 2 2
2 2 2
2 2 2
2 2 2
2 2 2
2 2 2
2 2 2
2 2 2
2 2 2
0 1 1
0 1 1
1 1 1
1 1 1
1 0 0
1 0 1
5 6 9
6 8 13
0 0 4
0 0 6
14 29 40
47 64 75
71 97 112
85 113 132
89 118 136
82 113 136
82 113 136
80 115 140
77 116 140
75 116 139
73 117 136
72 117 136
72 117 136
72 117 136
72 117 136
72 117 136
72 117 136
73 117 136
74 116 136
74 116 136
74 116 136
74 117 135
74 117 135
74 117 135
74 117 135
74 117 135
74 116 136
74 116 136
74 116 136
74 116 136
74 116 136
74 116 136
74 116 136
74 116 136
74 116 136
74 116 136
74 116 136
74 116 136
74 116 136
74 116 136
75 116 134
77 116 134
79 115 132
89 120 137
97 124 139
81 101 115
39 51 61
0 0 7
0 0 0
2 0 1
3 4 2
0 3 0
0 3 0
0 3 0
0 3 2
0 2 4
0 1 5
0 1 5
0 1 5
0 2 3
0 2 3
0 2 2
0 2 2
0 2 2
0 2 2
0 2 2
0 2 2
0 2 2
0 2 2
0 2 2
0 2 2
0 2 2
0 2 2
0 2 2
0 2 2
0 1 1
0 0 0
0 0 0
0 0 0
0 0 0
0 0 0
0 0 0
0 0 0
0 0 0
0 0 0
0 0 0
0 0 0
0 0 0
0 0 0
0 0 0
0 0 0
0 0 0
0 0 0
0 0 0
0 0 0
0 0 0
0 0 0
0 0 0
0 0 0
0 0 0
0 0 0
0 0 0
0 0 0
0 0 0
0 0 0
0 0 0
0 0 1
0 0 2
1 1 5
0 1 6
0 0 3
0 3 5
6 12 17
24 35 46
47 64 75
79 97 109
90 113 128
93 116 131
84 109 126
85 113 132
85 113 132
83 113 135
82 113 136
82 113 136
79 114 138
79 114 138
79 113 135
79 113 135
79 113 135
79 113 135
79 113 135
79 113 135
79 113 135
79 113 135
79 113 135
79 113 135
79 113 135
79 113 135
79 113 135
79 113 135
79 113 135
79 113 135
79 113 135
79 113 135
77 115 134
77 115 134
77 115 134
77 115 134
77 115 134
77 115 134
77 115 134
76 115 135
76 115 135
76 115 135
76 115 135
76 115 135
76 115 135
76 115 135
76 115 135
76 115 135
76 115 135
76 115 135
76 115 135
76 115 135
76 115 135
76 115 135
76 115 135
76 115 135
76 115 135
76 115 135
76 115 135
76 115 135
76 115 135
76 115 135
76 115 135
76 114 136
76 114 136
76 114 136
76 114 136
76 114 136
76 114 136
76 114 136
76 114 136
76 114 136
77 115 134
78 116 135
79 113 135
79 113 135
79 113 135
79 113 135
79 113 135
79 113 135
79 113 135
79 113 135
79 113 135
79 113 135
79 113 135
79 113 135
79 113 135
79 113 135
79 113 135
79 113 135
79 113 135
79 113 135
79 113 135
79 113 135
79 113 135
79 114 134
79 114 136
79 114 136
82 113 136
82 115 132
81 110 128
81 110 128
90 113 128
88 109 125
79 97 109
47 64 75
24 35 46
2 10 15
0 3 2
0 6 5
0 6 5
0 4 5
0 2 1
0 1 1
0 1 1
0 1 1
1 1 1
1 1 1
1 1 1
0 0 1
0 0 2
0 0 2
0 0 2
0 0 2
0 0 2
0 0 2
0 0 2
0 0 2
0 0 2
0 0 2
1 1 3
1 1 3
1 1 3
1 1 5
1 1 5
1 1 5
0 3 5
0 2 4
0 2 4
0 2 4
0 2 4
0 2 4
0 2 3
0 2 4
1 4 5
1 1 5
0 1 6
0 0 7
0 0 6
0 0 6
0 0 6
0 0 9
0 4 12
6 12 17
12 20 29
12 20 29
24 35 46
39 51 61
53 72 83
68 87 100
81 101 115
93 116 131
95 118 134
93 116 131
93 116 131
97 121 136
93 121 136
85 116 133
82 113 130
85 116 133
83 118 136
82 115 136
79 114 134
76 115 135
77 115 136
77 115 137
76 115 138
76 115 138
76 115 138
75 116 138
75 117 139
75 116 139
75 116 139
75 116 138
77 116 138
77 116 138
77 116 138
77 116 138
77 116 139
77 116 139
77 116 139
77 116 139
77 116 139
77 116 139
77 116 139
77 116 139
77 116 139
77 116 139
77 116 139
77 116 139
77 116 139
77 116 139
77 116 139
77 116 139
77 116 139
77 116 140
77 116 140
77 116 140
77 116 139
77 116 139
75 116 139
75 116 139
75 116 139
75 116 138
75 116 139
75 117 141
75 118 142
75 118 142
75 117 141
76 117 136
76 115 135
75 113 134
79 114 134
79 115 135
82 115 132
77 111 130
70 105 125
68 87 100
47 64 75
14 29 40
0 0 12
0 0 9
6 8 13
6 8 13
2 4 11
5 6 9
5 6 9
5 6 9
6 1 4
6 1 4
6 1 4
4 1 2
4 0 0
4 0 0
0 0 9
14 29 40
62 77 90
97 121 136
97 124 139
90 113 128
85 113 132
82 115 132
79 114 134
77 115 134
78 118 139
78 118 139
77 117 137
76 114 136
76 115 138
78 117 140
78 117 140
77 116 138
77 116 138
77 116 138
77 116 138
77 117 137
77 117 137
77 117 137
77 117 137
77 117 137
77 117 137
77 117 137
77 117 137
77 117 137
77 117 137
77 117 137
77 117 137
77 116 138
77 116 139
77 116 139
77 116 139
78 116 138
78 116 137
78 116 137
78 116 137
76 113 132
77 111 130
77 111 130
79 113 132
85 116 133
79 113 127
71 97 112
53 72 83
23 41 52
0 4 16
0 0 4
1 1 5
6 12 17
6 12 17
6 12 17
6 12 17
5 6 9
3 4 6
2 3 2
0 1 0
1 2 0
3 4 2
5 4 5
5 4 5
4 2 0
2 1 0
2 0 0
2 0 0
2 0 0
1 0 0
0 0 0
0 0 0
0 0 0
0 0 0
1 1 1
1 1 1
1 1 1
1 1 1
1 1 1
1 1 1
1 1 1
1 1 1
1 1 1
1 1 1
1 1 1
1 1 1
1 1 1
1 1 1
1 1 1
1 1 1
1 1 1
1 1 1
1 1 1
1 1 1
1 1 1
1 1 1
1 1 1
1 1 1
1 1 1
2 2 2
2 2 2
2 2 2
2 2 2
2 2 2
2 2 2
1 1 1
1 1 1
2 2 2
2 2 2
1 1 1
1 1 1
0 2 1
0 2 1
0 1 0
0 1 0
0 1 1
0 2 2
0 1 3
0 1 4
1 4 5
1 4 10
0 0 7
0 0 9
0 12 19
23 41 52
53 72 83
81 101 115
91 117 133
93 121 136
89 118 136
86 121 140
82 118 141
78 118 139
73 118 135
70 117 136
70 117 136
70 117 136
72 117 136
72 117 136
72 117 136
72 117 136
72 117 136
72 117 136
72 117 136
72 117 135
74 117 135
74 117 135
74 117 135
74 117 135
74 116 136
74 116 136
74 116 136
74 116 136
74 116 136
74 116 136
74 116 136
74 116 136
74 116 136
74 116 136
74 116 136
74 116 136
74 116 136
74 116 136
75 116 134
77 116 134
79 114 134
89 120 137
97 124 139
81 101 115
39 51 61
0 0 7
0 0 0
2 0 2
3 4 2
0 2 0
0 3 0
0 3 0
0 2 2
0 1 5
0 1 6
0 1 5
0 1 4
0 2 3
0 2 2
0 2 1
0 2 1
0 2 1
0 2 1
0 2 1
0 2 1
0 2 1
0 2 1
0 2 1
0 2 1
0 2 1
0 2 1
0 2 1
0 2 1
0 1 0
0 0 0
0 0 0
0 0 0
0 0 0
0 0 0
0 0 0
0 0 0
0 0 0
0 0 0
0 0 0
0 0 0
0 0 0
0 0 0
0 0 0
0 0 0
0 0 0
0 0 0
0 0 0
0 0 0
0 0 0
0 0 0
0 0 0
0 0 0
0 0 0
0 0 0
0 0 0
0 0 0
0 0 0
0 1 0
0 1 0
0 0 1
0 0 2
1 1 5
0 1 6
0 1 5
0 4 9
6 12 17
24 35 46
47 64 75
79 97 109
88 109 125
90 113 128
84 109 126
84 109 126
83 113 128
82 113 130
82 113 130
79 113 132
79 113 132
79 113 132
79 113 132
79 113 132
79 113 132
79 113 132
79 113 132
79 113 132
79 113 132
79 113 132
79 113 132
79 113 132
79 113 132
79 113 132
79 113 132
79 113 132
79 113 132
79 113 132
79 113 135
79 113 135
75 113 134
75 113 134
75 113 134
79 113 135
79 113 135
79 113 135
77 115 134
75 113 134
75 113 134
75 113 134
75 113 134
75 113 134
75 113 134
75 113 134
75 113 134
75 113 134
75 113 134
75 113 134
75 113 134
75 113 134
75 113 134
75 113 134
75 113 134
75 113 134
75 113 134
75 113 134
75 113 134
75 113 134
75 113 134
75 113 134
75 113 134
75 113 134
75 113 134
75 113 134
75 113 134
75 113 134
75 113 134
75 113 134
75 113 134
75 113 134
75 113 134
79 113 135
79 113 135
79 113 135
79 113 135
79 113 135
79 113 135
79 113 135
79 113 135
79 113 135
79 113 135
79 113 135
79 113 135
79 113 135
79 113 135
79 113 135
79 113 135
79 113 135
79 113 135
79 113 135
79 113 135
79 113 135
79 113 135
79 113 135
82 113 136
79 113 132
79 113 132
81 110 128
81 110 128
81 106 120
84 109 126
81 106 120
70 92 106
47 64 75
24 35 46
2 10 15
0 3 2
0 6 5
2 10 15
1 6 12
0 6 5
0 4 5
0 4 5
1 4 5
1 2 3
1 2 3
1 2 3
1 1 3
0 0 4
0 0 3
0 0 3
0 0 2
0 0 2
0 0 2
0 0 2
0 0 2
0 0 3
0 0 2
0 0 3
0 0 3
0 1 4
0 1 6
1 4 10
1 4 10
1 4 5
1 4 5
1 1 5
1 4 5
1 4 5
1 4 5
1 4 5
3 4 6
1 4 10
2 4 11
0 4 12
0 1 13
0 0 12
0 0 12
0 0 12
0 4 16
4 17 26
24 35 46
39 51 61
62 77 90
68 87 100
70 92 106
81 101 115
90 113 128
93 116 131
90 113 128
90 113 128
85 113 132
85 116 133
85 116 133
82 115 132
82 115 132
79 115 132
79 115 132
79 115 135
78 116 135
77 115 136
76 116 136
76 116 136
75 116 137
76 115 138
76 115 138
76 115 138
76 115 138
76 115 138
76 115 138
76 115 138
77 115 137
75 116 137
75 116 137
75 116 137
75 116 137
76 115 138
76 115 138
76 115 138
76 115 138
76 115 138
76 115 138
76 115 138
76 115 138
77 116 139
77 116 139
77 116 139
77 116 139
77 116 139
77 116 139
77 116 139
77 116 139
77 116 140
77 116 142
77 116 142
77 116 142
75 116 141
75 117 141
75 117 141
75 117 141
75 116 141
76 115 140
77 116 140
77 116 142
78 117 140
77 116 142
77 117 139
77 117 137
77 115 134
79 114 134
82 115 136
83 118 136
89 120 137
93 121 136
77 107 124
53 72 83
14 29 40
0 4 16
0 0 9
2 1 7
3 1 6
3 1 6
3 1 6
3 1 6
4 1 5
4 1 5
6 1 4
6 1 4
4 1 2
4 1 2
4 0 0
4 0 0
0 0 9
14 29 40
62 77 90
97 121 136
93 121 136
79 113 127
79 113 127
82 115 132
77 116 134
77 117 135
76 117 136
75 116 137
77 117 139
78 117 140
77 117 139
75 116 139
77 116 139
77 116 139
77 116 139
77 116 139
77 116 138
77 117 137
77 117 137
77 117 137
77 117 137
77 117 137
77 117 137
77 117 137
77 117 137
77 117 137
77 117 137
77 117 137
77 117 137
77 116 138
77 116 139
77 116 139
77 116 139
78 116 138
78 116 137
77 116 137
77 116 137
79 115 135
79 115 135
79 113 132
77 111 130
77 111 130
77 107 124
77 107 124
71 97 112
47 64 75
14 29 40
6 8 13
0 0 6
6 8 13
6 12 17
12 20 29
6 12 17
6 8 13
1 4 5
2 3 2
3 4 2
5 4 5
5 4 5
5 4 5
5 4 5
7 1 0
4 2 0
2 0 0
2 0 0
2 0 0
1 0 0
0 0 0
0 0 0
0 0 0
0 0 0
1 1 1
1 1 1
1 1 1
1 1 1
1 1 1
1 1 1
1 1 1
1 1 1
1 1 1
1 1 1
1 1 1
1 1 1
1 1 1
1 1 1
1 1 1
1 1 1
1 1 1
1 1 1
1 1 1
1 1 1
1 1 1
1 1 1
1 1 1
1 1 1
1 1 1
2 2 2
2 2 2
2 2 2
2 2 2
2 2 2
2 2 2
1 1 1
1 1 1
2 2 2
2 2 2
1 1 1
1 1 1
0 2 1
0 2 1
0 1 0
0 1 0
0 1 1
0 2 3
0 3 5
0 3 5
0 3 5
0 2 9
1 4 10
0 6 13
0 8 14
4 17 26
31 43 53
55 79 91
81 106 120
95 118 134
97 124 139
97 124 139
86 121 140
78 118 139
73 118 135
70 117 136
70 117 136
70 117 136
72 117 136
72 117 136
72 117 136
72 117 136
72 117 136
72 117 136
72 117 136
72 117 135
74 117 135
74 117 135
74 117 135
74 117 135
74 116 136
74 116 136
74 116 136
74 116 136
74 116 136
74 116 136
74 116 136
74 116 136
74 116 136
74 116 136
74 116 136
74 116 136
74 116 136
74 116 136
75 116 134
77 116 134
79 114 134
89 120 137
97 124 139
81 101 115
39 51 61
0 0 7
0 0 0
2 0 2
3 4 2
0 2 0
0 3 0
0 3 0
0 2 2
0 1 5
0 1 6
0 1 5
0 1 4
0 2 3
0 2 2
0 2 1
0 2 1
0 2 1
0 2 1
0 2 1
0 2 1
0 2 1
0 2 1
0 2 1
0 2 1
0 2 1
0 2 1
0 2 1
0 2 1
0 1 0
0 0 0
0 0 0
0 0 0
0 0 0
0 0 0
0 0 0
0 0 0
0 0 0
0 0 0
0 0 0
0 0 0
0 0 0
0 0 0
0 0 0
0 0 0
0 0 0
0 0 0
0 0 0
0 0 0
0 0 0
0 0 0
0 0 0
0 0 0
0 0 0
0 0 0
0 0 0
0 0 0
0 0 0
0 1 0
0 1 0
0 0 1
0 0 2
0 2 4
3 4 6
0 3 5
0 3 5
6 12 17
24 35 46
47 64 75
79 97 109
88 109 125
88 109 125
81 106 120
84 109 126
84 109 126
81 110 128
81 110 128
81 110 128
81 110 128
81 110 128
81 110 128
81 110 128
81 110 128
81 110 128
81 110 128
81 110 128
81 110 128
77 111 130
77 111 130
77 111 130
77 111 130
77 111 130
77 111 130
77 111 130
77 111 130
77 111 130
79 113 132
79 113 132
79 113 132
79 113 132
79 113 132
79 113 132
79 113 132
79 113 132
76 113 132
76 113 132
76 113 132
76 113 132
76 113 132
76 113 132
76 113 132
76 113 132
76 113 132
76 113 132
76 113 132
76 113 132
79 113 132
79 113 132
79 113 132
79 113 132
79 113 132
79 113 132
79 113 132
79 113 132
79 113 132
79 113 132
79 113 132
79 113 132
79 113 132
79 113 132
79 113 132
79 113 132
79 113 132
79 113 132
79 113 132
79 113 132
79 113 132
79 113 132
79 113 132
79 113 132
79 113 132
79 113 132
79 113 132
79 113 132
79 113 132
79 113 132
79 113 132
79 113 132
79 113 132
79 113 132
79 113 132
79 113 132
79 113 132
79 113 132
79 113 132
79 113 132
79 113 132
79 113 132
79 113 132
79 113 132
79 113 132
79 113 132
82 113 130
82 113 130
83 113 128
83 113 128
84 109 126
84 109 126
90 113 128
88 109 125
79 97 109
53 72 83
31 43 53
6 12 17
1 3 2
0 6 5
2 10 15
2 10 15
1 6 12
0 6 5
0 4 9
1 4 10
5 6 9
5 6 9
5 6 9
1 4 10
1 1 8
1 1 8
1 1 8
0 1 6
0 1 6
0 1 6
0 1 6
1 1 5
1 1 5
1 1 5
1 1 5
1 1 5
1 1 5
1 1 8
1 4 10
0 4 9
0 3 5
0 1 5
0 0 3
0 0 2
0 0 2
0 0 2
0 0 2
0 0 3
0 0 5
0 1 10
0 12 19
4 17 26
4 17 26
12 20 29
14 29 40
23 41 52
31 51 61
55 79 91
71 97 112
88 109 125
93 116 131
95 118 134
95 118 134
97 121 136
91 117 133
84 109 126
77 107 124
81 110 128
79 113 132
77 115 131
77 115 131
77 115 131
78 115 132
77 115 134
77 115 134
76 115 135
77 115 136
76 116 136
76 116 136
75 116 137
76 115 138
76 115 138
76 115 138
76 115 138
76 115 138
76 115 138
76 115 138
77 115 137
76 116 136
76 116 136
76 116 136
75 116 137
76 115 138
76 115 138
76 115 138
76 115 138
76 115 138
76 115 138
76 115 138
76 115 138
77 116 139
77 116 139
77 116 139
77 116 139
77 116 139
77 116 139
77 116 139
77 116 139
77 116 140
77 116 142
77 116 142
77 116 142
75 116 141
75 117 141
75 117 141
75 117 141
75 116 141
76 115 140
77 116 140
78 115 142
78 117 140
78 117 140
77 117 139
77 115 137
78 116 135
82 115 132
89 120 137
89 120 137
93 121 136
85 113 132
70 92 106
31 51 61
4 17 26
0 4 12
1 1 8
2 1 3
1 0 1
2 0 2
2 1 3
0 0 4
1 0 3
2 1 3
3 0 2
3 0 3
2 0 2
3 0 2
2 0 1
2 0 1
0 0 9
14 29 40
62 77 90
97 124 139
93 121 136
79 113 127
79 113 127
79 115 132
77 117 135
75 118 134
75 118 137
76 117 138
76 115 140
78 117 140
77 116 142
77 116 142
77 116 140
77 116 139
77 116 139
77 116 139
77 116 138
77 117 137
77 117 137
77 117 137
77 117 137
77 117 137
77 117 137
77 117 137
77 117 137
77 117 137
77 117 137
77 117 137
77 117 137
77 116 138
77 116 139
77 116 139
77 116 139
77 117 139
77 117 137
77 117 137
77 117 137
78 117 135
78 116 135
76 113 132
76 113 132
77 111 130
77 111 130
77 115 131
77 107 124
70 92 106
47 64 75
23 29 39
2 6 12
1 1 8
2 6 12
6 12 17
6 12 17
6 8 13
0 3 2
1 3 2
5 6 9
6 8 13
5 4 5
1 1 0
3 4 2
5 4 5
5 4 5
2 0 0
1 0 0
2 0 0
1 0 0
0 0 0
0 0 0
0 0 0
0 0 0
1 1 1
1 1 1
1 1 1
1 1 1
1 1 1
1 1 1
1 1 1
1 1 1
1 1 1
1 1 1
1 1 1
1 1 1
1 1 1
1 1 1
1 1 1
1 1 1
1 1 1
1 1 1
1 1 1
1 1 1
1 1 1
1 1 1
1 1 1
1 1 1
1 1 1
2 2 2
2 2 2
2 2 2
2 2 2
2 2 2
2 2 2
1 1 1
1 1 1
2 2 2
2 2 2
1 1 1
1 1 1
0 2 1
0 2 1
0 1 0
0 1 0
0 1 1
0 2 3
0 3 5
0 3 5
0 3 5
0 4 9
0 4 12
1 6 12
0 2 9
0 4 16
12 20 29
31 51 61
55 79 91
84 109 126
97 121 136
97 124 139
89 120 137
82 117 137
74 117 135
70 117 136
70 117 136
70 117 136
70 117 136
72 117 136
72 117 136
72 117 136
72 117 136
72 117 136
72 117 136
73 117 136
74 117 135
74 117 135
74 117 135
74 116 136
74 116 136
74 116 136
74 116 136
74 116 136
74 116 136
74 116 136
74 116 136
74 116 136
74 116 136
74 116 136
74 116 136
74 116 136
74 116 136
74 116 136
75 116 134
77 116 134
79 115 132
89 120 137
97 124 139
81 101 115
39 51 61
0 0 9
0 0 0
2 0 2
3 4 2
0 2 0
0 3 0
0 3 0
0 2 2
0 1 5
0 1 6
0 1 5
0 1 4
0 2 3
0 2 2
0 2 1
0 2 1
0 2 1
0 2 1
0 2 1
0 2 1
0 2 1
0 2 1
0 2 1
0 2 1
0 2 1
0 2 1
0 2 1
0 2 1
0 1 0
0 0 0
0 0 0
0 0 0
0 0 0
0 0 0
0 0 0
0 0 0
0 0 0
0 0 0
0 0 0
0 0 0
0 0 0
0 0 0
0 0 0
0 0 0
0 0 0
0 0 0
0 0 0
0 0 0
0 0 0
0 0 0
0 0 0
0 0 0
0 0 0
0 0 0
0 0 0
0 0 0
0 0 0
0 1 0
0 1 0
0 0 0
0 1 0
1 4 5
5 6 9
1 4 5
0 2 4
6 8 13
23 29 39
47 64 75
79 97 109
88 109 125
88 109 125
81 106 120
81 106 120
84 109 126
84 109 126
84 109 126
84 109 126
84 109 126
84 109 126
84 109 126
84 109 126
84 109 126
81 110 128
81 110 128
81 110 128
81 110 128
81 110 128
81 110 128
81 110 128
77 107 124
77 107 124
77 107 124
77 107 124
77 107 124
77 107 124
81 110 128
81 110 128
81 110 128
81 110 128
81 110 128
77 111 130
77 111 130
77 111 130
77 111 130
77 111 130
77 111 130
77 111 130
77 111 130
77 111 130
77 111 130
77 111 130
77 111 130
77 111 130
77 111 130
79 113 127
79 113 127
81 110 128
81 110 128
81 110 128
81 110 128
81 110 128
81 110 128
81 110 128
81 110 128
81 110 128
81 110 128
81 110 128
81 110 128
81 110 128
81 110 128
81 110 128
81 110 128
81 110 128
81 110 128
81 110 128
81 110 128
81 110 128
81 110 128
81 110 128
81 110 128
81 110 128
81 110 128
81 110 128
81 110 128
81 110 128
81 110 128
81 110 128
81 110 128
81 110 128
81 110 128
81 110 128
81 110 128
81 110 128
81 110 128
81 110 128
81 110 128
81 110 128
81 110 128
81 110 128
81 110 128
84 109 126
84 109 126
84 109 126
84 109 126
90 113 128
90 113 128
93 116 131
97 121 136
97 121 136
88 109 125
62 77 90
31 51 61
6 12 17
3 4 6
3 4 6
6 12 17
6 12 17
2 10 15
2 10 15
2 10 15
2 10 15
2 10 15
2 10 15
2 10 15
6 8 13
6 8 13
6 8 13
2 10 15
2 6 12
2 6 12
2 6 12
2 6 12
2 6 12
2 4 11
2 4 11
2 4 11
2 4 11
2 4 11
2 4 11
2 4 11
1 4 10
1 4 10
0 2 9
0 0 5
0 0 4
0 0 3
0 0 4
0 1 6
0 1 6
0 1 6
0 4 16
12 20 29
23 41 52
31 51 61
47 64 75
53 72 83
70 92 106
77 107 124
93 121 136
97 124 139
96 123 138
93 121 136
93 121 136
89 118 136
89 118 136
83 113 135
83 113 135
79 113 132
79 113 132
79 115 135
77 117 133
75 116 134
75 116 134
75 116 134
75 116 134
75 116 134
76 115 135
76 116 136
76 116 136
76 116 136
77 115 137
76 115 138
76 115 138
76 115 138
76 115 138
76 115 138
76 115 138
76 115 138
77 115 137
76 116 136
76 116 136
76 116 136
75 116 137
76 115 138
76 115 138
76 115 138
76 115 138
76 115 138
76 115 138
76 115 138
76 115 138
77 116 139
77 116 139
77 116 139
77 116 139
77 116 139
77 116 139
77 116 139
77 116 139
77 116 140
77 116 142
77 116 142
77 116 142
77 116 142
75 116 141
77 116 142
77 116 142
77 116 142
76 115 140
77 116 140
80 115 140
82 118 141
80 117 140
78 115 139
79 114 136
79 114 134
85 116 133
93 121 136
97 124 139
85 113 132
68 87 100
31 51 61
14 29 40
4 17 26
0 6 13
0 1 5
1 0 1
2 0 0
2 0 1
2 0 2
2 1 3
0 0 4
2 1 3
2 0 2
2 0 2
2 0 2
2 0 2
1 1 1
1 1 1
0 0 9
14 29 40
62 77 90
96 123 138
93 121 136
79 113 127
79 113 127
77 117 133
75 118 134
75 118 134
75 118 137
75 117 139
76 115 140
77 116 142
77 116 142
77 116 142
77 116 140
77 116 139
77 116 139
77 116 139
77 116 138
77 117 137
77 117 137
77 117 137
77 117 137
77 117 137
77 117 137
77 117 137
77 117 137
77 117 137
77 117 137
77 117 137
77 117 137
77 116 138
77 116 139
77 116 139
77 116 139
77 117 139
77 117 137
77 117 137
77 117 137
78 117 135
78 116 135
77 116 134
77 115 131
76 113 132
76 113 132
77 115 131
79 113 127
77 107 124
70 92 106
47 64 75
12 20 29
0 2 9
0 1 6
0 8 14
2 10 15
2 6 12
0 4 5
1 4 1
5 6 9
6 8 13
5 4 5
2 2 2
3 4 2
5 4 5
5 4 5
2 0 0
1 0 0
2 0 0
1 0 0
0 0 0
0 0 0
0 0 0
0 0 0
1 1 1
1 1 1
1 1 1
1 1 1
1 1 1
1 1 1
1 1 1
1 1 1
1 1 1
1 1 1
1 1 1
1 1 1
1 1 1
1 1 1
1 1 1
1 1 1
1 1 1
1 1 1
1 1 1
1 1 1
1 1 1
1 1 1
1 1 1
1 1 1
1 1 1
2 2 2
2 2 2
2 2 2
2 2 2
2 2 2
2 2 2
1 1 1
1 1 1
2 2 2
2 2 2
1 1 1
1 1 1
0 2 1
0 2 1
0 1 0
0 1 0
0 1 1
0 2 2
0 3 5
0 3 5
0 3 5
0 4 9
0 4 12
0 4 12
0 0 9
0 0 9
0 1 13
12 20 29
31 51 61
68 87 100
88 109 125
95 118 134
89 120 137
83 118 136
77 117 135
73 118 135
73 118 135
72 117 135
73 117 136
73 117 136
73 117 136
72 117 136
72 117 136
72 117 136
72 117 136
73 117 136
74 116 136
74 116 136
74 116 136
74 116 136
74 116 136
74 116 136
74 116 136
74 116 136
74 116 136
74 116 136
74 116 136
74 116 136
74 116 136
74 116 136
74 116 136
74 116 136
74 116 136
74 116 136
75 116 134
77 116 134
79 115 132
89 120 137
97 124 139
81 101 115
39 51 61
0 0 9
0 0 0
2 0 2
3 4 2
0 2 0
0 3 0
0 3 0
0 2 2
0 1 5
0 1 6
0 1 5
0 1 4
0 2 3
0 2 2
0 2 1
0 2 1
0 2 1
0 2 1
0 2 1
0 2 1
0 2 1
0 2 1
0 2 1
0 2 1
0 2 1
0 2 1
0 2 1
0 2 1
0 1 0
0 0 0
0 0 0
0 0 0
0 0 0
0 0 0
0 0 0
0 0 0
0 0 0
0 0 0
0 0 0
0 0 0
0 0 0
0 0 0
0 0 0
0 0 0
0 0 0
0 0 0
0 0 0
0 0 0
0 0 0
0 0 0
0 0 0
0 0 0
0 0 0
0 0 0
0 0 0
0 0 0
0 0 0
0 1 0
0 1 0
0 0 0
0 1 0
1 4 5
5 6 9
1 4 5
0 1 1
6 8 13
23 29 39
47 64 75
79 97 109
93 116 131
93 116 131
90 113 128
90 113 128
93 116 131
90 116 132
90 116 132
90 116 132
90 116 132
91 117 133
90 116 132
90 116 132
90 116 132
90 116 132
90 116 132
90 116 132
90 116 132
90 116 132
90 116 132
90 116 132
85 116 133
85 116 133
85 116 133
85 116 133
85 116 133
90 116 132
91 117 133
91 117 133
91 117 133
91 117 133
91 117 133
89 118 136
89 118 136
89 118 136
89 118 136
89 118 136
89 118 136
89 118 136
89 118 136
89 118 136
89 118 136
89 118 136
89 118 136
89 118 136
91 117 133
91 117 133
91 117 133
91 117 133
91 117 133
91 117 133
91 117 133
91 117 133
91 117 133
91 117 133
91 117 133
91 117 133
91 117 133
91 117 133
91 117 133
91 117 133
91 117 133
91 117 133
91 117 133
91 117 133
91 117 133
91 117 133
91 117 133
91 117 133
91 117 133
91 117 133
91 117 133
91 117 133
91 117 133
91 117 133
91 117 133
91 117 133
91 117 133
91 117 133
91 117 133
91 117 133
91 117 133
91 117 133
91 117 133
91 117 133
91 117 133
91 117 133
91 117 133
91 117 133
91 117 133
91 117 133
91 117 133
91 117 133
93 116 131
93 116 131
93 116 131
95 118 134
97 121 136
97 121 136
99 127 141
99 127 141
90 113 128
68 87 100
31 43 53
2 10 15
0 0 0
0 0 0
0 3 2
0 6 5
0 6 5
0 4 5
0 2 4
0 1 6
0 1 6
0 2 9
0 2 9
0 2 9
0 1 10
0 1 10
0 1 10
0 1 10
0 1 10
0 1 10
0 1 10
0 2 9
0 0 7
0 0 5
0 0 3
0 0 3
0 0 4
0 0 6
0 2 9
0 4 9
0 4 12
1 6 12
2 10 15
6 12 17
6 12 17
6 12 17
12 20 29
12 20 29
12 20 29
14 29 40
31 51 61
53 72 83
55 79 91
70 92 106
70 105 125
89 120 137
99 127 141
99 127 141
99 127 141
89 120 137
83 113 135
83 113 135
83 113 135
83 113 135
83 113 135
83 113 135
82 115 136
82 115 136
79 115 135
78 117 135
77 117 135
76 115 135
75 116 134
75 116 134
75 116 134
76 115 135
76 116 136
76 116 136
76 116 136
77 115 137
76 115 138
76 115 138
76 115 138
76 115 138
76 115 138
76 115 138
76 115 138
77 115 137
76 116 136
76 116 136
76 116 136
75 116 137
76 115 138
76 115 138
76 115 138
76 115 138
76 115 138
76 115 138
76 115 138
76 115 138
77 116 139
77 116 139
77 116 139
77 116 139
77 116 139
77 116 139
77 116 139
77 116 139
77 116 140
77 116 142
77 116 142
77 116 142
77 116 142
75 116 141
77 116 142
77 116 142
77 116 142
76 115 140
77 116 140
80 115 140
82 118 141
80 117 140
80 115 137
79 113 135
83 113 135
85 116 133
93 121 136
97 121 136
81 101 115
31 51 61
4 17 26
4 17 26
4 17 26
2 10 15
0 1 4
1 0 0
2 0 0
2 0 1
2 0 2
2 1 3
2 1 3
2 1 3
2 0 2
2 0 2
2 0 2
2 0 2
1 1 1
1 1 1
0 0 9
14 29 40
62 77 90
96 123 138
93 121 136
79 113 127
79 113 127
77 117 133
75 118 134
75 118 134
75 118 137
75 117 139
76 115 140
77 116 142
77 116 142
77 116 142
77 116 140
77 116 139
77 116 139
77 116 139
77 116 138
77 117 137
77 117 137
77 117 137
77 117 137
77 117 137
77 117 137
77 117 137
77 117 137
77 117 137
77 117 137
77 117 137
77 117 137
77 117 137
77 117 139
77 117 139
77 117 139
77 117 137
77 117 137
77 117 135
77 117 135
77 117 135
77 117 135
78 117 135
77 116 134
76 113 132
76 113 132
77 111 130
79 113 127
85 116 133
83 113 128
68 87 100
31 51 61
4 17 26
0 6 13
1 4 10
3 4 6
1 4 10
5 6 9
0 6 5
3 4 2
3 4 2
5 6 9
6 8 13
5 4 5
3 4 2
2 1 1
1 0 0
0 0 0
1 0 0
0 0 0
0 0 0
0 0 0
0 0 0
0 0 0
1 1 1
1 1 1
1 1 1
1 1 1
1 1 1
1 1 1
1 1 1
1 1 1
1 1 1
1 1 1
1 1 1
1 1 1
1 1 1
1 1 1
1 1 1
1 1 1
1 1 1
1 1 1
1 1 1
1 1 1
1 1 1
1 1 1
1 1 1
1 1 1
1 1 1
2 2 2
2 2 2
2 2 2
2 2 2
2 2 2
2 2 2
1 1 1
1 1 1
1 1 1
1 1 1
0 0 0
0 0 0
0 1 0
0 1 0
0 0 0
0 0 0
0 1 0
0 2 1
0 2 2
0 2 4
0 1 6
0 2 9
0 4 9
0 4 9
1 1 8
0 0 9
0 0 9
0 4 16
14 29 40
47 64 75
68 87 100
81 106 120
90 116 132
89 118 136
83 118 136
77 117 135
75 118 134
75 118 134
74 117 135
75 116 136
75 116 136
74 116 136
73 117 136
73 117 136
75 116 137
73 117 136
73 117 138
73 117 138
73 117 138
73 117 136
75 116 137
75 116 137
74 116 138
75 116 137
74 116 136
74 116 136
74 116 136
74 116 136
74 116 136
74 116 136
74 116 136
74 116 136
74 116 136
74 116 136
75 116 134
77 116 134
79 115 132
89 120 137
97 124 139
81 101 115
39 51 61
0 0 9
0 0 0
2 0 2
3 4 2
0 2 0
0 3 0
0 3 0
0 2 2
0 1 5
0 1 6
0 1 5
0 1 4
0 2 3
0 2 2
0 2 1
0 2 1
0 2 1
0 2 1
0 2 1
0 2 1
0 2 1
0 2 1
0 2 1
0 2 1
0 2 1
0 2 1
0 2 1
0 2 1
0 1 0
0 0 0
0 0 0
0 0 0
0 0 0
0 0 0
0 0 0
0 0 0
0 0 0
0 0 0
0 0 0
0 0 0
0 0 0
0 0 0
0 0 0
0 0 0
0 0 0
0 0 0
0 0 0
0 0 0
0 0 0
0 0 0
0 0 0
0 0 0
0 0 0
0 0 0
0 0 0
0 0 0
0 0 0
0 1 0
0 1 0
0 1 0
0 1 0
2 3 2
0 6 5
0 3 2
0 2 2
6 8 13
23 29 39
47 64 75
79 97 109
93 116 131
95 118 134
93 116 131
95 118 134
95 118 134
95 118 134
95 118 134
95 118 134
95 118 134
95 118 134
95 118 134
95 118 134
95 118 134
95 118 134
95 118 134
95 118 134
95 118 134
95 118 134
95 118 134
95 118 134
95 118 134
95 118 134
95 118 134
95 118 134
95 118 134
95 118 134
97 121 136
97 121 136
97 121 136
97 121 136
97 121 136
97 121 136
97 121 136
97 121 136
97 121 136
97 121 136
97 121 136
97 121 136
97 121 136
97 121 136
97 121 136
97 121 136
97 121 136
97 121 136
97 121 136
97 121 136
97 121 136
97 121 136
97 121 136
97 121 136
97 121 136
97 121 136
97 121 136
97 121 136
97 121 136
97 121 136
97 121 136
97 121 136
97 121 136
97 121 136
97 121 136
97 121 136
97 121 136
97 121 136
97 121 136
97 121 136
97 121 136
97 121 136
97 121 136
97 121 136
97 121 136
97 121 136
97 121 136
97 121 136
97 121 136
97 121 136
97 121 136
97 121 136
97 121 136
97 121 136
97 121 136
97 121 136
97 121 136
97 121 136
97 121 136
97 121 136
97 121 136
97 121 136
97 121 136
97 121 136
97 121 136
97 121 136
97 121 136
97 121 136
97 121 136
95 118 134
93 116 131
90 113 128
93 116 131
90 113 128
81 101 115
53 72 83
24 35 46
0 6 5
0 0 0
0 0 0
0 0 2
0 1 3
0 1 3
0 0 1
0 0 1
0 0 2
0 0 3
0 0 5
0 0 5
0 0 6
0 0 7
0 0 9
0 0 9
0 0 9
0 0 9
0 0 9
0 0 9
0 0 9
0 0 7
0 0 1
0 0 0
0 0 0
0 0 3
0 0 9
0 6 13
0 12 19
4 17 26
12 20 29
14 29 40
24 35 46
31 43 53
31 43 53
39 51 61
47 64 75
53 72 83
62 77 90
70 92 106
77 107 124
77 111 130
77 111 130
83 113 135
87 124 142
99 127 141
97 124 139
86 121 140
82 115 136
79 113 135
82 113 136
82 113 136
82 113 136
82 117 137
89 118 136
82 117 137
80 115 137
77 116 137
77 116 137
77 116 137
77 115 136
77 115 136
77 115 136
77 115 136
76 116 136
76 116 136
76 116 136
76 116 136
76 116 136
75 116 137
75 116 137
75 116 137
75 116 137
75 116 137
75 116 137
75 116 137
76 116 136
76 116 136
76 116 136
76 116 136
75 116 137
76 115 138
76 115 138
76 115 138
76 115 138
76 115 138
76 115 138
76 115 138
76 115 138
77 116 139
77 116 139
77 116 139
77 116 139
77 116 139
77 116 139
77 116 139
77 116 139
77 116 140
77 116 142
77 116 142
77 116 142
77 116 142
77 116 142
77 116 142
77 116 142
77 116 142
77 116 142
78 115 142
80 115 140
82 116 140
82 117 137
82 115 136
79 113 132
83 113 135
85 113 132
90 116 132
84 109 126
55 79 91
24 35 46
0 1 13
0 1 10
2 10 15
1 6 12
0 0 4
1 0 1
2 0 0
2 0 1
2 0 2
2 0 2
2 1 3
2 0 2
2 0 2
2 0 2
2 0 2
1 0 1
0 0 0
0 0 0
0 0 9
14 29 40
62 77 90
96 123 138
93 121 136
79 113 127
79 113 127
77 117 133
75 118 134
75 118 134
75 118 137
75 117 139
76 115 140
77 116 142
77 116 142
77 116 142
77 116 140
77 116 139
77 116 139
77 116 139
77 116 138
77 117 137
77 117 137
77 117 137
77 117 137
77 117 137
77 117 137
77 117 137
77 117 137
77 117 137
77 117 137
77 117 137
77 117 137
77 117 137
77 117 137
77 117 137
77 117 137
77 117 137
77 117 137
77 117 135
77 117 135
77 117 135
77 117 135
78 117 135
78 116 135
77 115 134
77 115 134
77 111 130
77 107 124
85 116 133
91 117 133
81 106 120
55 79 91
23 41 52
4 17 26
0 2 9
0 0 4
1 4 10
2 10 15
2 6 12
0 2 3
0 1 0
5 6 9
6 8 13
5 6 9
0 2 0
0 0 0
0 0 0
0 0 0
0 0 0
0 0 0
0 0 0
0 0 0
0 0 0
0 0 0
1 1 1
1 1 1
1 1 1
1 1 1
1 1 1
1 1 1
1 1 1
1 1 1
1 1 1
1 1 1
1 1 1
1 1 1
1 1 1
1 1 1
1 1 1
1 1 1
1 1 1
1 1 1
1 1 1
1 1 1
1 1 1
1 1 1
1 1 1
1 1 1
1 1 1
2 2 2
2 2 2
2 2 2
2 2 2
2 2 2
2 2 2
1 1 1
1 1 1
1 1 1
1 1 1
0 0 0
0 0 0
0 0 0
0 0 0
0 0 0
0 0 0
0 1 0
0 2 1
0 2 2
0 2 3
0 2 4
0 1 6
0 1 6
0 2 9
2 6 12
2 6 12
2 4 11
0 4 16
0 12 19
24 35 46
47 64 75
70 92 106
84 109 126
93 121 136
89 120 137
83 118 136
78 115 132
77 115 131
77 115 134
77 116 137
77 116 137
76 116 136
74 116 136
75 116 137
74 116 138
73 117 138
72 117 138
72 117 138
72 117 138
73 117 138
74 116 138
74 116 138
74 116 138
75 116 137
74 116 136
74 116 136
74 116 136
74 116 136
74 116 136
74 116 136
74 116 136
74 116 136
74 116 136
74 116 136
75 116 134
77 116 134
79 115 132
89 120 137
97 124 139
81 101 115
39 51 61
0 0 9
0 0 0
2 0 2
3 4 2
0 2 0
0 3 0
0 3 0
0 2 2
0 1 5
0 1 6
0 1 5
0 1 4
0 2 3
0 2 2
0 2 1
0 2 1
0 2 1
0 2 1
0 2 1
0 2 1
0 2 1
0 2 1
0 2 1
0 2 1
0 2 1
0 2 1
0 2 1
0 2 1
0 1 0
0 0 0
0 0 0
0 0 0
0 0 0
0 0 0
0 0 0
0 0 0
0 0 0
0 0 0
0 0 0
0 0 0
0 0 0
0 0 0
0 0 0
0 0 0
0 0 0
0 0 0
0 0 0
0 0 0
0 0 0
0 0 0
0 0 0
0 0 0
0 0 0
0 0 0
0 0 0
0 0 0
0 0 0
0 1 0
0 1 0
0 1 0
0 1 0
1 3 2
0 3 2
0 3 2
0 3 2
6 8 13
23 29 39
39 51 61
62 77 90
68 87 100
70 92 106
68 87 100
70 92 106
70 92 106
70 92 106
70 92 106
70 92 106
70 92 106
70 92 106
70 92 106
70 92 106
70 92 106
70 92 106
70 92 106
70 92 106
70 92 106
70 92 106
70 92 106
70 92 106
70 92 106
70 92 106
70 92 106
70 92 106
70 92 106
70 92 106
70 92 106
70 92 106
70 92 106
70 92 106
70 92 106
70 92 106
70 92 106
70 92 106
70 92 106
70 92 106
70 92 106
70 92 106
70 92 106
70 92 106
70 92 106
70 92 106
70 92 106
70 92 106
70 92 106
70 92 106
70 92 106
70 92 106
70 92 106
70 92 106
70 92 106
70 92 106
70 92 106
70 92 106
70 92 106
70 92 106
70 92 106
70 92 106
70 92 106
70 92 106
70 92 106
70 92 106
70 92 106
70 92 106
70 92 106
70 92 106
70 92 106
70 92 106
70 92 106
70 92 106
70 92 106
70 92 106
70 92 106
70 92 106
70 92 106
70 92 106
70 92 106
70 92 106
70 92 106
70 92 106
70 92 106
70 92 106
70 92 106
70 92 106
70 92 106
70 92 106
70 92 106
70 92 106
70 92 106
70 92 106
79 97 109
79 97 109
79 97 109
70 92 106
70 92 106
70 92 106
68 87 100
68 87 100
62 77 90
62 77 90
55 79 91
47 64 75
31 43 53
12 20 29
6 12 17
12 20 29
12 20 29
12 20 29
12 20 29
12 20 29
12 20 29
12 20 29
12 20 29
12 20 29
12 20 29
12 20 29
12 20 29
12 20 29
12 20 29
12 20 29
12 20 29
12 20 29
14 29 40
14 29 40
14 29 40
12 20 29
12 20 29
12 20 29
12 20 29
14 29 40
24 35 46
24 35 46
31 43 53
31 51 61
47 64 75
47 64 75
53 72 83
62 77 90
68 87 100
79 97 109
88 109 125
90 113 128
91 117 133
93 121 136
89 120 137
86 121 140
82 115 136
83 113 135
79 113 132
77 111 130
77 111 130
79 113 132
79 114 134
79 114 134
79 114 134
82 117 137
82 117 137
83 118 136
82 117 137
78 116 137
77 116 137
77 115 136
77 115 136
77 115 136
77 115 136
77 115 136
77 115 136
76 116 136
76 116 136
76 116 136
76 116 136
76 116 136
76 116 136
76 116 136
76 116 136
76 116 136
76 116 136
76 116 136
76 116 136
76 116 136
76 116 136
76 116 136
76 116 136
75 116 137
76 115 138
76 115 138
76 115 138
76 115 138
76 115 138
76 115 138
76 115 138
76 115 138
77 116 139
77 116 139
77 116 139
77 116 139
77 116 139
77 116 139
77 116 139
77 116 139
77 116 140
77 116 142
77 116 142
77 116 142
77 116 142
77 116 142
77 116 142
77 116 142
77 116 142
80 115 140
80 115 140
80 115 140
80 115 137
82 113 136
82 115 132
82 115 132
85 116 133
90 116 132
81 106 120
68 87 100
39 51 61
12 20 29
0 4 12
1 1 8
0 4 12
1 4 10
0 0 4
1 0 1
2 0 0
2 0 1
2 0 2
2 0 2
2 0 2
2 0 2
2 0 2
2 0 2
2 0 2
1 0 1
0 0 0
0 0 0
0 0 9
14 29 40
62 77 90
97 121 136
93 121 136
79 113 127
79 113 127
77 117 133
75 118 134
75 118 134
75 118 137
75 117 139
76 115 140
77 116 142
77 116 142
77 116 142
77 116 142
77 116 140
77 116 140
77 116 139
77 116 138
77 117 137
77 117 137
77 117 137
77 117 137
77 117 137
77 117 137
77 117 137
77 117 137
77 117 137
77 117 137
77 117 137
77 117 137
77 117 137
77 117 137
77 117 137
77 117 137
77 117 135
77 117 135
77 117 135
77 117 135
77 117 135
77 117 135
77 117 135
77 117 135
77 117 135
77 115 134
77 111 130
79 113 127
82 115 132
91 117 133
91 117 133
81 101 115
53 72 83
14 29 40
0 8 14
0 4 12
2 10 15
2 6 12
1 6 12
0 4 9
0 6 5
5 6 9
5 4 5
5 4 5
2 3 2
1 1 2
0 0 0
0 0 0
0 0 0
0 0 0
0 0 0
0 0 0
0 0 0
0 0 0
1 1 1
1 1 1
1 1 1
1 1 1
1 1 1
1 1 1
1 1 1
1 1 1
1 1 1
1 1 1
1 1 1
1 1 1
1 1 1
1 1 1
1 1 1
1 1 1
1 1 1
1 1 1
1 1 1
1 1 1
1 1 1
1 1 1
1 1 1
1 1 1
1 1 1
2 2 2
2 2 2
2 2 2
2 2 2
2 2 2
2 2 2
1 1 1
1 1 1
1 1 1
1 1 1
0 0 0
0 0 0
0 0 0
0 0 0
0 0 0
0 0 0
0 1 1
1 1 2
2 2 2
1 1 2
1 2 3
0 1 3
0 0 4
0 1 6
6 8 13
6 12 17
6 12 17
0 4 16
0 1 10
2 10 15
24 35 46
53 72 83
81 101 115
91 117 133
93 121 136
89 118 136
79 113 127
77 111 130
78 115 132
77 115 134
79 115 135
77 116 137
75 116 137
75 116 139
75 116 139
73 116 139
73 116 139
73 116 139
73 116 139
73 116 139
75 116 139
75 116 139
74 116 138
75 116 137
74 116 136
74 116 136
74 116 136
74 116 136
74 116 136
74 116 136
74 116 136
74 116 136
74 116 136
74 116 136
75 116 134
77 116 134
79 115 132
89 120 137
97 124 139
81 101 115
39 51 61
0 0 9
0 0 0
2 0 2
3 4 2
0 2 0
0 3 0
0 3 2
0 2 3
0 1 5
0 1 6
0 1 5
0 1 4
0 2 3
0 2 2
0 2 1
0 2 1
0 2 1
0 2 1
0 2 1
0 2 1
0 2 1
0 2 1
0 2 1
0 2 1
0 2 1
0 2 1
0 2 1
0 2 1
0 1 0
0 0 0
0 0 0
0 0 0
0 0 0
0 0 0
0 0 0
0 0 0
0 0 0
0 0 0
0 0 0
0 0 0
0 0 0
0 0 0
0 0 0
0 0 0
0 0 0
0 0 0
0 0 0
0 0 0
0 0 0
0 0 0
0 0 0
0 0 0
0 0 0
0 0 0
0 0 0
0 0 0
0 0 0
0 0 0
0 0 0
0 0 0
0 1 0
0 2 1
0 4 1
0 3 2
0 3 2
1 4 5
6 12 17
12 20 29
24 35 46
31 43 53
24 35 46
24 35 46
24 35 46
24 35 46
24 35 46
24 35 46
24 35 46
24 35 46
24 35 46
24 35 46
24 35 46
24 35 46
24 35 46
24 35 46
24 35 46
24 35 46
24 35 46
24 35 46
24 35 46
24 35 46
24 35 46
24 35 46
24 35 46
24 35 46
24 35 46
24 35 46
24 35 46
24 35 46
24 35 46
24 35 46
24 35 46
24 35 46
24 35 46
24 35 46
24 35 46
24 35 46
24 35 46
24 35 46
24 35 46
24 35 46
24 35 46
24 35 46
24 35 46
24 35 46
24 35 46
24 35 46
24 35 46
24 35 46
24 35 46
24 35 46
24 35 46
24 35 46
24 35 46
24 35 46
24 35 46
24 35 46
24 35 46
24 35 46
24 35 46
24 35 46
24 35 46
24 35 46
24 35 46
24 35 46
24 35 46
24 35 46
24 35 46
24 35 46
24 35 46
24 35 46
24 35 46
24 35 46
24 35 46
24 35 46
24 35 46
24 35 46
24 35 46
24 35 46
24 35 46
24 35 46
24 35 46
24 35 46
24 35 46
24 35 46
24 35 46
24 35 46
24 35 46
24 35 46
24 35 46
24 35 46
24 35 46
24 35 46
24 35 46
24 35 46
24 35 46
24 35 46
24 35 46
24 35 46
24 35 46
31 43 53
47 64 75
47 64 75
47 64 75
53 72 83
62 77 90
62 77 90
62 77 90
53 72 83
53 72 83
53 72 83
53 72 83
53 72 83
53 72 83
62 77 90
62 77 90
62 77 90
62 77 90
62 77 90
62 77 90
62 77 90
62 77 90
62 77 90
62 77 90
62 77 90
62 77 90
62 77 90
62 77 90
62 77 90
62 77 90
62 77 90
68 87 100
68 87 100
68 87 100
70 92 106
79 97 109
81 101 115
81 106 120
90 113 128
95 118 134
99 127 141
99 127 141
99 127 141
97 124 139
87 124 142
86 121 140
86 121 140
79 114 134
71 110 131
70 105 125
77 111 130
82 117 137
82 120 140
82 117 137
82 117 137
82 117 137
79 115 135
79 115 135
78 116 135
77 115 136
77 115 136
77 115 136
77 115 136
77 115 136
77 115 136
77 115 136
77 115 136
76 116 136
76 116 136
76 116 136
76 116 136
76 116 136
76 116 136
76 116 136
76 116 136
76 116 136
76 116 136
76 116 136
76 116 136
76 116 136
76 116 136
76 116 136
76 116 136
75 116 137
76 115 138
76 115 138
76 115 138
76 115 138
76 115 138
76 115 138
76 115 138
76 115 138
77 116 139
77 116 139
77 116 139
77 116 139
77 116 139
77 116 139
77 116 140
77 116 140
77 116 142
77 116 142
77 116 142
77 116 142
77 116 142
77 116 142
77 116 142
78 115 142
80 115 140
80 115 140
80 115 140
79 114 136
82 113 136
83 113 135
85 113 132
82 113 130
85 116 133
90 113 128
70 92 106
39 51 61
12 20 29
0 12 19
0 12 19
2 10 15
0 4 9
0 1 5
0 0 3
1 0 0
2 0 0
2 0 1
2 0 2
2 0 2
2 0 2
2 0 2
2 0 2
2 0 2
2 0 2
1 0 1
0 0 0
0 0 0
0 0 9
14 29 40
62 77 90
97 121 136
93 121 136
79 113 127
79 113 127
77 117 133
75 118 134
75 118 134
75 118 137
75 117 139
76 115 140
77 116 142
77 116 142
77 116 142
77 116 142
77 116 142
77 116 140
77 116 139
77 116 138
77 117 137
77 117 137
77 117 137
77 117 137
77 117 137
77 117 137
77 117 137
77 117 137
77 117 137
77 117 137
77 117 137
77 117 137
77 117 137
77 117 137
77 117 137
77 117 137
77 117 135
77 117 135
77 117 135
77 117 135
77 117 135
77 117 135
77 117 135
77 117 135
77 117 135
78 116 135
78 115 132
79 113 132
82 113 130
82 115 132
89 118 136
90 116 132
71 97 112
47 64 75
14 29 40
4 17 26
0 8 14
0 4 9
1 6 12
2 6 12
5 6 9
0 5 1
0 1 0
1 3 2
3 4 6
2 3 2
0 0 0
0 0 0
0 0 0
0 0 0
0 0 0
0 0 0
0 0 0
0 0 0
1 1 1
1 1 1
1 1 1
1 1 1
1 1 1
1 1 1
1 1 1
1 1 1
1 1 1
1 1 1
1 1 1
1 1 1
1 1 1
1 1 1
1 1 1
1 1 1
1 1 1
1 1 1
1 1 1
1 1 1
1 1 1
1 1 1
1 1 1
1 1 1
1 1 1
2 2 2
2 2 2
2 2 2
2 2 2
2 2 2
2 2 2
1 1 1
1 1 1
1 1 1
1 1 1
0 0 0
0 0 0
0 0 0
0 0 0
0 0 0
0 0 0
2 1 1
2 2 2
2 2 2
1 1 1
1 1 2
1 3 2
1 0 3
0 0 4
6 8 13
6 12 17
6 12 17
2 10 15
1 1 8
0 0 9
4 17 26
31 43 53
55 79 91
81 106 120
90 116 132
91 117 133
85 116 133
85 116 133
82 115 132
79 114 134
79 113 135
77 115 136
76 115 138
75 116 141
75 116 141
73 116 139
73 116 139
73 116 139
73 116 139
73 116 139
75 116 141
75 116 139
74 116 138
75 116 137
74 116 136
74 116 136
74 116 136
74 116 136
74 116 136
74 116 136
74 116 136
74 116 136
74 116 136
74 116 136
75 116 134
77 116 134
79 115 132
89 120 137
97 124 139
81 101 115
39 51 61
0 0 9
0 0 0
2 0 2
3 4 2
0 2 0
0 3 0
0 3 2
0 2 3
0 1 5
0 1 6
0 1 5
0 1 4
0 2 3
0 2 2
0 2 1
0 2 1
0 2 1
0 2 1
0 2 1
0 2 1
0 2 1
0 2 1
0 2 1
0 2 1
0 2 1
0 2 1
0 2 1
0 2 1
0 1 0
0 0 0
0 0 0
0 0 0
0 0 0
0 0 0
0 0 0
0 0 0
0 0 0
0 0 0
0 0 0
0 0 0
0 0 0
0 0 0
0 0 0
0 0 0
0 0 0
0 0 0
0 0 0
0 0 0
0 0 0
0 0 0
0 0 0
0 0 0
0 0 0
0 0 0
0 0 0
0 0 0
0 0 0
0 0 0
0 0 0
0 0 0
0 1 0
0 2 1
0 4 1
0 3 2
0 2 0
0 1 0
0 2 2
0 4 5
0 8 14
1 6 12
0 3 5
0 0 4
0 0 6
0 2 9
0 1 10
0 1 10
0 1 10
0 1 10
0 0 9
0 0 9
0 0 9
0 0 9
0 0 9
0 0 9
0 0 9
0 0 9
0 0 9
0 0 9
0 0 9
0 0 9
0 0 9
0 0 9
0 0 9
0 0 9
0 0 9
0 0 9
0 0 9
0 0 9
0 0 9
0 0 9
0 0 9
0 0 9
0 0 9
0 0 9
0 0 9
0 0 9
0 0 9
0 0 9
0 0 9
0 0 9
0 0 9
0 0 9
0 0 9
0 0 9
0 0 9
0 0 9
0 0 9
0 0 9
0 0 9
0 0 9
0 0 9
0 0 9
0 0 9
0 0 9
0 0 9
0 0 9
0 0 9
0 0 9
0 0 9
0 0 9
0 0 9
0 0 9
0 0 9
0 0 9
0 0 9
0 0 9
0 0 9
0 0 9
0 0 9
0 0 9
0 0 9
0 0 9
0 0 9
0 0 9
0 0 9
0 0 9
0 0 9
0 0 9
0 0 9
0 0 9
0 0 9
0 0 9
0 0 9
0 0 9
0 0 9
0 0 9
0 0 9
0 1 10
0 1 10
0 0 9
0 0 9
0 1 10
0 0 12
0 0 12
0 1 13
0 4 16
0 4 16
0 4 12
0 6 13
12 20 29
31 51 61
55 79 91
79 97 109
90 113 128
97 121 136
97 121 136
90 113 128
88 109 125
88 109 125
88 109 125
88 109 125
88 109 125
88 109 125
90 113 128
90 113 128
90 113 128
93 116 131
93 116 131
93 116 131
93 116 131
93 116 131
95 118 134
95 118 134
95 118 134
95 118 134
95 118 134
95 118 134
95 118 134
93 116 131
93 116 131
90 113 128
90 113 128
88 109 125
90 113 128
90 113 128
93 116 131
93 116 131
95 118 134
97 121 136
99 127 141
97 124 139
89 120 137
89 120 137
83 118 136
83 118 136
82 117 137
79 114 134
71 110 131
71 110 131
79 114 134
82 120 140
87 124 142
82 120 140
82 117 137
78 117 135
77 115 134
75 113 134
75 113 134
77 115 134
77 115 136
77 115 136
77 115 136
77 115 136
77 115 136
77 115 136
77 115 136
76 116 136
76 116 136
76 116 136
76 116 136
76 116 136
76 116 136
76 116 136
76 116 136
76 116 136
76 116 136
76 116 136
76 116 136
76 116 136
76 116 136
76 116 136
76 116 136
75 116 137
76 115 138
76 115 138
76 115 138
76 115 138
76 115 138
76 115 138
76 115 138
76 115 138
77 116 139
77 116 139
77 116 139
77 116 139
77 116 139
77 116 139
77 116 140
77 116 142
77 116 142
77 116 142
77 116 142
77 116 142
77 116 142
77 116 142
77 116 142
78 115 142
80 115 140
80 115 137
80 115 137
82 117 137
85 116 133
85 113 132
85 113 132
90 113 128
83 113 128
79 97 109
53 72 83
14 29 40
0 6 13
0 8 14
4 17 26
0 12 19
0 4 9
0 0 4
0 0 2
1 0 0
2 0 0
2 0 1
2 0 2
2 0 2
2 0 2
2 0 2
2 0 2
2 0 2
2 0 2
1 0 1
0 0 0
0 0 0
0 0 9
14 29 40
62 77 90
97 121 136
93 121 136
79 113 127
79 113 127
79 115 132
77 117 133
76 117 136
75 118 137
75 117 139
75 117 141
77 116 142
78 115 142
78 115 142
78 115 142
77 116 142
77 116 140
77 116 139
77 116 139
77 116 138
77 116 138
77 116 138
77 116 138
77 117 137
77 117 137
77 117 137
77 117 137
77 117 137
77 117 137
77 117 137
77 117 137
77 117 137
77 117 137
77 117 137
77 117 137
77 117 137
77 117 135
77 117 135
77 117 135
77 117 135
77 117 135
77 117 135
77 117 135
77 117 135
78 116 135
79 115 135
79 115 132
79 113 132
82 113 130
85 116 133
91 117 133
90 113 128
71 97 112
47 64 75
14 29 40
0 12 19
0 4 12
2 6 12
5 6 9
1 4 5
0 1 0
0 0 0
1 3 2
3 4 6
1 4 5
0 0 0
0 0 0
0 0 0
0 0 0
0 0 0
0 0 0
0 0 0
0 0 0
0 0 0
0 0 0
0 0 0
0 0 0
0 0 0
0 0 0
0 0 0
0 0 0
1 1 1
1 1 1
1 1 1
1 1 1
1 1 1
1 1 1
1 1 1
1 1 1
1 1 1
1 1 1
1 1 1
1 1 1
1 1 1
1 1 1
1 1 1
1 1 1
1 1 1
2 2 2
2 2 2
2 2 2
2 2 2
2 2 2
2 2 2
2 2 2
2 2 2
1 1 1
1 1 1
1 1 1
1 1 1
1 1 0
2 1 0
2 1 0
2 1 0
3 2 0
4 2 0
1 0 1
0 0 0
2 3 2
5 4 5
3 4 6
0 0 3
1 4 5
2 6 12
2 6 12
0 6 13
1 6 12
0 6 13
0 8 14
12 20 29
23 41 52
53 72 83
79 97 109
90 113 128
93 121 136
96 123 138
89 118 136
83 113 135
79 113 132
76 114 136
78 115 139
77 116 142
75 116 141
75 116 141
73 117 141
73 117 141
73 117 141
73 117 141
73 117 141
73 116 139
73 116 139
73 116 139
75 116 137
75 116 137
74 116 136
74 116 136
74 116 136
74 116 136
74 116 136
74 116 136
74 116 136
74 116 136
75 116 134
77 116 134
79 115 132
89 120 137
97 124 139
81 101 115
39 51 61
0 0 9
0 0 0
2 1 3
3 4 6
0 2 1
0 3 0
0 3 2
0 2 3
0 1 6
0 1 6
0 1 6
0 1 5
0 2 4
0 2 2
0 2 1
0 2 1
0 2 1
0 2 1
0 2 1
0 2 1
0 2 1
0 2 1
0 2 1
0 2 1
0 2 1
0 2 1
0 2 1
0 2 1
0 1 0
0 0 0
0 0 0
0 0 0
0 0 0
0 0 0
0 0 0
0 0 0
0 0 0
0 0 0
0 0 0
0 0 0
0 0 0
0 0 0
0 0 0
0 0 0
0 0 0
0 0 0
0 0 0
0 0 0
0 0 0
0 0 0
0 0 0
0 0 0
0 0 0
0 0 0
0 0 0
0 0 0
0 0 0
0 1 0
0 1 0
0 1 0
0 2 0
0 3 0
1 3 2
1 2 0
0 1 0
0 1 0
0 1 0
0 2 0
0 2 2
0 1 1
0 0 2
0 0 3
0 0 4
0 0 5
0 0 6
0 0 7
0 0 7
0 0 7
0 0 6
0 0 5
0 0 4
0 0 3
0 0 3
0 0 3
0 0 3
0 0 3
0 0 3
0 0 3
0 0 3
0 0 3
0 0 3
0 0 3
0 0 3
0 0 3
0 0 3
0 0 3
0 0 3
0 0 3
0 0 3
0 0 3
0 0 3
0 0 3
0 0 3
0 0 3
0 0 3
0 0 3
0 0 3
0 0 3
0 0 3
0 0 3
0 0 3
0 0 3
0 0 3
0 0 3
0 0 3
0 0 3
0 0 3
0 0 3
0 0 3
0 0 3
0 0 3
0 0 3
0 0 3
0 0 3
0 0 3
0 0 3
0 0 3
0 0 3
0 0 3
0 0 3
0 0 3
0 0 3
0 0 3
0 0 3
0 0 3
0 0 3
0 0 3
0 0 3
0 0 3
0 0 3
0 0 3
0 0 3
0 0 3
0 0 3
0 0 3
0 0 3
0 0 3
0 0 3
0 0 3
0 0 3
0 0 3
0 0 3
0 0 3
0 0 3
0 0 3
0 0 3
0 0 3
0 0 4
0 0 4
0 0 4
0 0 4
0 0 5
0 0 6
0 0 7
0 0 9
0 1 10
0 1 10
0 0 7
0 4 12
4 17 26
23 41 52
55 79 91
81 106 120
99 127 141
99 127 141
99 127 141
93 116 131
88 109 125
90 113 128
91 117 133
91 117 133
91 117 133
95 118 134
95 118 134
95 118 134
95 118 134
95 118 134
95 118 134
95 118 134
95 118 134
97 121 136
96 123 138
97 121 136
97 121 136
97 121 136
96 123 138
96 123 138
97 121 136
97 121 136
93 121 136
93 121 136
91 117 133
91 117 133
90 116 132
90 116 132
91 117 133
89 118 136
89 118 136
89 120 137
89 118 136
89 118 136
83 118 136
79 115 132
79 115 135
79 115 135
78 116 137
77 117 137
77 116 137
77 116 137
78 118 139
82 120 140
82 120 140
82 120 140
78 118 139
77 117 137
77 116 137
76 115 135
76 116 136
76 115 135
76 115 135
76 116 136
76 116 136
76 116 136
76 116 136
76 116 136
76 116 136
76 116 136
76 116 136
76 116 136
76 116 136
76 116 136
76 116 136
76 116 136
76 116 136
76 116 136
76 116 136
76 116 136
76 116 136
76 116 136
76 116 136
76 116 136
76 116 136
75 116 137
76 115 138
76 115 138
76 115 138
76 115 138
76 115 138
76 115 138
76 115 138
76 115 138
77 116 140
77 116 140
77 116 140
77 116 140
77 116 140
77 116 140
77 116 142
77 116 142
77 116 142
77 116 142
77 116 142
77 116 142
77 116 142
78 115 142
78 115 142
80 115 140
79 114 138
79 113 135
82 117 137
86 121 140
89 120 137
85 113 132
90 113 128
90 113 128
81 101 115
53 72 83
23 41 52
0 12 19
0 4 12
0 6 13
0 12 19
1 6 12
0 2 4
0 0 3
0 0 2
1 0 1
2 0 0
2 0 1
2 0 2
2 0 2
2 0 2
2 0 1
2 0 1
2 0 1
2 0 1
1 0 0
0 0 0
0 0 0
0 0 9
14 29 40
62 77 90
97 121 136
97 121 136
83 113 128
79 113 127
79 115 132
77 117 133
77 117 135
75 118 137
75 117 139
75 117 141
77 116 142
78 115 142
78 115 142
78 115 142
77 116 142
77 116 140
77 116 139
77 116 139
77 116 139
77 116 139
77 116 139
77 116 138
77 117 137
77 117 137
77 117 137
77 117 137
77 117 137
77 117 137
77 117 137
77 117 137
77 117 137
77 117 137
77 117 137
77 117 137
77 117 137
77 117 137
77 117 137
77 117 137
77 117 137
77 117 137
77 117 137
77 117 137
77 117 135
78 116 135
79 115 135
79 115 132
79 115 132
82 113 130
83 113 128
85 113 132
97 121 136
97 121 136
79 97 109
31 51 61
4 17 26
0 8 14
0 4 12
0 1 6
0 1 4
0 0 1
0 0 1
1 4 5
0 6 5
1 4 5
0 0 0
0 0 0
0 0 0
0 0 0
0 0 0
0 0 0
0 0 0
0 0 0
0 0 0
0 0 0
0 0 0
0 0 0
0 0 0
0 0 0
0 0 0
0 0 0
1 1 1
1 1 1
1 1 1
1 1 1
1 1 1
1 1 1
1 1 1
1 1 1
1 1 1
1 1 1
1 1 1
1 1 1
1 1 1
1 1 1
1 1 1
1 1 1
1 1 1
2 2 2
2 2 2
2 2 2
2 2 2
2 2 2
2 2 2
2 2 2
2 2 2
1 1 1
1 1 1
1 1 1
1 1 1
2 1 0
3 1 0
3 1 0
3 1 0
4 2 0
4 2 0
1 0 0
1 0 0
3 4 2
5 4 5
5 4 5
0 0 2
0 0 1
0 0 4
0 0 7
0 4 9
0 8 14
0 12 19
0 6 13
0 1 13
4 17 26
31 43 53
55 79 91
81 106 120
97 121 136
99 127 141
96 123 138
85 113 132
77 111 130
77 111 130
79 114 138
78 115 142
76 115 140
75 116 141
73 117 141
73 117 141
73 117 141
73 117 141
73 117 141
73 117 141
73 116 139
73 116 139
74 116 138
75 116 137
74 116 136
74 116 136
74 116 136
74 116 136
74 116 136
74 116 136
74 116 136
74 116 136
75 116 134
77 116 134
79 115 132
89 120 137
97 124 139
81 101 115
39 51 61
0 0 9
0 0 0
2 1 3
3 4 6
0 2 1
0 3 0
0 3 2
0 2 3
0 1 6
1 1 8
0 1 6
0 1 6
0 2 4
0 2 2
0 2 1
0 2 1
0 2 1
0 2 1
0 2 1
0 2 1
0 2 1
0 2 1
0 2 1
0 2 1
0 2 1
0 2 1
0 2 1
0 2 1
0 1 0
0 0 0
0 0 0
0 0 0
0 0 0
0 0 0
0 0 0
0 0 0
0 0 0
0 0 0
0 0 0
0 0 0
0 0 0
0 0 0
0 0 0
0 0 0
0 0 0
0 0 0
0 0 0
0 0 0
0 0 0
0 0 0
0 0 0
0 0 0
0 0 0
0 0 0
0 0 0
0 0 0
0 0 0
0 1 0
1 2 0
1 2 0
1 2 0
3 2 0
3 2 0
1 2 0
0 1 0
0 2 0
1 4 1
0 5 1
0 6 5
0 6 5
2 6 12
0 8 14
2 10 15
2 10 15
2 10 15
2 10 15
2 10 15
2 10 15
0 8 14
2 6 12
2 6 12
2 6 12
2 6 12
2 6 12
2 6 12
2 6 12
2 6 12
2 6 12
2 6 12
2 6 12
2 6 12
2 6 12
2 6 12
2 4 11
2 4 11
2 4 11
2 4 11
2 4 11
2 4 11
2 4 11
2 4 11
2 4 11
2 4 11
2 4 11
2 4 11
2 4 11
2 4 11
2 4 11
2 4 11
2 4 11
2 4 11
2 4 11
2 4 11
2 4 11
2 4 11
2 4 11
2 4 11
2 4 11
0 2 9
0 2 9
0 2 9
0 2 9
0 2 9
0 2 9
0 2 9
0 2 9
0 2 9
0 2 9
0 2 9
0 2 9
0 2 9
0 2 9
0 2 9
0 2 9
0 2 9
0 2 9
0 2 9
0 2 9
0 2 9
0 2 9
0 2 9
0 2 9
0 2 9
0 2 9
0 2 9
0 2 9
0 2 9
0 2 9
0 2 9
0 2 9
0 2 9
0 2 9
0 2 9
0 2 9
0 2 9
0 2 9
0 2 9
2 4 11
2 4 11
2 4 11
2 4 11
2 6 12
2 6 12
2 6 12
0 8 14
2 10 15
2 10 15
2 6 12
2 10 15
4 17 26
23 41 52
53 72 83
81 101 115
93 116 131
96 123 138
90 113 128
81 106 120
81 106 120
81 110 128
83 113 128
83 113 128
83 113 128
81 110 128
85 113 132
85 113 132
85 113 132
85 113 132
82 113 130
81 110 128
81 110 128
85 113 132
85 113 132
85 113 132
82 113 130
82 113 130
82 113 130
82 113 130
82 113 130
82 113 130
85 113 132
85 113 132
85 113 132
82 115 132
82 113 130
82 113 130
82 113 130
82 113 130
82 113 130
82 113 130
79 113 127
79 113 132
77 115 131
77 115 131
77 115 134
77 115 134
77 116 137
78 118 139
78 118 139
78 118 139
78 118 139
78 118 139
78 118 139
78 118 139
78 118 139
77 117 137
77 117 137
77 117 137
77 117 137
76 116 136
76 116 136
76 116 136
76 116 136
76 116 136
76 116 136
76 116 136
76 116 136
76 116 136
76 116 136
76 116 136
76 116 136
76 116 136
76 116 136
76 116 136
76 116 136
76 116 136
76 116 136
76 116 136
76 116 136
76 116 136
76 116 136
76 116 136
76 116 136
75 116 137
76 115 138
76 115 138
76 115 138
76 115 138
76 115 138
76 115 138
76 115 138
76 115 138
77 116 140
77 116 142
77 116 142
77 116 142
77 116 142
77 116 142
77 116 142
77 116 142
77 116 142
77 116 142
77 116 142
77 116 142
77 116 142
78 115 142
80 115 140
80 115 140
79 113 135
77 111 130
83 113 135
96 123 138
99 127 141
95 118 134
90 113 128
81 106 120
62 77 90
23 41 52
4 17 26
0 8 14
2 10 15
0 4 12
0 3 5
0 2 4
0 2 4
0 1 3
0 0 2
1 0 1
2 0 0
2 0 1
2 0 2
2 0 2
2 0 2
2 0 1
2 0 0
2 0 0
2 0 0
1 0 0
0 0 0
0 0 0
0 0 9
14 29 40
62 77 90
97 121 136
97 121 136
83 113 128
79 113 127
79 115 132
77 117 133
77 117 135
76 117 136
75 116 139
77 116 140
78 115 142
78 115 142
78 115 142
78 115 142
77 116 140
77 116 139
77 116 139
77 116 139
77 116 139
77 116 139
77 116 139
77 116 138
77 117 137
77 117 137
77 117 137
77 117 137
77 117 137
77 117 137
77 117 137
77 117 137
77 117 137
77 117 137
77 117 137
77 117 137
77 117 137
77 117 137
77 117 137
77 117 137
77 117 137
77 117 137
77 117 137
77 117 137
77 117 135
78 116 135
79 115 135
79 115 135
79 115 132
82 113 130
82 113 130
85 116 133
97 124 139
99 127 141
90 113 128
55 79 91
23 41 52
4 17 26
0 4 12
0 2 9
1 4 10
1 1 8
0 1 6
0 4 9
1 6 12
1 4 5
0 0 0
0 0 0
0 0 0
0 0 0
0 0 0
0 0 0
0 0 0
0 0 0
0 0 0
0 0 0
0 0 0
0 0 0
0 0 0
0 0 0
0 0 0
0 0 0
1 1 1
1 1 1
1 1 1
1 1 1
1 1 1
1 1 1
1 1 1
1 1 1
1 1 1
1 1 1
1 1 1
1 1 1
1 1 1
1 1 1
1 1 1
1 1 1
1 1 1
2 2 2
2 2 2
2 2 2
2 2 2
2 2 2
2 2 2
2 2 2
2 2 2
1 1 1
1 1 1
1 1 1
1 1 1
2 1 0
3 1 0
4 2 0
3 1 0
3 1 0
3 1 0
4 2 0
4 2 0
3 4 2
3 4 2
3 4 2
2 1 3
2 1 1
0 0 2
0 0 4
0 2 9
1 6 12
0 8 14
0 4 12
0 1 10
0 4 16
14 29 40
39 51 61
68 87 100
90 113 128
99 127 141
97 124 139
85 113 132
77 107 124
77 111 130
79 114 138
78 115 142
77 116 142
75 116 141
73 117 141
73 117 141
73 117 141
73 117 141
73 117 141
73 117 141
73 116 139
73 116 139
74 116 138
75 116 137
74 116 136
74 116 136
74 116 136
74 116 136
75 116 136
75 116 136
75 116 136
75 116 136
75 116 134
77 115 134
79 114 134
89 120 137
97 124 139
81 101 115
39 51 61
0 0 9
0 0 0
2 1 3
3 4 6
0 2 1
0 3 0
0 3 2
0 2 3
0 1 6
1 1 8
0 1 6
0 1 6
0 2 4
0 2 2
0 2 1
0 2 1
0 2 1
0 2 1
0 2 1
0 2 1
0 2 1
0 2 1
0 2 1
0 2 1
0 2 1
0 2 1
0 2 1
0 2 1
0 1 0
0 0 0
0 0 0
0 0 0
0 0 0
0 0 0
0 0 0
0 0 0
0 0 0
0 0 0
0 0 0
0 0 0
0 0 0
0 0 0
0 0 0
0 0 0
0 0 0
0 0 0
0 0 0
0 0 0
0 0 0
0 0 0
0 0 0
0 0 0
0 0 0
0 0 0
0 0 0
0 0 0
0 0 0
1 0 0
2 1 0
3 2 0
2 1 0
2 1 0
1 2 0
1 2 0
1 2 0
0 3 0
1 4 1
1 4 1
1 4 1
1 4 5
0 4 9
2 6 12
2 6 12
2 6 12
0 8 14
0 8 14
0 8 14
0 8 14
1 6 12
1 6 12
1 6 12
1 4 10
1 4 10
1 4 10
1 4 10
1 4 10
1 4 10
1 4 10
1 4 10
1 4 10
1 4 10
1 4 10
1 4 10
1 4 10
1 4 10
1 1 8
1 1 8
1 1 8
1 1 8
3 4 6
3 4 6
3 4 6
3 4 6
3 4 6
3 4 6
2 1 7
2 1 7
2 1 7
2 1 7
2 1 7
2 1 7
2 1 7
2 1 7
2 1 7
2 1 7
2 1 7
2 1 7
2 1 7
2 1 7
3 1 6
3 1 6
3 1 6
3 1 6
3 1 6
3 1 6
3 1 6
3 1 6
3 1 6
3 1 6
3 1 6
3 1 6
3 1 6
3 1 6
3 1 6
3 1 6
3 1 6
3 1 6
3 1 6
3 1 6
3 1 6
3 1 6
3 1 6
3 1 6
3 1 6
3 1 6
3 1 6
3 1 6
3 1 6
3 1 6
3 1 6
3 1 6
3 1 6
3 1 6
3 1 6
3 1 6
3 1 6
3 1 6
3 1 6
3 4 6
3 4 6
3 4 6
1 4 10
2 6 12
2 6 12
1 6 12
0 8 14
2 10 15
1 6 12
2 10 15
12 20 29
23 41 52
53 72 83
71 97 112
83 113 128
90 116 132
83 113 128
83 113 128
79 113 127
82 113 130
82 113 130
79 113 132
79 113 132
83 113 135
83 113 135
83 113 135
83 113 135
83 113 135
79 113 135
79 113 135
79 113 135
82 113 136
83 113 135
83 113 135
83 113 135
79 113 132
79 113 132
79 113 132
79 113 132
79 114 134
82 115 132
82 115 132
82 115 136
82 115 136
79 115 132
79 115 132
79 115 132
79 114 134
77 115 131
77 115 131
78 115 132
77 116 134
78 117 135
78 118 139
78 118 139
78 118 139
75 116 137
74 116 136
75 116 136
75 116 136
75 116 136
75 116 136
76 117 138
75 118 138
78 118 139
75 118 137
75 118 137
75 118 137
77 117 137
77 117 137
77 117 137
77 117 137
77 117 137
76 116 136
76 116 136
76 116 136
76 116 136
76 116 136
76 116 136
76 116 136
76 116 136
76 116 136
76 116 136
76 116 136
76 116 136
76 116 136
76 116 136
76 116 136
76 116 136
76 116 136
76 116 136
76 116 136
76 116 136
75 116 137
76 115 138
76 115 138
76 115 138
76 115 138
76 115 138
76 115 138
76 115 138
76 115 138
77 116 140
77 116 142
77 116 142
77 116 142
77 116 142
77 116 142
77 116 142
77 116 142
77 116 142
77 116 142
78 115 142
78 115 142
77 116 142
78 115 142
80 115 140
82 116 140
77 111 130
77 107 124
81 110 128
89 118 136
99 127 141
97 121 136
81 106 120
68 87 100
39 51 61
12 20 29
0 8 14
0 4 12
2 6 12
0 4 9
0 1 4
0 1 3
0 2 3
0 2 2
1 1 1
2 0 0
2 0 0
2 0 1
2 0 2
2 0 2
2 0 2
2 0 1
2 0 0
2 0 0
2 0 0
1 0 0
0 0 0
0 0 0
0 0 9
14 29 40
62 77 90
97 121 136
97 121 136
83 113 128
79 113 127
79 115 132
77 117 133
77 117 135
77 117 137
77 116 139
78 115 139
78 115 142
78 115 142
78 115 142
78 115 139
77 116 139
77 116 139
77 116 139
77 116 139
77 116 139
77 116 139
77 116 139
77 116 138
77 117 137
77 117 137
77 117 137
77 117 137
77 117 137
77 117 137
77 117 137
77 117 137
77 117 137
77 117 137
77 117 137
77 117 137
77 117 137
77 117 137
77 117 137
77 117 137
77 117 137
77 117 137
77 117 137
77 117 137
77 117 135
78 116 135
78 116 135
78 116 135
79 115 135
82 115 132
85 116 133
89 118 136
96 123 138
96 123 138
90 116 132
71 97 112
47 64 75
14 29 40
0 12 19
0 4 12
0 6 13
1 6 12
0 8 14
0 8 14
1 6 12
1 4 5
0 0 1
0 0 0
0 0 0
0 0 0
0 0 0
0 0 0
0 0 0
0 0 0
0 0 0
0 0 0
0 0 0
0 0 0
0 0 0
0 0 0
0 0 0
0 0 0
1 1 1
1 1 1
1 1 1
1 1 1
1 1 1
1 1 1
1 1 1
1 1 1
1 1 1
1 1 1
1 1 1
1 1 1
1 1 1
1 1 1
1 1 1
1 1 1
1 1 1
2 2 2
2 2 2
2 2 2
2 2 2
2 2 2
2 2 2
2 2 2
2 2 2
1 1 1
1 1 1
1 1 1
1 1 1
2 1 0
3 1 0
4 2 0
3 1 0
1 0 0
2 0 0
7 1 0
7 1 0
4 2 0
0 0 0
2 1 1
5 4 5
3 4 2
0 2 3
0 2 4
0 1 6
0 1 6
0 1 6
0 2 9
1 6 12
0 8 14
4 17 26
24 35 46
47 64 75
79 97 109
93 116 131
97 121 136
90 113 128
77 107 124
77 111 130
79 114 138
78 115 142
77 116 142
77 116 142
73 117 141
73 117 141
73 117 141
73 117 141
73 117 141
73 117 141
73 116 139
73 116 139
74 116 138
75 116 137
74 116 136
74 116 136
74 116 136
74 116 136
76 116 136
76 116 136
76 116 136
76 116 136
76 115 135
77 115 134
79 114 134
89 120 137
97 124 139
81 101 115
39 51 61
0 0 9
0 0 0
2 1 3
3 4 6
0 2 1
0 3 0
0 3 2
0 2 3
0 1 6
1 1 8
0 1 6
0 1 6
0 2 4
0 2 2
0 2 1
0 2 1
0 2 1
0 2 1
0 2 1
0 2 1
0 2 1
0 2 1
0 2 1
0 2 1
0 2 1
0 2 1
0 2 1
0 2 1
0 1 0
0 0 0
0 0 0
0 0 0
0 0 0
0 0 0
0 0 0
0 0 0
0 0 0
0 0 0
0 0 0
0 0 0
0 0 0
0 0 0
0 0 0
0 0 0
0 0 0
0 0 0
0 0 0
0 0 0
0 0 0
0 0 0
0 0 0
0 0 0
0 0 0
0 0 0
0 0 0
0 0 0
0 0 0
1 0 0
3 1 0
4 2 0
3 1 0
2 1 0
1 2 0
1 2 0
1 2 0
0 3 0
1 4 1
1 4 1
0 4 1
0 3 2
0 6 5
0 6 5
0 4 9
1 6 12
1 6 12
1 6 12
1 6 12
1 6 12
0 4 9
0 4 5
0 3 5
0 3 5
0 3 5
1 4 5
1 4 5
1 4 5
1 4 5
1 4 5
1 4 5
1 4 5
1 4 5
1 4 5
1 4 5
1 4 5
1 4 5
0 2 3
0 2 3
0 2 3
0 2 3
0 2 3
0 2 3
0 2 3
0 2 3
0 2 3
0 2 3
1 1 3
1 1 3
1 1 3
1 1 3
1 1 3
1 1 3
1 1 3
1 1 3
1 1 3
1 1 3
1 1 3
1 1 3
1 1 3
1 1 3
2 1 3
3 0 3
3 0 3
3 0 3
3 0 3
3 0 3
3 0 3
3 0 3
3 0 3
3 0 3
3 0 3
3 0 3
3 0 3
3 0 3
3 0 3
3 0 3
3 0 3
3 0 3
3 0 3
3 0 3
3 0 3
3 0 3
3 0 3
3 0 3
3 0 3
3 0 3
3 0 3
3 0 3
3 0 3
3 0 3
3 0 3
3 0 3
3 0 3
3 0 3
3 0 3
3 0 3
3 0 3
3 0 3
4 1 5
4 1 5
4 1 5
2 1 3
3 4 6
1 4 10
1 4 10
0 4 9
1 6 12
0 8 14
0 4 9
0 6 13
12 20 29
31 51 61
55 79 91
71 97 112
81 106 120
79 113 127
82 115 132
83 118 136
83 118 136
82 115 136
79 113 135
79 113 135
79 113 135
82 113 136
82 113 136
82 113 136
82 113 136
82 113 136
79 114 138
79 114 138
79 114 138
82 113 136
82 113 136
82 113 136
82 113 136
80 115 137
80 115 137
80 115 137
80 115 137
80 115 137
82 117 137
82 117 137
82 117 137
82 117 137
79 115 135
78 116 135
78 116 135
78 116 135
77 117 135
77 117 135
77 117 137
78 118 139
82 120 140
82 120 140
82 120 140
78 118 139
76 117 138
73 115 135
72 113 134
72 113 134
73 115 135
74 116 136
76 117 138
75 118 138
75 118 138
75 118 137
75 118 137
75 118 137
75 118 137
77 117 137
77 117 137
77 117 137
77 117 137
76 116 136
76 116 136
76 116 136
76 116 136
76 116 136
76 116 136
76 116 136
76 116 136
76 116 136
76 116 136
76 116 136
76 116 136
76 116 136
76 116 136
76 116 136
76 116 136
76 116 136
76 116 136
76 116 136
76 116 136
75 116 137
76 115 138
76 115 138
76 115 138
76 115 138
76 115 138
76 115 138
76 115 138
76 115 138
77 116 140
77 116 142
77 116 142
77 116 142
77 116 142
77 116 142
77 116 142
77 116 142
77 116 142
77 116 142
78 115 142
78 115 142
78 115 142
78 115 142
80 115 140
82 115 136
79 113 132
77 107 124
81 110 128
90 113 128
95 118 134
93 116 131
79 97 109
47 64 75
14 29 40
0 12 19
1 6 12
0 4 9
0 4 9
1 4 5
0 2 4
0 2 3
0 2 3
0 2 2
1 1 1
2 0 0
2 0 0
2 0 1
2 0 2
2 0 2
2 0 2
2 0 1
2 0 0
2 0 0
2 0 0
1 0 0
0 0 0
0 0 0
0 0 9
14 29 40
62 77 90
97 121 136
97 121 136
83 113 128
79 113 127
79 115 132
77 117 133
77 117 135
77 117 137
77 116 139
78 115 139
78 115 142
78 115 142
78 115 142
78 115 139
77 116 139
77 117 139
77 117 139
77 117 139
77 117 139
77 117 139
77 117 139
77 117 137
77 117 137
77 117 137
77 117 137
77 117 137
77 117 137
77 117 137
77 117 137
77 117 137
77 117 137
77 117 137
77 117 137
77 117 137
77 117 137
77 117 137
77 117 137
77 117 137
77 117 137
77 117 137
77 117 137
77 117 137
77 117 137
77 117 135
77 116 137
78 116 135
77 115 134
82 117 137
83 118 136
86 121 140
89 120 137
89 118 136
85 116 133
81 106 120
68 87 100
47 64 75
14 29 40
0 12 19
0 4 12
0 12 19
4 17 26
2 10 15
0 1 6
0 1 1
0 0 2
0 0 2
0 0 1
0 0 0
0 0 0
0 0 0
0 0 0
0 0 0
0 0 0
1 0 0
1 0 0
1 0 0
1 0 0
1 0 0
1 0 0
1 0 0
1 1 0
1 2 0
1 2 0
1 2 0
1 1 1
1 1 1
1 1 1
1 1 1
1 1 1
1 1 1
1 1 1
1 1 1
1 1 1
1 1 1
1 1 1
1 1 1
1 1 1
2 2 2
2 2 2
2 2 2
2 2 2
2 2 2
2 2 2
2 2 2
2 2 2
1 1 1
1 1 1
1 1 1
1 1 1
2 1 0
3 1 0
4 2 0
3 1 0
0 0 0
1 0 0
7 1 0
7 1 0
7 1 0
0 0 0
0 0 0
3 4 2
5 4 5
2 3 2
1 4 5
0 3 5
0 2 4
0 1 5
0 1 6
1 4 10
0 4 9
0 6 13
12 20 29
31 43 53
53 72 83
79 97 109
88 109 125
90 113 128
84 109 126
83 113 135
82 113 136
78 115 142
78 115 142
77 116 142
75 118 142
75 118 142
73 117 141
73 117 141
73 117 141
73 117 141
73 117 141
75 116 141
75 117 139
73 117 136
74 117 135
74 117 135
76 117 136
75 116 136
77 115 134
77 115 134
77 116 134
77 116 134
77 115 134
79 115 132
79 114 134
86 121 140
97 124 139
81 101 115
39 51 61
0 0 9
0 0 0
2 1 3
3 4 6
0 2 0
0 3 0
0 3 2
0 2 3
0 1 5
0 1 6
0 1 6
0 1 5
0 2 3
0 2 2
0 2 1
0 2 1
0 2 1
0 2 1
0 2 1
0 2 1
0 2 1
0 2 1
0 2 1
0 2 1
0 2 1
0 2 1
0 2 1
0 2 1
0 1 0
0 0 0
0 0 0
0 0 0
0 0 0
0 0 0
0 0 0
0 0 0
0 0 0
0 0 0
0 0 0
0 0 0
0 0 0
0 0 0
0 0 0
0 0 0
0 0 0
0 0 0
0 0 0
0 0 0
0 0 0
0 0 0
0 0 0
0 0 0
0 0 0
0 0 0
0 0 0
0 0 0
0 0 0
1 0 0
3 1 0
4 2 0
3 1 0
2 1 0
2 1 0
1 1 0
1 2 0
1 2 0
3 2 0
3 2 0
1 4 1
1 4 1
0 6 5
0 6 5
0 6 5
0 4 9
0 4 9
0 4 9
0 4 9
0 4 9
0 4 5
1 3 2
1 2 3
2 1 3
2 2 2
3 2 1
3 2 1
3 2 1
2 1 1
1 3 2
1 3 2
1 3 2
2 3 2
2 3 2
2 3 2
2 3 2
2 3 2
1 2 1
1 2 1
1 2 1
1 2 1
0 3 2
0 3 2
0 3 2
0 3 2
0 3 2
0 3 2
1 2 1
1 2 1
1 2 1
1 2 1
1 2 1
1 2 1
1 2 1
1 2 1
1 2 1
1 2 1
1 2 1
1 2 1
1 2 1
1 2 1
2 1 1
2 1 1
2 1 1
2 1 1
2 1 1
2 1 1
2 1 1
2 1 1
2 1 1
2 1 1
2 1 1
2 1 1
2 1 1
2 1 1
2 1 1
2 1 1
2 1 1
2 1 1
2 1 1
2 1 1
2 1 1
2 1 1
2 1 1
2 1 1
2 1 1
2 1 1
2 1 1
2 1 1
2 1 1
2 1 1
2 1 1
2 1 1
2 1 1
2 1 1
2 1 1
2 1 1
2 1 1
2 1 1
3 2 1
3 2 1
3 2 1
2 3 2
3 4 6
3 4 6
1 4 10
1 4 10
2 6 12
0 8 14
0 4 9
0 6 13
12 20 29
31 51 61
55 79 91
71 97 112
77 107 124
79 113 127
79 115 132
83 118 136
82 120 140
80 115 137
76 112 136
77 113 139
77 114 140
77 113 139
79 114 138
79 114 138
79 114 138
78 115 139
78 115 139
78 115 139
77 114 140
77 114 140
78 115 139
78 115 139
79 114 138
79 114 138
78 115 137
78 115 137
78 115 137
78 115 139
78 118 139
78 118 139
78 118 139
78 118 139
76 117 136
76 117 136
76 117 136
76 117 136
76 117 136
75 118 137
75 118 137
75 118 137
75 118 137
73 118 135
75 118 137
75 118 138
74 118 139
74 118 139
74 118 139
74 118 139
78 118 139
78 118 139
78 118 139
75 119 142
75 117 141
76 117 138
76 117 138
76 117 138
76 117 138
75 118 137
75 118 137
75 118 137
75 118 137
76 117 136
75 116 136
75 116 136
75 116 136
75 116 136
76 116 136
76 116 136
76 116 136
76 116 136
76 116 136
76 116 136
76 116 136
76 116 136
76 116 136
76 116 136
76 116 136
76 116 136
76 116 136
76 116 136
76 116 136
75 116 137
76 115 138
76 115 138
76 115 138
76 115 138
76 115 138
76 115 138
76 115 138
76 115 138
77 116 140
77 116 142
77 116 142
77 116 142
77 116 142
77 116 142
77 116 142
77 116 142
78 115 142
77 116 142
78 115 142
78 115 142
80 115 140
80 115 140
82 116 140
82 113 136
83 113 135
85 113 132
84 109 126
84 109 126
81 106 120
79 97 109
53 72 83
23 41 52
4 17 26
0 6 13
1 4 10
0 1 6
0 1 6
0 3 5
0 3 5
1 4 5
1 3 2
1 1 2
1 1 1
1 0 0
1 0 0
1 0 0
1 0 1
1 0 1
1 0 1
1 0 0
2 0 0
2 0 0
2 0 0
1 0 0
0 0 0
0 0 0
0 0 9
14 29 40
62 77 90
97 121 136
97 121 136
83 113 128
79 113 127
79 115 132
77 117 133
77 117 135
77 117 137
77 116 139
78 115 139
78 115 142
78 115 142
78 115 142
78 115 139
77 116 139
77 117 139
77 117 137
77 117 137
77 117 137
77 117 137
77 117 137
77 117 137
77 117 137
77 117 137
77 117 137
77 117 137
77 117 137
77 117 137
77 117 137
77 117 137
77 117 137
77 117 137
77 117 137
77 117 137
77 117 137
77 117 137
77 117 137
77 117 137
77 117 137
77 117 137
77 117 137
77 117 137
77 117 137
77 117 137
77 116 137
78 116 135
78 116 135
82 117 137
86 121 140
87 124 142
89 120 137
82 113 130
81 110 128
77 107 124
81 106 120
68 87 100
47 64 75
14 29 40
2 10 15
0 12 19
4 17 26
2 10 15
0 1 5
0 0 2
0 0 3
0 0 2
0 0 1
0 0 0
0 0 0
0 0 0
0 0 0
0 0 0
0 0 0
1 0 0
2 0 0
2 0 0
2 0 0
2 0 0
2 0 0
2 0 0
1 1 0
1 2 0
1 2 0
1 2 0
1 1 1
1 1 1
1 1 1
1 1 1
1 1 1
1 1 1
1 1 1
1 1 1
1 1 1
1 1 1
1 1 1
1 1 1
1 1 1
2 2 2
2 2 2
2 2 2
2 2 2
2 2 2
2 2 2
2 2 2
2 2 2
1 1 1
1 1 1
1 1 1
1 1 1
2 1 0
3 1 0
4 2 0
3 1 0
1 0 0
2 0 0
7 1 0
7 1 0
7 1 0
0 0 0
1 1 0
4 2 0
3 4 2
3 4 2
2 3 2
1 4 5
1 4 5
0 2 4
0 1 6
1 1 8
0 1 6
0 2 9
6 8 13
12 20 29
31 43 53
53 72 83
70 92 106
90 113 128
97 121 136
89 118 136
82 113 136
77 113 139
78 115 142
77 116 142
75 118 142
75 118 142
75 118 142
73 117 141
72 118 141
72 118 141
75 118 142
75 117 141
75 117 139
76 117 138
75 118 137
75 118 137
76 117 136
76 115 135
77 115 134
77 115 134
77 115 134
77 115 134
78 115 132
79 115 132
79 114 134
86 121 140
97 124 139
81 101 115
39 51 61
0 0 9
0 0 0
2 0 2
3 4 2
0 2 0
0 3 0
0 3 2
0 2 3
0 1 5
0 1 6
0 1 5
0 1 4
0 2 3
0 2 2
0 2 1
0 2 1
0 2 1
0 2 1
0 2 1
0 2 1
0 2 1
0 2 1
0 2 1
0 2 1
0 2 1
0 2 1
0 2 1
0 2 1
0 1 0
0 0 0
0 0 0
0 0 0
0 0 0
0 0 0
0 0 0
0 0 0
0 0 0
0 0 0
0 0 0
0 0 0
0 0 0
0 0 0
0 0 0
0 0 0
0 0 0
0 0 0
0 0 0
0 0 0
0 0 0
0 0 0
0 0 0
0 0 0
0 0 0
0 0 0
0 0 0
0 0 0
0 0 0
1 0 0
3 1 0
3 1 0
3 1 0
3 1 0
3 1 0
2 1 0
1 2 0
1 2 0
3 2 0
3 2 0
1 4 1
1 4 1
0 5 1
0 6 5
0 6 5
0 6 5
0 4 9
0 4 9
0 6 5
0 6 5
1 3 2
2 2 2
3 2 1
4 1 2
4 2 0
4 2 0
4 2 0
4 2 0
3 2 0
3 2 0
3 2 0
3 2 0
3 2 0
3 2 0
3 2 0
3 2 0
3 2 0
1 2 0
1 2 0
1 2 0
1 2 0
0 3 0
0 3 0
0 3 0
0 3 0
0 3 0
0 3 0
0 3 0
0 3 0
0 3 0
0 3 0
0 3 0
0 3 0
0 3 0
0 3 0
0 3 0
0 3 0
0 3 0
1 2 0
1 2 0
1 2 0
1 2 0
1 2 0
1 2 0
1 2 0
1 2 0
1 2 0
1 2 0
1 2 0
1 2 0
1 2 0
1 2 0
1 2 0
1 2 0
1 2 0
1 2 0
1 2 0
1 2 0
1 2 0
1 2 0
1 2 0
1 2 0
1 2 0
1 2 0
1 2 0
1 2 0
1 2 0
1 2 0
1 2 0
1 2 0
1 2 0
1 2 0
1 2 0
1 2 0
1 2 0
1 2 0
1 2 0
1 2 0
1 2 0
3 2 0
3 2 0
3 2 0
3 2 0
3 4 2
3 4 6
3 4 6
1 4 10
2 6 12
1 6 12
0 4 9
0 6 13
12 20 29
31 51 61
55 79 91
71 97 112
79 113 127
83 113 128
79 115 132
83 118 136
82 117 137
78 116 138
77 113 139
77 114 140
78 115 142
77 114 140
77 114 140
77 114 140
77 114 140
77 114 140
77 114 140
77 114 140
77 114 140
77 116 142
77 116 142
77 116 140
77 116 139
77 116 139
77 116 139
77 116 139
77 116 139
77 116 140
75 118 142
75 119 142
75 119 142
75 118 138
75 118 137
75 118 137
75 118 137
75 118 137
75 118 137
75 118 137
72 117 136
72 117 135
72 113 134
72 113 134
72 113 134
72 117 135
74 118 139
75 119 142
75 119 142
75 119 142
82 120 140
82 120 140
75 119 142
75 118 142
75 117 141
75 117 139
75 117 139
75 117 139
75 117 139
75 118 137
75 118 137
75 118 137
75 118 137
74 117 135
74 116 136
74 116 136
74 116 136
75 116 136
76 116 136
76 116 136
76 116 136
76 116 136
76 116 136
76 116 136
76 116 136
76 116 136
76 116 136
76 116 136
76 116 136
76 116 136
76 116 136
76 116 136
76 116 136
75 116 137
76 115 138
76 115 138
76 115 138
76 115 138
76 115 138
76 115 138
76 115 138
76 115 138
77 116 140
77 116 142
77 116 142
77 116 142
77 116 142
77 116 142
77 116 142
77 116 142
78 115 142
78 115 142
78 115 142
78 115 142
80 115 140
82 113 136
82 113 136
82 113 136
89 118 136
95 118 134
93 116 131
81 101 115
68 87 100
53 72 83
31 51 61
14 29 40
0 12 19
0 4 12
0 4 9
0 2 4
0 2 4
0 3 5
0 4 5
1 4 5
2 3 2
2 2 2
1 1 1
0 0 0
0 0 0
0 0 0
0 0 0
0 0 0
0 0 0
1 0 0
2 0 0
2 0 0
2 0 0
1 0 0
0 0 0
0 0 0
0 0 9
14 29 40
62 77 90
97 121 136
97 121 136
83 113 128
79 113 127
79 115 132
77 117 133
77 117 135
77 117 137
77 116 139
78 115 139
78 115 142
78 115 142
78 115 142
78 115 139
77 116 139
77 117 139
77 117 137
77 117 137
77 117 137
77 117 137
77 117 137
77 117 137
77 117 137
77 117 137
77 117 137
77 117 137
77 117 137
77 117 137
77 117 137
77 117 137
77 117 137
77 117 137
77 117 137
77 117 137
77 117 137
77 117 137
77 117 137
77 117 137
77 117 137
77 117 137
77 117 137
77 117 137
77 117 137
77 117 137
77 117 135
78 117 135
77 117 137
80 117 140
82 120 140
87 124 142
83 118 136
77 107 124
70 105 125
77 107 124
83 113 128
84 109 126
70 92 106
39 51 61
14 29 40
2 10 15
0 4 9
1 6 12
1 6 12
1 4 10
0 0 3
0 0 1
0 0 0
0 0 0
0 0 0
0 0 0
0 0 0
0 0 0
0 0 0
1 0 0
2 0 0
2 0 0
2 0 0
2 0 0
2 0 0
2 0 0
1 1 0
1 2 0
1 2 0
1 2 0
1 1 1
1 1 1
1 1 1
1 1 1
1 1 1
1 1 1
1 1 1
1 1 1
1 1 1
1 1 1
1 1 1
1 1 1
1 1 1
2 2 2
2 2 2
2 2 2
2 2 2
2 2 2
2 2 2
2 2 2
2 2 2
1 1 1
1 1 1
0 0 0
0 0 0
1 0 0
2 0 0
3 0 0
2 0 0
3 1 0
4 2 0
4 2 0
4 2 0
4 2 0
4 2 0
4 2 0
4 2 0
2 1 1
2 2 2
2 2 2
2 3 2
2 3 2
1 4 5
1 1 8
1 1 8
1 1 5
0 0 6
0 2 9
6 8 13
12 20 29
31 43 53
62 77 90
88 109 125
99 127 141
97 124 139
82 113 136
76 112 136
78 115 142
77 116 142
77 116 142
75 118 142
75 118 142
75 118 142
72 118 141
72 118 141
75 118 142
75 117 141
75 117 139
76 117 138
76 117 138
76 117 138
77 116 134
76 115 135
77 115 134
78 115 132
78 115 132
78 115 132
79 113 132
79 113 132
79 113 132
89 120 137
97 124 139
81 101 115
39 51 61
0 0 9
0 0 0
2 0 2
3 4 2
0 2 0
0 3 0
0 3 0
0 2 3
0 1 5
0 1 6
0 1 5
0 1 4
0 2 3
0 2 2
0 2 1
0 2 1
0 2 1
0 2 1
0 2 1
0 2 1
0 2 1
0 2 1
0 2 1
0 2 1
0 2 1
0 2 1
0 2 1
0 2 1
0 1 0
0 0 0
0 0 0
0 0 0
0 0 0
0 0 0
0 0 0
0 0 0
0 0 0
0 0 0
0 0 0
0 0 0
0 0 0
0 0 0
0 0 0
0 0 0
0 0 0
0 0 0
0 0 0
0 0 0
0 0 0
0 0 0
0 0 0
0 0 0
0 0 0
0 0 0
0 0 0
0 0 0
0 0 0
1 0 0
3 1 0
3 1 0
3 1 0
3 1 0
3 1 0
3 1 0
2 1 0
2 1 0
3 2 0
3 2 0
1 4 1
1 4 1
0 5 1
0 6 5
0 6 5
0 6 5
0 6 5
0 6 5
0 6 5
0 6 5
2 3 2
4 1 2
4 2 0
7 1 0
7 1 0
7 1 0
4 2 0
4 2 0
4 2 0
3 2 0
3 2 0
3 2 0
3 2 0
3 2 0
3 2 0
3 2 0
3 2 0
1 2 0
1 2 0
1 2 0
1 2 0
0 3 0
0 3 0
0 3 0
0 3 0
0 3 0
0 3 0
0 3 0
0 3 0
0 3 0
0 3 0
0 3 0
0 3 0
0 3 0
0 3 0
0 3 0
0 3 0
0 3 0
1 2 0
1 2 0
1 2 0
1 2 0
1 2 0
1 2 0
1 2 0
1 2 0
1 2 0
1 2 0
1 2 0
1 2 0
1 2 0
1 2 0
1 2 0
1 2 0
1 2 0
1 2 0
1 2 0
1 2 0
1 2 0
1 2 0
1 2 0
1 2 0
1 2 0
1 2 0
1 2 0
1 2 0
1 2 0
1 2 0
1 2 0
1 2 0
1 2 0
1 2 0
1 2 0
1 2 0
1 2 0
1 2 0
1 2 0
1 2 0
1 2 0
0 3 0
0 3 0
3 2 0
3 2 0
3 4 2
5 4 5
3 4 6
3 4 6
1 4 10
1 6 12
0 4 5
0 6 13
4 17 26
31 43 53
53 72 83
71 97 112
83 113 128
89 120 137
82 115 132
78 117 135
76 115 135
76 115 138
77 114 140
77 114 140
77 116 142
76 115 140
76 115 140
76 115 140
76 115 140
76 115 140
76 115 140
76 115 140
76 115 140
75 116 141
75 117 141
75 117 141
75 117 141
75 117 141
75 117 141
75 117 141
75 117 141
75 117 141
74 118 139
74 118 139
74 118 139
74 118 139
74 118 139
74 118 139
74 118 139
74 118 139
74 118 139
74 118 139
72 117 138
70 117 136
70 117 136
70 117 136
70 117 136
70 117 136
74 118 139
75 119 142
75 119 142
75 119 142
75 119 142
75 119 142
75 119 142
75 117 141
75 117 141
75 117 139
75 117 139
75 117 139
75 117 139
73 117 136
74 117 135
74 117 135
74 117 135
74 117 135
74 116 136
74 116 136
74 116 136
75 116 136
76 116 136
76 116 136
76 116 136
76 116 136
76 116 136
76 116 136
76 116 136
76 116 136
76 116 136
76 116 136
76 116 136
76 116 136
76 116 136
76 116 136
76 116 136
75 116 137
76 115 138
76 115 138
76 115 138
76 115 138
76 115 138
76 115 138
76 115 138
77 116 138
78 117 140
77 116 142
77 116 142
77 116 142
76 115 140
76 115 140
76 115 140
77 116 142
78 115 142
80 115 140
82 116 140
80 115 140
79 114 138
82 113 136
79 113 132
81 110 128
89 118 136
97 121 136
93 116 131
70 92 106
53 72 83
31 43 53
14 29 40
4 17 26
0 8 14
0 4 9
1 4 5
0 2 3
0 3 2
0 4 5
1 4 5
1 4 5
2 3 2
2 2 2
1 1 1
0 0 0
0 0 0
0 0 0
0 0 0
0 0 0
0 0 0
1 0 0
2 0 0
2 0 0
2 0 0
1 0 0
0 0 0
0 0 0
0 0 9
14 29 40
62 77 90
97 121 136
97 121 136
83 113 128
79 113 127
79 115 132
77 117 133
77 117 135
77 117 137
77 116 139
78 115 139
78 115 142
78 115 142
78 115 142
78 115 139
77 116 139
77 117 139
77 117 137
77 117 137
77 117 137
77 117 137
77 117 137
77 117 137
77 117 137
77 117 137
77 117 137
77 117 137
77 117 137
77 117 137
77 117 137
77 117 137
77 117 137
77 117 137
77 117 137
77 117 137
77 117 137
77 117 137
77 117 137
77 117 137
77 117 137
77 117 137
77 117 137
77 117 137
77 117 137
77 117 137
77 117 137
77 117 137
77 117 139
78 118 139
82 120 140
87 124 142
82 117 137
70 105 125
70 105 125
77 107 124
89 118 136
96 123 138
90 113 128
68 87 100
31 51 61
12 20 29
0 0 7
1 1 8
0 12 19
0 8 14
0 1 5
0 0 2
0 0 1
0 0 0
0 0 0
0 0 0
0 0 0
0 0 0
0 0 0
1 0 0
2 0 0
2 0 0
2 0 0
2 0 0
2 0 0
2 0 0
1 1 0
1 2 0
1 2 0
1 2 0
1 1 1
1 1 1
1 1 1
1 1 1
1 1 1
1 1 1
1 1 1
1 1 1
1 1 1
1 1 1
1 1 1
1 1 1
1 1 1
2 2 2
2 2 2
2 2 2
2 2 2
2 2 2
2 2 2
2 2 2
2 2 2
1 1 1
1 1 1
0 0 0
0 0 0
1 0 0
2 0 0
2 0 0
2 0 0
4 2 0
7 1 0
2 0 0
0 0 0
3 2 1
7 1 0
7 1 0
2 0 0
0 0 0
1 1 1
1 1 1
2 2 2
2 3 2
1 4 5
3 4 6
1 1 8
1 1 5
1 1 5
0 0 4
0 0 9
0 4 16
23 29 39
39 51 61
79 97 109
97 121 136
96 123 138
83 113 135
79 114 138
78 115 142
78 115 142
74 114 140
75 118 142
75 119 142
75 119 142
72 118 141
72 118 141
75 118 142
74 118 139
75 117 139
75 117 139
77 116 139
77 116 138
77 115 134
77 115 134
78 115 132
79 115 132
79 113 132
79 113 132
79 113 132
82 113 130
82 113 130
89 118 136
97 124 139
81 101 115
39 51 61
0 0 7
0 0 0
2 0 2
3 4 2
0 2 0
0 3 0
0 3 0
0 2 2
0 1 5
0 1 6
0 1 5
0 1 4
0 2 3
0 2 2
0 2 1
0 2 1
0 2 1
0 2 1
0 2 1
0 2 1
0 2 1
0 2 1
0 2 1
0 2 1
0 2 1
0 2 1
0 2 1
0 2 1
0 1 0
0 0 0
0 0 0
0 0 0
0 0 0
0 0 0
0 0 0
0 0 0
0 0 0
0 0 0
0 0 0
0 0 0
0 0 0
0 0 0
0 0 0
0 0 0
0 0 0
0 0 0
0 0 0
0 0 0
0 0 0
0 0 0
0 0 0
0 0 0
0 0 0
0 0 0
0 0 0
0 0 0
0 0 0
1 0 0
3 1 0
3 1 0
3 1 0
3 1 0
3 1 0
3 1 0
3 1 0
3 2 0
3 2 0
3 2 0
3 2 0
2 3 2
0 4 1
0 5 1
0 6 5
0 6 5
0 6 5
0 6 5
0 6 5
0 5 1
2 3 2
4 1 2
4 1 2
7 1 0
7 1 0
7 1 0
4 2 0
4 2 0
4 2 0
4 2 0
4 2 0
4 2 0
3 2 0
3 2 0
3 2 0
3 2 0
3 2 0
1 2 0
1 2 0
1 2 0
1 2 0
0 3 0
0 3 0
0 3 0
0 3 0
0 3 0
0 3 0
0 3 0
0 3 0
0 3 0
0 3 0
0 3 0
0 3 0
0 3 0
0 3 0
0 3 0
0 3 0
0 3 0
1 2 0
1 2 0
1 2 0
1 2 0
1 2 0
1 2 0
1 2 0
1 2 0
1 2 0
1 2 0
1 2 0
1 2 0
1 2 0
1 2 0
1 2 0
1 2 0
1 2 0
1 2 0
1 2 0
1 2 0
1 2 0
1 2 0
1 2 0
1 2 0
1 2 0
1 2 0
1 2 0
1 2 0
1 2 0
1 2 0
1 2 0
1 2 0
1 2 0
1 2 0
1 2 0
1 2 0
1 2 0
1 2 0
1 2 0
1 2 0
1 2 0
0 3 0
3 2 0
3 2 0
4 2 0
4 2 0
5 4 5
5 4 5
3 4 6
1 4 10
1 4 10
0 4 5
1 6 12
4 17 26
23 41 52
53 72 83
81 106 120
93 121 136
89 120 137
82 115 132
75 116 134
72 113 134
76 114 136
77 116 142
76 115 140
76 115 140
76 115 140
76 115 140
76 115 140
76 115 140
76 115 140
76 115 140
76 115 140
76 115 140
76 115 140
75 117 141
75 117 141
75 117 141
75 117 141
75 117 141
75 117 141
75 117 141
75 117 141
74 118 139
74 118 139
74 118 139
74 118 139
74 118 139
74 118 139
74 118 139
74 118 139
74 118 139
74 118 139
74 118 139
74 118 139
74 118 139
74 118 139
74 118 139
72 117 136
72 117 138
74 118 139
72 117 138
72 117 138
73 117 138
75 117 139
75 117 139
75 117 139
75 117 139
75 117 139
75 117 139
75 117 139
76 117 138
75 116 137
74 116 136
74 116 136
74 116 136
74 116 136
74 116 136
74 116 136
74 116 136
75 116 136
76 116 136
76 116 136
76 116 136
76 116 136
76 116 136
76 116 136
76 116 136
76 116 136
76 116 136
76 116 136
76 116 136
76 116 136
76 116 136
76 116 136
76 116 136
75 116 137
76 115 138
76 115 138
76 115 138
76 115 138
76 115 138
76 115 138
76 115 138
76 115 138
77 116 140
77 116 142
77 116 142
77 116 142
75 116 141
76 115 140
76 115 140
77 114 140
80 115 140
82 116 140
82 116 140
82 113 136
82 113 136
83 113 135
83 113 135
82 113 130
91 117 133
95 118 134
81 106 120
62 77 90
31 51 61
12 20 29
0 12 19
0 8 14
0 8 14
0 3 5
0 2 4
0 3 2
0 4 5
1 4 5
2 3 2
2 3 2
2 3 2
2 3 2
1 1 1
0 0 0
0 0 0
0 0 0
0 0 0
0 0 0
0 0 0
1 0 0
2 0 0
2 0 0
2 0 0
1 0 0
0 0 0
0 0 0
0 0 9
14 29 40
62 77 90
97 121 136
97 121 136
83 113 128
79 113 127
79 115 132
77 117 133
77 117 135
77 117 137
77 116 139
78 115 139
78 115 142
78 115 142
78 115 142
78 115 139
77 116 139
77 117 139
77 117 137
77 117 137
77 117 137
77 117 137
77 117 137
77 117 137
77 117 139
77 117 139
77 117 139
77 117 139
77 117 139
77 117 139
77 117 139
77 117 139
77 117 137
77 117 137
77 117 137
77 117 137
77 117 137
77 117 137
77 117 137
77 117 137
77 117 139
77 117 139
77 117 139
77 117 139
77 117 139
76 117 138
76 117 138
76 117 138
75 118 138
78 118 139
82 120 140
82 120 140
82 117 137
77 111 130
70 105 125
77 107 124
89 118 136
99 127 141
99 127 141
84 109 126
68 87 100
31 51 61
12 20 29
0 1 13
0 4 12
0 6 13
1 6 12
0 4 9
0 2 3
0 0 1
0 0 1
0 0 0
0 0 0
0 0 0
0 0 0
0 0 0
1 1 0
1 0 0
2 0 0
2 0 0
2 0 0
2 0 0
2 1 0
2 1 0
2 1 0
2 1 0
1 1 1
1 1 1
1 1 1
1 1 1
1 1 1
1 1 1
1 1 1
1 1 1
1 1 1
1 1 1
1 1 1
1 1 1
1 1 1
2 2 2
2 2 2
2 2 2
2 2 2
2 2 2
2 2 2
2 2 2
2 2 2
1 1 1
1 1 1
0 0 0
0 0 0
1 0 0
2 0 0
2 0 0
2 0 0
4 2 0
4 2 0
2 0 0
0 0 0
3 2 1
7 1 0
4 2 0
0 0 0
0 0 0
1 1 1
1 1 1
2 1 1
2 2 2
2 3 2
1 2 3
1 1 5
1 1 5
2 1 7
1 1 5
0 0 7
0 0 12
6 12 17
24 35 46
53 72 83
79 97 109
84 109 126
85 113 132
86 121 140
82 118 141
78 115 142
74 114 140
77 116 142
75 119 142
75 119 142
75 118 142
72 118 141
75 118 142
74 118 139
75 117 141
75 117 141
77 116 140
78 116 138
78 116 135
79 115 132
79 115 132
79 115 132
82 115 132
82 113 130
82 113 130
83 113 128
82 113 130
89 118 136
97 124 139
81 101 115
39 51 61
0 0 7
0 0 0
2 0 1
3 4 2
0 2 0
0 3 0
0 3 0
0 2 1
0 1 4
0 1 5
0 1 5
0 1 4
0 2 3
0 2 2
0 2 2
0 2 2
0 2 2
0 2 2
0 2 2
0 2 2
0 2 2
0 2 2
0 2 2
0 2 2
0 2 2
0 2 2
0 2 2
0 2 2
0 1 0
0 0 0
0 0 0
0 0 0
0 0 0
0 0 0
0 0 0
0 0 0
0 0 0
0 0 0
0 0 0
0 0 0
0 0 0
0 0 0
0 0 0
0 0 0
0 0 0
0 0 0
0 0 0
0 0 0
0 0 0
0 0 0
0 0 0
0 0 0
0 0 0
0 0 0
0 0 0
0 0 0
0 0 0
1 0 0
2 1 0
2 1 0
2 1 0
2 1 0
3 1 0
3 1 0
3 1 0
3 2 0
2 1 0
3 2 0
2 1 0
2 1 1
0 3 2
0 4 1
0 5 1
0 5 1
0 5 1
0 4 5
1 4 1
1 4 1
2 2 2
3 2 1
4 0 0
4 0 0
4 0 0
4 2 0
4 2 0
2 1 0
3 2 0
3 2 0
3 2 0
3 2 0
2 1 0
0 3 0
0 3 0
0 3 0
0 3 0
1 2 0
1 2 0
1 2 0
1 2 0
0 3 0
0 3 0
0 3 0
0 3 0
0 3 0
0 3 0
0 3 0
0 3 0
0 3 0
0 3 0
0 3 0
0 3 0
0 3 0
0 3 0
0 3 0
0 3 0
0 3 0
1 2 0
1 2 0
1 2 0
1 2 0
1 2 0
1 2 0
1 2 0
1 2 0
1 2 0
1 2 0
1 2 0
1 2 0
1 2 0
1 2 0
1 2 0
1 2 0
1 2 0
1 2 0
1 2 0
1 2 0
1 2 0
1 2 0
1 2 0
1 2 0
1 2 0
1 2 0
1 2 0
1 2 0
1 2 0
1 2 0
1 2 0
1 2 0
1 2 0
1 2 0
1 2 0
1 2 0
1 2 0
1 2 0
1 2 0
1 2 0
1 2 0
2 1 0
3 2 0
4 2 0
4 2 0
4 1 2
6 1 4
4 1 5
1 4 5
1 4 5
0 4 9
0 3 5
1 6 12
4 17 26
23 41 52
53 72 83
81 106 120
93 121 136
89 120 137
79 115 132
76 113 132
72 113 134
74 116 136
75 116 141
75 116 141
75 116 141
76 115 140
77 116 142
77 116 142
77 116 142
77 116 142
75 116 141
75 116 141
75 116 139
75 117 139
74 118 139
73 117 141
73 117 141
73 117 141
73 117 141
73 117 141
73 117 141
74 118 139
73 117 138
73 117 138
73 117 138
74 118 139
73 117 138
73 117 138
73 117 138
73 117 138
73 117 138
73 117 138
75 118 138
74 118 139
74 118 139
74 118 139
74 118 139
74 118 139
72 117 138
71 117 138
72 117 138
72 117 138
73 117 138
74 116 138
74 116 138
73 117 138
76 117 138
75 117 139
75 117 139
75 117 139
76 117 138
75 116 137
75 116 136
75 116 136
75 116 136
75 116 136
75 116 136
75 116 136
75 116 136
76 116 136
76 116 136
76 116 136
76 116 136
76 116 136
76 116 136
76 116 136
76 116 136
76 116 136
76 116 136
76 116 136
76 116 136
76 116 136
76 116 136
76 116 136
76 116 136
75 116 137
77 115 137
77 115 137
77 115 137
76 115 138
76 115 138
74 116 138
74 115 139
73 115 135
73 115 135
74 114 140
82 118 141
87 124 142
82 118 141
76 115 140
76 113 137
78 115 139
80 115 140
82 116 140
79 113 135
79 113 132
83 113 135
93 121 136
96 123 138
95 118 134
93 116 131
88 109 125
68 87 100
39 51 61
14 29 40
2 10 15
0 4 9
0 3 5
0 4 9
0 4 5
0 3 5
0 4 5
0 4 5
1 4 5
2 3 2
2 3 2
2 3 2
2 3 2
1 1 1
0 0 0
0 0 0
0 0 0
0 0 0
0 0 0
0 0 0
1 0 0
1 0 0
1 0 0
1 0 0
1 0 0
0 0 0
0 0 0
0 0 9
14 29 40
62 77 90
97 121 136
97 121 136
83 113 128
79 113 127
79 115 132
77 117 133
77 117 135
77 117 137
77 116 139
78 115 139
78 115 142
78 115 142
78 115 142
78 115 139
77 116 139
77 117 139
77 117 137
77 117 137
77 117 137
77 117 137
77 117 137
77 117 139
77 116 139
77 116 139
77 116 139
77 116 139
77 116 139
77 116 139
77 116 139
77 116 139
77 117 139
77 117 137
77 117 137
77 117 137
77 117 137
77 117 137
77 117 137
77 117 137
77 117 139
77 116 139
77 116 139
77 116 139
75 116 139
75 117 139
75 117 139
75 117 139
74 118 139
75 118 138
78 118 139
78 118 139
78 118 139
78 117 135
77 115 134
79 113 132
85 116 133
97 124 139
99 127 141
96 123 138
81 106 120
55 79 91
31 51 61
12 20 29
0 1 13
0 1 13
0 12 19
0 12 19
1 6 12
0 6 5
0 3 5
0 1 1
0 0 0
0 0 0
0 0 0
0 0 0
0 1 0
0 1 0
2 0 0
2 0 0
2 0 0
2 0 0
3 1 0
3 1 0
3 1 0
3 1 0
2 1 1
1 1 1
1 1 1
1 1 1
1 1 1
1 1 1
1 1 1
1 1 1
1 1 1
1 1 1
1 1 1
1 1 1
1 1 1
2 2 2
2 2 2
2 2 2
2 2 2
2 2 2
2 2 2
1 1 1
1 1 1
0 0 0
0 0 0
0 0 0
0 0 0
1 0 0
2 0 0
2 0 0
2 0 0
3 1 0
3 1 0
3 1 0
2 0 0
2 0 0
2 0 0
1 0 0
0 0 0
0 0 0
1 1 1
1 1 1
1 1 1
1 1 1
1 1 1
1 1 1
1 1 2
2 1 3
3 1 6
3 1 6
2 1 7
0 0 9
0 4 16
12 20 29
24 35 46
47 64 75
70 92 106
85 113 132
96 123 138
86 121 140
79 114 138
76 112 136
77 116 142
82 118 141
75 119 142
75 118 142
73 117 141
75 118 142
75 118 142
75 117 141
75 117 141
77 116 140
78 116 138
79 115 135
82 115 132
82 115 132
82 115 132
82 115 132
82 115 132
83 113 128
83 113 128
83 113 128
89 118 136
97 124 139
81 101 115
39 51 61
0 0 7
0 0 0
2 0 0
3 4 2
0 3 0
0 3 0
0 3 0
0 3 2
0 2 3
0 1 4
0 1 5
0 1 5
0 2 3
0 2 3
0 2 3
0 2 3
0 2 3
0 2 3
0 2 3
0 2 3
0 2 3
0 2 3
0 2 3
0 2 3
0 2 3
0 2 3
0 2 3
0 2 3
0 1 1
0 0 0
0 0 0
0 0 0
0 0 0
0 0 0
0 0 0
0 0 0
0 0 0
0 0 0
0 0 0
0 0 0
0 0 0
0 0 0
0 0 0
0 0 0
0 0 0
0 0 0
0 0 0
0 0 0
0 0 0
0 0 0
0 0 0
0 0 0
0 0 0
0 0 0
0 0 0
0 0 0
0 0 0
0 0 0
0 0 0
0 0 0
0 0 0
1 0 0
3 1 0
3 1 0
3 1 0
3 1 0
3 1 0
3 1 0
1 2 0
1 2 0
1 3 2
1 3 2
0 4 1
0 4 1
0 4 1
0 4 1
1 4 1
1 3 2
1 2 1
1 1 1
2 0 1
3 0 1
3 0 1
3 1 0
2 1 0
1 2 0
1 2 0
1 2 0
1 2 0
1 2 0
1 2 0
1 2 0
1 2 0
1 2 0
1 2 0
1 2 0
1 2 0
1 2 0
1 2 0
1 2 0
1 2 0
1 2 0
1 2 0
1 2 0
1 2 0
1 2 0
1 2 0
1 2 0
1 2 0
1 2 0
1 2 0
1 2 0
1 2 0
1 2 0
1 2 0
1 2 0
1 2 0
1 2 0
1 2 0
1 2 0
1 2 0
1 2 0
1 2 0
1 2 0
1 2 0
1 2 0
1 2 0
1 2 0
1 2 0
1 2 0
1 2 0
1 2 0
1 2 0
1 2 0
1 2 0
1 2 0
1 2 0
1 2 0
1 2 0
1 2 0
1 2 0
1 2 0
1 2 0
1 2 0
1 2 0
1 2 0
1 2 0
1 2 0
1 2 0
1 2 0
1 2 0
1 2 0
1 2 0
1 2 0
1 2 0
1 2 0
1 2 0
3 2 0
4 2 0
4 2 0
4 1 2
4 1 2
6 1 4
6 1 4
2 1 3
1 4 5
0 4 9
0 1 6
0 4 9
4 17 26
23 41 52
53 72 83
81 106 120
93 121 136
89 120 137
77 115 131
77 115 131
75 116 134
75 116 137
75 117 141
75 117 141
75 117 141
75 116 141
77 116 142
77 116 142
77 116 142
75 117 141
75 117 141
75 117 141
75 117 139
76 117 138
74 116 138
74 116 138
74 116 138
74 116 138
74 116 138
74 116 138
74 116 138
74 116 138
74 116 138
74 116 138
74 116 138
74 116 138
74 116 136
74 116 136
74 116 136
74 116 136
74 116 136
74 116 136
73 117 136
75 118 137
75 118 137
75 118 137
75 118 138
74 118 139
74 118 139
72 117 138
73 116 139
74 116 138
74 116 138
74 116 138
74 116 138
74 116 138
74 116 138
74 116 138
74 116 138
74 116 138
74 116 138
76 116 136
76 116 136
76 116 136
76 116 136
76 116 136
76 116 136
76 116 136
76 116 136
76 116 136
76 116 136
76 116 136
76 116 136
76 116 136
76 116 136
76 116 136
76 116 136
76 116 136
76 116 136
76 116 136
76 116 136
76 116 136
76 116 136
76 116 136
76 116 136
76 116 136
76 116 136
76 116 136
76 116 136
75 116 137
75 116 138
73 116 139
73 115 135
73 115 135
72 113 134
76 115 140
82 118 141
87 124 142
82 118 141
78 115 142
78 115 139
80 115 140
82 116 140
82 113 136
79 113 132
82 113 130
89 118 136
97 124 139
99 127 141
97 121 136
88 109 125
68 87 100
47 64 75
24 35 46
4 17 26
0 4 9
0 1 6
0 2 4
0 4 5
0 4 9
0 4 9
0 4 5
0 4 5
1 4 5
2 3 2
2 3 2
2 3 2
2 3 2
1 1 1
0 0 0
0 0 0
0 0 0
0 0 0
0 0 0
0 0 0
0 0 0
0 0 0
0 0 0
0 0 0
0 0 0
0 0 0
0 0 0
0 0 9
14 29 40
62 77 90
97 121 136
97 121 136
83 113 128
79 113 127
79 115 132
77 117 133
77 117 135
76 117 136
75 116 139
77 116 140
78 115 142
78 115 142
78 115 142
78 115 139
77 116 139
77 117 139
77 117 137
77 117 137
77 117 137
77 117 137
77 117 137
77 117 139
77 116 139
77 116 139
77 116 139
77 116 139
77 116 139
77 116 139
77 116 139
77 116 139
77 117 139
77 117 137
77 117 137
77 117 137
77 117 137
77 117 137
77 117 137
77 117 137
77 117 139
77 116 139
77 116 139
77 116 139
75 116 139
75 117 139
75 117 139
75 117 139
74 118 139
75 118 138
75 118 138
77 117 137
77 117 137
82 117 137
78 117 135
78 115 132
82 115 136
96 123 138
99 127 141
97 124 139
90 116 132
81 101 115
55 79 91
31 43 53
12 20 29
0 4 16
2 10 15
4 17 26
12 20 29
6 12 17
2 6 12
0 6 5
3 4 6
3 4 6
1 1 1
0 0 0
0 1 0
0 1 0
1 0 0
1 0 0
2 0 0
2 0 0
3 1 0
3 1 0
3 1 0
3 1 0
2 1 1
1 1 1
1 1 1
1 1 1
1 1 1
1 1 1
1 1 1
1 1 1
1 1 1
1 1 1
1 1 1
1 1 1
1 1 1
2 2 2
2 2 2
2 2 2
2 2 2
2 2 2
2 2 2
1 1 1
1 1 1
0 0 0
0 0 0
0 0 0
0 0 0
1 0 0
1 0 0
1 0 0
1 0 0
2 1 0
2 1 0
3 1 0
3 0 0
2 0 0
1 0 0
1 0 0
1 0 0
1 0 0
1 1 1
1 1 1
1 1 1
1 1 1
1 1 1
1 1 0
1 1 2
4 1 5
4 1 5
4 1 5
3 1 6
2 1 7
2 4 11
0 4 16
4 17 26
24 35 46
62 77 90
88 109 125
89 118 136
83 113 135
77 111 130
76 112 136
78 117 140
87 124 142
82 120 140
75 117 141
73 116 139
75 118 142
75 118 142
75 117 141
75 117 141
77 116 140
78 116 138
79 115 135
82 115 132
82 115 132
82 115 132
85 116 133
82 115 132
83 113 128
85 113 132
83 113 128
89 118 136
96 123 138
81 101 115
39 51 61
0 0 6
0 0 0
2 0 0
3 4 2
0 3 0
0 3 0
0 4 1
0 3 2
0 2 3
0 1 4
0 1 5
0 1 5
0 2 3
0 2 3
0 2 3
0 2 3
0 2 3
0 2 3
0 2 3
0 2 3
0 2 3
0 2 3
0 2 3
0 2 3
0 2 3
0 2 3
0 2 3
0 2 3
0 1 1
0 0 0
0 0 0
0 0 0
0 0 0
0 0 0
0 0 0
0 0 0
0 0 0
0 0 0
0 0 0
0 0 0
0 0 0
0 0 0
0 0 0
0 0 0
0 0 0
0 0 0
0 0 0
0 0 0
0 0 0
0 0 0
0 0 0
0 0 0
0 0 0
0 0 0
0 0 0
0 0 0
0 0 0
0 0 0
0 0 0
0 0 0
0 0 0
1 0 0
3 1 0
3 1 0
3 1 0
3 1 0
3 1 0
3 1 0
1 2 0
1 2 0
2 2 2
2 2 2
0 3 2
0 3 2
0 3 2
0 3 2
1 3 2
1 3 2
1 2 1
1 1 1
1 0 1
2 0 1
2 0 1
2 1 0
1 2 0
1 2 0
1 2 0
1 2 0
1 2 0
1 2 0
1 2 0
1 1 0
1 1 0
1 1 0
1 1 0
1 2 0
1 2 0
1 2 0
1 2 0
1 1 0
1 1 0
1 1 0
1 1 0
1 1 0
1 1 0
1 1 0
1 1 0
1 1 0
1 1 0
1 1 0
1 1 0
1 1 0
1 1 0
1 1 0
1 1 0
1 1 0
1 2 0
1 2 0
1 2 0
1 2 0
1 2 0
1 2 0
1 2 0
1 2 0
1 2 0
1 2 0
1 2 0
1 2 0
1 2 0
1 2 0
1 2 0
1 2 0
1 2 0
1 2 0
1 2 0
1 2 0
1 2 0
1 2 0
1 2 0
1 2 0
1 2 0
1 2 0
1 2 0
1 2 0
1 2 0
1 2 0
1 2 0
1 2 0
1 2 0
1 2 0
1 2 0
1 2 0
1 2 0
1 2 0
1 2 0
1 2 0
1 2 0
3 2 1
4 2 0
4 1 2
4 1 2
4 1 2
6 1 4
6 1 4
4 1 5
3 4 6
0 4 9
0 1 6
0 4 9
4 17 26
23 41 52
53 72 83
81 106 120
91 117 133
85 116 133
79 113 127
77 115 131
75 116 134
76 117 136
75 117 139
75 117 141
75 117 141
77 116 142
77 116 142
77 116 142
77 116 140
75 117 141
75 117 141
75 117 141
75 117 139
73 117 138
74 116 138
74 116 138
74 116 138
74 116 138
74 116 138
74 116 138
74 116 138
74 116 138
74 115 139
74 115 139
74 115 139
74 115 139
74 116 136
74 116 136
74 116 136
74 116 136
74 116 136
74 116 136
74 116 136
74 117 135
75 118 137
75 118 137
75 118 137
75 118 138
74 118 139
73 116 139
75 116 139
74 116 138
74 116 138
74 116 138
74 116 138
74 115 139
74 115 139
74 115 139
74 115 139
74 115 139
74 115 139
76 116 136
76 116 136
76 116 136
76 116 136
76 116 136
76 116 136
76 116 136
76 116 136
76 116 136
76 116 136
76 116 136
76 116 136
76 116 136
76 116 136
76 116 136
76 116 136
76 116 136
76 116 136
76 116 136
76 116 136
76 116 136
76 116 136
76 116 136
76 116 136
76 116 136
76 116 136
76 116 136
76 116 136
76 116 136
75 116 138
73 116 139
72 113 134
75 116 138
82 120 140
82 118 141
75 116 138
72 113 134
76 113 137
82 118 141
82 118 141
82 116 140
82 113 136
82 113 136
85 113 132
90 116 132
90 116 132
90 113 128
93 116 131
88 109 125
70 92 106
47 64 75
24 35 46
4 17 26
0 6 13
0 1 5
3 4 6
5 6 9
2 6 12
1 6 12
0 4 5
0 4 5
0 4 5
1 4 5
2 3 2
2 3 2
2 3 2
2 3 2
1 1 1
1 0 0
1 0 0
1 0 0
0 0 0
0 0 0
0 0 0
0 0 0
0 0 0
0 0 0
0 0 0
0 0 0
0 0 0
0 0 0
0 0 9
14 29 40
62 77 90
97 121 136
97 121 136
83 113 128
79 113 127
79 115 132
77 117 133
77 117 135
75 118 137
75 117 139
75 117 141
77 116 142
78 115 142
78 115 142
78 115 139
77 116 139
77 117 139
77 117 137
77 117 137
77 117 137
77 117 137
77 117 137
77 117 139
77 116 139
77 116 139
77 116 139
77 116 139
77 116 139
77 116 139
77 116 139
77 116 139
77 117 139
77 117 137
77 117 137
77 117 137
77 117 137
77 117 137
77 117 137
77 117 137
77 117 139
77 116 139
77 116 139
77 116 139
75 116 139
75 117 139
75 117 139
75 117 139
76 117 138
75 118 137
75 118 137
77 117 137
77 117 137
78 117 135
77 115 134
79 114 134
82 115 136
86 121 140
97 124 139
96 123 138
89 118 136
84 109 126
71 97 112
53 72 83
31 51 61
4 17 26
0 8 14
6 12 17
23 29 39
12 20 29
2 10 15
2 6 12
6 8 13
5 6 9
1 3 2
0 0 0
0 0 0
0 1 0
0 1 0
0 1 0
1 0 0
2 0 0
3 1 0
3 1 0
3 1 0
3 1 0
2 1 1
1 1 1
1 1 1
1 1 1
1 1 1
1 1 1
1 1 1
1 1 1
1 1 1
1 1 1
1 1 1
1 1 1
1 1 1
2 2 2
2 2 2
2 2 2
2 2 2
2 2 2
2 2 2
1 1 1
1 1 1
0 0 0
0 0 0
0 0 0
0 0 0
0 0 0
0 0 0
0 0 0
0 0 0
1 0 0
2 0 0
2 0 0
2 0 0
2 0 0
2 0 0
2 0 0
2 0 0
2 0 0
1 1 1
1 1 1
1 1 1
1 1 1
1 1 1
1 1 1
2 1 3
4 1 5
6 1 4
6 1 4
4 1 5
3 1 6
0 1 10
0 1 10
0 1 13
12 20 29
47 64 75
70 92 106
81 106 120
84 109 126
81 110 128
79 113 132
82 117 137
87 124 142
82 120 140
75 117 139
73 116 139
75 118 142
75 118 142
75 117 141
75 117 141
77 116 140
78 116 138
79 115 135
82 115 132
82 115 132
85 113 132
85 113 132
85 113 132
83 113 128
83 113 128
83 113 128
89 118 136
96 123 138
81 101 115
39 51 61
0 0 5
0 0 0
2 0 0
3 4 2
0 3 0
0 4 1
0 4 1
0 3 2
0 2 3
0 1 4
0 1 5
0 1 5
0 2 3
0 2 3
0 2 3
0 2 3
0 2 3
0 2 3
0 2 3
0 2 3
0 2 3
0 2 3
0 2 3
0 2 3
0 2 3
0 2 3
0 2 3
0 2 3
0 1 1
0 0 0
0 0 0
0 0 0
0 0 0
0 0 0
0 0 0
0 0 0
0 0 0
0 0 0
0 0 0
0 0 0
0 0 0
0 0 0
0 0 0
0 0 0
0 0 0
0 0 0
0 0 0
0 0 0
0 0 0
0 0 0
0 0 0
0 0 0
0 0 0
0 0 0
0 0 0
0 0 0
0 0 0
0 0 0
0 0 0
0 0 0
0 0 0
1 0 0
3 1 0
3 1 0
3 1 0
3 1 0
3 1 0
2 1 0
1 2 0
1 2 0
2 2 2
2 2 2
1 3 2
1 3 2
1 3 2
1 3 2
1 3 2
1 3 2
1 2 1
1 1 1
1 1 1
1 1 1
1 1 1
1 1 1
1 1 1
1 1 1
1 1 1
1 1 1
1 1 1
1 1 1
1 1 1
1 1 1
1 1 1
1 1 1
1 1 1
1 1 1
1 1 1
1 1 1
1 1 1
1 1 1
1 1 1
1 1 1
1 1 1
1 1 1
1 1 1
1 1 1
1 1 1
1 1 1
1 1 1
1 1 1
1 1 1
1 1 1
1 1 1
1 1 1
1 1 1
1 1 1
1 1 1
1 1 1
1 1 1
1 1 1
1 1 1
1 1 1
1 1 1
1 1 1
1 1 1
1 1 1
1 1 1
1 1 1
1 1 1
1 1 1
1 1 1
1 1 1
1 1 1
1 1 1
1 1 1
1 1 1
1 1 1
1 1 1
1 1 1
1 1 1
1 1 1
1 1 1
1 1 1
1 1 1
1 1 1
1 1 1
1 1 1
1 1 1
1 1 1
1 1 1
1 1 1
1 1 1
1 1 1
1 1 1
1 1 1
1 1 1
1 1 1
3 2 1
4 1 2
4 1 2
4 1 2
4 1 2
6 1 4
6 1 4
4 1 5
3 4 6
1 4 10
0 2 9
0 4 9
4 17 26
23 41 52
53 72 83
81 106 120
90 116 132
82 115 132
79 113 127
75 117 131
77 117 133
77 117 135
77 117 139
77 116 140
77 116 142
77 116 142
77 116 142
77 116 140
77 116 139
77 116 139
77 116 139
75 117 139
75 117 139
74 118 139
74 116 138
74 116 138
74 116 138
74 116 138
74 116 138
74 116 138
74 116 138
74 116 138
74 116 136
74 116 136
74 116 136
74 116 136
74 116 136
74 116 136
74 116 136
74 116 136
74 116 136
74 116 136
74 116 136
74 116 136
75 118 137
75 118 137
75 118 137
75 118 137
75 118 138
75 117 139
75 116 139
74 116 138
74 116 138
74 116 138
74 115 139
76 114 136
76 114 136
76 114 136
76 114 136
76 114 136
76 114 136
76 116 136
76 116 136
76 116 136
76 116 136
76 116 136
76 116 136
76 116 136
76 116 136
76 116 136
76 116 136
76 116 136
76 116 136
76 116 136
76 116 136
76 116 136
76 116 136
76 116 136
76 116 136
76 116 136
76 116 136
76 116 136
76 116 136
76 116 136
76 116 136
76 116 136
76 116 136
76 116 136
76 116 136
76 116 136
75 116 138
74 115 139
72 113 134
78 117 140
87 124 142
87 124 142
71 110 131
70 105 125
71 110 131
82 118 141
86 121 140
82 117 137
79 113 132
82 113 130
89 118 136
97 121 136
90 113 128
81 101 115
70 92 106
68 87 100
47 64 75
24 35 46
4 17 26
0 6 13
0 4 9
0 2 4
1 4 10
6 12 17
6 12 17
2 6 12
0 4 5
0 4 5
0 4 5
1 4 5
1 3 2
1 3 2
1 3 2
1 1 2
1 1 1
1 1 1
1 1 1
1 1 1
0 0 0
0 0 0
0 0 0
0 0 0
0 0 0
0 0 0
0 0 0
0 0 0
0 0 0
0 0 0
0 0 9
14 29 40
62 77 90
97 121 136
97 121 136
83 113 128
79 113 127
79 115 132
77 117 133
77 117 135
75 118 137
75 117 139
75 117 141
77 116 142
78 115 142
78 115 142
78 115 139
77 116 138
77 117 137
77 117 135
77 117 135
77 117 135
77 117 137
77 117 137
77 117 139
77 116 138
77 116 138
77 116 138
77 116 138
77 116 138
77 116 138
77 116 138
77 116 138
77 117 139
77 117 139
77 117 139
77 117 139
77 117 139
77 117 139
77 117 139
77 117 139
77 117 139
77 116 139
77 116 139
77 116 139
75 116 139
75 117 139
75 117 139
75 117 139
76 117 138
75 118 137
75 118 137
77 117 137
77 117 137
78 116 135
77 115 134
79 114 134
82 115 136
86 121 140
89 120 137
89 118 136
89 118 136
85 113 132
84 109 126
71 97 112
53 72 83
14 29 40
0 4 12
2 10 15
12 20 29
12 20 29
2 10 15
0 6 5
5 6 9
5 4 5
1 3 2
0 1 0
0 0 0
0 1 0
0 1 0
0 1 0
0 1 0
1 1 0
3 1 0
3 1 0
3 1 0
3 1 0
2 1 1
1 1 1
1 1 1
1 1 1
1 1 1
1 1 1
1 1 1
1 1 1
1 1 1
1 1 1
1 1 1
1 1 1
1 1 1
2 2 2
2 2 2
2 2 2
2 2 2
2 2 2
2 2 2
1 1 1
1 1 1
0 0 0
0 0 0
0 0 0
0 0 0
0 0 0
0 0 0
0 0 0
0 0 0
0 0 0
1 0 0
1 0 0
1 0 0
1 0 0
1 0 0
1 0 0
1 0 0
1 0 0
1 1 1
1 1 1
1 1 1
1 1 1
2 1 1
2 1 1
3 0 2
3 0 3
6 1 4
6 1 4
4 1 5
3 1 6
1 1 8
0 0 9
0 0 9
0 12 19
24 35 46
47 64 75
70 92 106
84 109 126
89 118 136
82 115 132
82 115 136
82 120 140
80 117 140
78 117 140
75 116 141
75 118 142
75 118 142
75 117 141
78 117 140
78 115 142
78 115 139
79 115 135
79 115 135
82 115 132
85 113 132
85 113 132
85 113 132
85 113 132
85 113 132
82 113 130
89 118 136
96 123 138
81 101 115
39 51 61
0 0 5
0 0 0
2 0 0
3 4 2
0 3 0
0 4 1
0 4 1
0 3 2
0 2 2
0 1 3
0 1 4
0 1 4
0 2 3
0 2 3
0 2 3
0 2 3
0 2 3
0 2 3
0 2 3
0 2 3
0 2 3
0 2 3
0 2 3
0 2 3
0 2 3
0 2 3
0 2 3
0 2 3
0 1 1
0 0 0
0 0 0
0 0 0
0 0 0
0 0 0
0 0 0
0 0 0
0 0 0
0 0 0
0 0 0
0 0 0
0 0 0
0 0 0
0 0 0
0 0 0
0 0 0
0 0 0
0 0 0
0 0 0
0 0 0
0 0 0
0 0 0
0 0 0
0 0 0
0 0 0
0 0 0
0 0 0
0 0 0
0 0 0
0 0 0
0 0 0
0 0 0
1 0 0
2 1 0
2 1 0
2 1 0
2 1 0
2 1 0
1 1 0
1 2 0
1 2 0
2 2 2
2 2 2
2 3 2
2 3 2
2 3 2
2 3 2
1 3 2
1 3 2
1 2 1
1 1 1
1 1 1
1 1 1
1 1 1
1 1 1
1 1 1
1 1 1
1 1 1
1 1 1
1 1 1
1 1 1
1 1 1
1 1 1
1 1 1
1 1 1
1 1 1
1 1 1
1 1 1
1 1 1
1 1 1
1 1 1
1 1 1
1 1 1
1 1 1
1 1 1
1 1 1
1 1 1
1 1 1
1 1 1
1 1 1
1 1 1
1 1 1
1 1 1
1 1 1
1 1 1
1 1 1
1 1 1
1 1 1
1 1 1
1 1 1
1 1 1
1 1 1
1 1 1
1 1 1
1 1 1
1 1 1
1 1 1
1 1 1
1 1 1
1 1 1
1 1 1
1 1 1
1 1 1
1 1 1
1 1 1
1 1 1
1 1 1
1 1 1
1 1 1
1 1 1
1 1 1
1 1 1
1 1 1
1 1 1
1 1 1
1 1 1
1 1 1
1 1 1
1 1 1
1 1 1
1 1 1
1 1 1
1 1 1
1 1 1
1 1 1
1 1 1
1 1 1
1 1 1
3 2 1
4 1 2
4 1 2
4 1 2
4 1 2
6 1 4
6 1 4
3 1 6
3 4 6
1 4 10
0 2 9
0 4 12
4 17 26
23 41 52
53 72 83
81 106 120
90 116 132
82 115 132
79 113 127
77 117 133
78 117 135
78 117 135
77 117 139
77 116 139
77 116 142
78 115 142
77 116 142
77 116 139
77 116 138
77 116 138
77 116 138
77 117 139
76 117 138
76 117 138
75 116 137
75 116 137
75 116 137
75 116 137
75 116 137
75 116 137
75 116 137
75 116 137
73 115 135
73 115 135
73 115 135
73 115 135
74 116 136
74 116 136
74 116 136
74 116 136
74 116 136
74 116 136
74 116 136
74 116 136
75 118 137
75 118 137
75 118 137
76 117 136
75 118 137
76 117 138
75 116 138
75 116 137
75 116 137
75 116 137
75 116 137
76 114 136
76 114 136
76 114 136
73 115 135
73 115 135
73 115 135
75 116 136
76 116 136
76 116 136
76 116 136
76 116 136
76 116 136
76 116 136
76 116 136
76 116 136
76 116 136
76 116 136
76 116 136
76 116 136
76 116 136
76 116 136
76 116 136
76 116 136
76 116 136
76 116 136
76 116 136
76 116 136
76 116 136
76 116 136
76 116 136
76 116 136
76 116 136
76 116 136
76 116 136
76 116 136
75 116 138
75 116 138
76 115 138
77 115 139
78 117 140
78 117 140
77 115 137
76 112 136
79 113 135
80 115 137
82 117 137
83 113 135
81 110 128
81 110 128
90 113 128
95 118 134
93 116 131
79 97 109
62 77 90
39 51 61
23 29 39
6 12 17
0 4 12
0 1 6
0 4 5
0 4 5
2 6 12
6 12 17
6 12 17
2 6 12
1 4 5
0 4 5
0 4 5
1 4 5
0 3 2
1 3 2
1 3 2
1 1 2
1 1 1
1 2 1
1 2 1
1 2 1
0 0 0
0 0 0
0 0 0
0 0 0
0 0 0
0 0 0
0 0 0
0 0 0
0 0 0
0 0 0
0 0 9
14 29 40
62 77 90
97 121 136
97 121 136
83 113 128
79 113 127
79 115 132
77 117 133
77 117 135
75 118 137
75 117 139
76 115 140
77 116 142
77 116 142
77 116 142
77 116 139
77 117 137
77 117 135
77 117 135
77 117 135
77 117 135
77 117 135
77 117 137
77 117 137
77 117 137
77 117 137
77 117 137
77 117 137
77 117 137
77 117 137
77 117 137
77 117 137
77 116 138
77 116 139
77 116 139
77 116 139
77 116 139
77 116 139
77 116 139
77 116 139
77 116 139
77 116 139
77 116 139
77 116 139
77 116 139
77 116 139
77 116 139
77 116 139
77 116 138
77 117 137
77 117 137
77 117 137
77 117 137
78 116 135
78 116 135
79 115 135
82 115 136
82 117 137
89 118 136
89 118 136
89 118 136
83 113 135
85 113 132
85 113 132
71 97 112
31 51 61
4 17 26
0 8 14
4 17 26
6 12 17
0 4 5
0 1 1
1 1 1
1 2 1
0 2 0
0 2 0
0 1 0
0 1 0
0 1 0
0 1 0
0 1 0
0 1 0
2 1 0
3 1 0
3 1 0
3 1 0
2 1 1
1 1 1
1 1 1
1 1 1
1 1 1
1 1 1
1 1 1
1 1 1
1 1 1
1 1 1
1 1 1
1 1 1
1 1 1
2 2 2
2 2 2
2 2 2
2 2 2
2 2 2
2 2 2
1 1 1
1 1 1
0 0 0
0 0 0
0 0 0
0 0 0
0 0 0
0 0 0
0 0 0
0 0 0
0 0 0
0 0 0
0 0 0
0 0 0
0 0 0
0 0 0
0 0 0
0 0 0
0 0 0
1 1 1
1 1 1
1 1 1
2 1 1
3 0 1
3 0 1
3 0 1
3 0 1
4 1 2
3 0 3
4 1 5
1 1 5
1 1 8
0 1 6
1 1 8
0 1 10
0 4 16
14 29 40
53 72 83
84 109 126
93 121 136
89 118 136
82 115 132
82 115 136
80 115 137
80 117 140
77 116 142
78 117 140
78 117 140
78 117 140
78 117 140
80 117 140
80 117 140
80 115 137
79 115 135
82 115 132
85 113 132
85 113 132
85 113 132
85 113 132
85 113 132
82 113 130
89 118 136
96 123 138
81 101 115
39 51 61
0 0 5
0 0 0
2 0 0
3 4 2
0 3 0
0 4 1
0 3 0
0 3 0
0 2 1
0 2 2
0 2 3
0 2 3
0 2 3
0 2 3
0 2 3
0 2 3
0 2 3
0 2 3
0 2 3
0 2 3
0 2 3
0 2 3
0 2 3
0 2 3
0 2 3
0 2 3
0 2 3
0 2 3
0 1 1
0 0 0
0 0 0
0 0 0
0 0 0
0 0 0
0 0 0
0 0 0
0 0 0
0 0 0
0 0 0
0 0 0
0 0 0
0 0 0
0 0 0
0 0 0
0 0 0
0 0 0
0 0 0
0 0 0
0 0 0
0 0 0
0 0 0
0 0 0
0 0 0
0 0 0
0 0 0
0 0 0
0 0 0
0 0 0
0 0 0
0 0 0
0 0 0
0 0 0
1 1 1
1 1 1
1 1 1
1 1 1
1 1 1
1 1 1
1 1 1
1 1 1
2 2 2
2 2 2
2 2 2
2 2 2
2 2 2
2 2 2
2 2 2
2 2 2
1 1 1
1 1 1
1 1 1
1 1 1
1 1 1
1 1 1
1 1 1
1 1 1
1 1 1
1 1 1
1 1 1
1 1 1
1 1 1
1 1 1
1 1 1
1 1 1
1 1 1
1 1 1
1 1 1
1 1 1
1 1 1
1 1 1
1 1 1
1 1 1
1 1 1
1 1 1
1 1 1
1 1 1
1 1 1
1 1 1
1 1 1
1 1 1
1 1 1
1 1 1
1 1 1
1 1 1
1 1 1
1 1 1
1 1 1
1 1 1
1 1 1
1 1 1
1 1 1
1 1 1
1 1 1
1 1 1
1 1 1
1 1 1
1 1 1
1 1 1
1 1 1
1 1 1
1 1 1
1 1 1
1 1 1
1 1 1
1 1 1
1 1 1
1 1 1
1 1 1
1 1 1
1 1 1
1 1 1
1 1 1
1 1 1
1 1 1
1 1 1
1 1 1
1 1 1
1 1 1
1 1 1
1 1 1
1 1 1
1 1 1
1 1 1
1 1 1
1 1 1
1 1 1
1 1 1
3 2 1
4 1 2
4 1 2
4 1 2
4 1 2
4 1 5
3 1 6
2 1 7
1 4 10
1 4 10
0 2 9
0 4 12
4 17 26
23 41 52
53 72 83
81 106 120
91 117 133
85 116 133
79 113 127
77 117 133
82 117 137
77 117 137
77 117 137
77 116 138
77 116 139
78 115 139
78 115 139
78 115 137
78 116 137
77 117 137
77 117 137
77 117 137
77 117 137
77 117 137
76 116 136
76 116 136
76 116 136
75 116 136
74 116 136
74 116 136
74 116 136
74 116 136
73 115 135
73 115 135
73 115 135
73 115 135
74 116 136
74 116 136
74 116 136
74 116 136
74 116 136
74 116 136
74 116 136
74 116 136
73 117 136
75 118 137
75 118 137
77 117 137
77 117 137
77 117 137
76 117 136
76 116 136
76 116 136
76 116 136
76 115 135
76 114 136
76 114 136
76 114 136
75 113 134
73 115 135
73 115 135
75 116 136
76 116 136
76 116 136
76 116 136
76 116 136
76 116 136
76 116 136
76 116 136
76 116 136
76 116 136
76 116 136
76 116 136
76 116 136
76 116 136
76 116 136
76 116 136
76 116 136
76 116 136
76 116 136
76 116 136
76 116 136
76 116 136
76 116 136
76 116 136
76 116 136
76 116 136
76 116 136
76 116 136
76 116 136
77 115 137
76 115 140
78 117 140
75 113 134
71 110 131
71 110 131
86 121 140
87 124 142
86 121 140
79 113 132
77 111 130
82 113 130
81 110 128
81 106 120
84 109 126
88 109 125
81 106 120
70 92 106
39 51 61
12 20 29
1 4 10
0 1 6
0 4 9
0 2 4
0 4 5
1 6 12
2 6 12
6 8 13
5 6 9
0 6 5
0 6 5
0 4 5
0 4 5
0 4 5
0 4 5
1 4 5
1 4 5
1 1 2
0 2 1
0 2 1
0 2 1
0 2 1
0 1 0
0 1 0
0 1 0
0 1 0
0 0 0
0 0 0
0 0 0
0 0 0
0 0 0
0 0 0
0 0 9
14 29 40
62 77 90
97 121 136
97 121 136
83 113 128
79 113 127
79 115 132
77 117 133
77 117 135
76 117 136
75 117 139
76 115 140
77 116 142
77 116 142
77 116 142
77 116 139
77 117 137
77 117 135
77 117 135
77 117 135
77 117 135
77 117 135
77 117 137
77 117 137
77 117 137
77 117 137
77 117 137
77 117 137
77 117 137
77 117 137
77 117 137
77 117 137
77 116 138
77 116 139
77 116 139
77 116 139
77 116 139
77 116 139
77 116 139
77 116 139
77 116 139
77 116 139
77 116 139
77 116 139
77 116 139
77 116 139
77 116 139
77 116 139
77 116 138
77 117 137
77 117 137
77 117 137
77 117 137
78 116 135
79 115 135
79 115 135
82 115 136
82 115 136
82 115 136
83 113 135
83 113 135
83 113 135
90 116 132
95 118 134
88 109 125
55 79 91
23 41 52
4 17 26
0 4 9
0 3 5
0 3 5
1 1 5
0 0 0
0 0 0
0 1 0
0 3 0
0 2 0
0 1 0
0 1 0
0 0 0
0 0 0
0 0 0
2 1 0
2 1 0
2 1 0
2 1 0
2 1 1
1 1 1
1 1 1
1 1 1
1 1 1
1 1 1
1 1 1
1 1 1
1 1 1
1 1 1
1 1 1
1 1 1
1 1 1
2 2 2
2 2 2
2 2 2
2 2 2
2 2 2
2 2 2
1 1 1
1 1 1
0 0 0
0 0 0
0 0 0
0 0 0
0 0 0
0 0 0
0 0 0
0 0 0
0 0 0
0 0 0
0 0 0
0 0 0
0 0 0
0 0 0
0 0 0
0 0 0
0 0 0
1 1 1
1 1 1
1 1 1
2 1 1
3 0 1
3 0 1
3 0 1
3 0 1
4 0 0
4 1 2
3 0 3
0 0 4
0 1 6
0 1 6
1 4 10
0 0 7
0 0 6
0 12 19
23 41 52
62 77 90
88 109 125
97 124 139
96 123 138
83 113 135
79 113 135
80 117 140
82 118 141
80 117 140
80 117 140
80 115 140
80 115 140
80 117 140
80 117 140
80 115 137
79 115 135
83 113 135
85 113 132
83 113 135
83 113 135
85 113 132
85 113 132
82 113 130
89 118 136
96 123 138
81 101 115
39 51 61
0 0 5
0 0 0
1 0 0
3 4 2
0 3 0
0 4 1
0 3 0
0 3 0
0 2 1
0 2 2
0 2 3
0 2 3
0 2 3
0 2 3
0 2 3
0 2 3
0 2 3
0 2 3
0 2 3
0 2 3
0 2 3
0 2 3
0 2 3
0 2 3
0 2 3
0 2 3
0 2 3
0 2 3
0 1 1
0 0 0
0 0 0
0 0 0
0 0 0
0 0 0
0 0 0
0 0 0
0 0 0
0 0 0
0 0 0
0 0 0
0 0 0
0 0 0
0 0 0
0 0 0
0 0 0
0 0 0
0 0 0
0 0 0
0 0 0
0 0 0
0 0 0
0 0 0
0 0 0
0 0 0
0 0 0
0 0 0
0 0 0
0 0 0
0 0 0
0 0 0
0 0 0
0 0 0
1 1 1
1 1 1
1 1 1
1 1 1
1 1 1
1 1 1
1 1 1
1 1 1
2 2 2
2 2 2
2 2 2
2 2 2
2 2 2
2 2 2
2 2 2
2 2 2
1 1 1
1 1 1
1 1 1
1 1 1
1 1 1
1 1 1
1 1 1
1 1 1
1 1 1
1 1 1
1 1 1
1 1 1
1 1 1
1 1 1
1 1 1
1 1 1
1 1 1
1 1 1
1 1 1
1 1 1
1 1 1
1 1 1
1 1 1
1 1 1
1 1 1
1 1 1
1 1 1
1 1 1
1 1 1
1 1 1
1 1 1
1 1 1
1 1 1
1 1 1
1 1 1
1 1 1
1 1 1
1 1 1
1 1 1
1 1 1
1 1 1
1 1 1
1 1 1
1 1 1
1 1 1
1 1 1
1 1 1
1 1 1
1 1 1
1 1 1
1 1 1
1 1 1
1 1 1
1 1 1
1 1 1
1 1 1
1 1 1
1 1 1
1 1 1
1 1 1
1 1 1
1 1 1
1 1 1
1 1 1
1 1 1
1 1 1
1 1 1
1 1 1
1 1 1
1 1 1
1 1 1
1 1 1
1 1 1
1 1 1
1 1 1
1 1 1
1 1 1
1 1 1
1 1 1
3 2 1
4 1 2
4 1 2
4 1 2
4 1 2
4 1 5
3 1 6
2 1 7
1 4 10
1 4 10
0 2 9
0 4 12
4 17 26
23 41 52
53 72 83
81 106 120
91 117 133
85 116 133
79 113 127
79 115 132
82 117 137
78 117 135
77 117 135
77 116 137
77 116 138
78 115 137
78 115 137
78 115 137
78 116 135
77 117 137
77 117 137
77 117 137
77 117 137
77 117 137
76 116 136
76 116 136
76 116 136
75 116 136
74 116 136
74 116 136
74 116 136
74 116 136
73 115 135
73 115 135
73 115 135
73 115 135
74 116 136
74 116 136
74 116 136
74 116 136
74 116 136
74 116 136
74 116 136
74 116 136
73 117 136
75 118 137
75 118 137
77 117 137
77 117 137
77 117 137
76 117 136
76 116 136
76 116 136
77 116 137
77 115 136
76 114 136
76 114 136
76 114 136
75 113 134
75 113 134
75 113 134
75 116 136
76 116 136
76 116 136
76 116 136
76 116 136
76 116 136
76 116 136
76 116 136
76 116 136
76 116 136
76 116 136
76 116 136
76 116 136
76 116 136
76 116 136
76 116 136
76 116 136
76 116 136
76 116 136
76 116 136
76 116 136
76 116 136
76 116 136
76 116 136
76 116 136
76 116 136
76 116 136
76 116 136
76 116 136
77 115 137
76 115 140
78 117 140
76 114 136
71 110 131
71 110 131
82 118 141
87 124 142
86 121 140
79 113 132
77 111 130
81 110 128
90 113 128
90 113 128
81 106 120
70 92 106
62 77 90
47 64 75
23 29 39
0 6 13
0 0 2
0 0 3
3 4 6
5 6 9
2 6 12
2 10 15
5 6 9
3 4 6
1 4 5
1 4 5
0 6 5
0 6 5
0 4 5
0 4 5
0 4 5
1 4 5
1 4 5
1 1 2
0 2 1
0 2 1
0 2 1
0 2 1
0 1 0
0 1 0
0 1 0
0 1 0
0 0 0
0 0 0
0 0 0
0 0 0
0 0 0
0 0 0
0 0 9
14 29 40
62 77 90
97 121 136
97 121 136
83 113 128
79 113 127
79 115 132
77 117 133
77 117 135
77 117 137
77 116 139
77 116 140
77 116 142
77 116 142
77 116 142
77 116 139
77 117 137
77 117 135
77 117 135
77 117 135
77 117 135
77 117 135
77 117 137
77 117 137
77 117 137
77 117 137
77 117 137
77 117 137
77 117 137
77 117 137
77 117 137
77 117 137
77 116 138
77 116 139
77 116 139
77 116 139
77 116 139
77 116 139
77 116 139
77 116 139
77 116 139
77 116 139
77 116 139
77 116 139
77 116 139
77 116 139
77 116 139
78 115 139
78 115 137
78 116 137
78 116 137
78 116 137
78 116 137
79 115 135
82 115 136
82 115 136
82 115 136
82 115 136
82 115 136
83 113 135
83 113 135
83 113 135
89 118 136
89 118 136
90 116 132
81 106 120
55 79 91
24 35 46
0 4 9
0 0 2
1 6 12
2 6 12
0 0 0
0 0 0
0 1 0
0 4 1
0 3 2
0 3 2
0 2 0
0 1 0
0 0 0
0 0 0
1 1 0
1 2 0
1 2 0
1 2 0
1 1 1
1 1 1
1 1 1
1 1 1
1 1 1
1 1 1
1 1 1
1 1 1
1 1 1
1 1 1
1 1 1
1 1 1
1 1 1
1 1 1
1 1 1
1 1 1
1 1 1
1 1 1
1 1 1
0 0 0
0 0 0
0 0 0
0 0 0
0 0 0
0 0 0
0 0 0
0 0 0
0 0 0
0 0 0
0 0 0
0 0 0
0 0 0
0 0 0
0 0 0
0 0 0
0 0 0
0 0 0
0 0 0
1 1 1
1 1 1
1 1 1
2 1 1
3 0 1
3 0 1
3 0 1
3 0 1
4 0 0
4 0 0
3 0 2
1 0 3
1 1 5
0 1 6
0 3 5
0 0 6
0 0 9
0 1 13
4 17 26
23 41 52
68 87 100
97 121 136
97 124 139
85 113 132
77 111 130
82 117 137
82 118 141
80 117 140
80 115 140
80 115 137
80 115 137
82 116 140
82 116 140
80 115 137
80 115 137
82 115 136
82 115 136
82 115 136
82 115 136
82 115 132
85 113 132
82 113 130
89 118 136
96 123 138
81 101 115
39 51 61
0 0 5
0 0 0
0 0 0
2 3 2
0 3 0
0 4 1
0 3 0
0 3 0
0 2 1
0 2 2
0 2 3
0 2 3
0 2 3
0 2 3
0 2 3
0 2 3
0 2 3
0 2 3
0 2 3
0 2 3
0 2 3
0 2 3
0 2 3
0 2 3
0 2 3
0 2 3
0 2 3
0 2 3
0 1 1
0 0 0
0 0 0
0 0 0
0 0 0
0 0 0
0 0 0
0 0 0
0 0 0
0 0 0
0 0 0
0 0 0
0 0 0
0 0 0
0 0 0
0 0 0
0 0 0
0 0 0
0 0 0
0 0 0
0 0 0
0 0 0
0 0 0
0 0 0
0 0 0
0 0 0
0 0 0
0 0 0
0 0 0
0 0 0
0 0 0
0 0 0
0 0 0
0 0 0
1 1 1
1 1 1
1 1 1
1 1 1
1 1 1
1 1 1
1 1 1
1 1 1
1 1 1
1 1 1
1 1 1
1 1 1
1 1 1
1 1 1
1 1 1
1 1 1
1 1 1
1 1 1
1 1 1
1 1 1
1 1 1
1 1 1
1 1 1
1 1 1
1 1 1
1 1 1
1 1 1
1 1 1
1 1 1
1 1 1
1 1 1
1 1 1
1 1 1
1 1 1
1 1 1
1 1 1
1 1 1
1 1 1
1 1 1
1 1 1
1 1 1
1 1 1
1 1 1
1 1 1
1 1 1
1 1 1
1 1 1
1 1 1
1 1 1
1 1 1
1 1 1
1 1 1
1 1 1
1 1 1
1 1 1
1 1 1
1 1 1
1 1 1
1 1 1
1 1 1
1 1 1
1 1 1
1 1 1
1 1 1
1 1 1
1 1 1
1 1 1
1 1 1
1 1 1
1 1 1
1 1 1
1 1 1
1 1 1
1 1 1
1 1 1
1 1 1
1 1 1
1 1 1
1 1 1
1 1 1
1 1 1
1 1 1
1 1 1
1 1 1
1 1 1
1 1 1
1 1 1
1 1 1
1 1 1
1 1 1
1 1 1
1 1 1
1 1 1
1 1 1
1 1 1
3 2 1
4 1 2
4 1 2
4 1 2
4 1 2
4 1 5
3 1 6
2 1 7
1 4 10
1 4 10
0 2 9
0 4 12
4 17 26
23 41 52
53 72 83
81 106 120
91 117 133
85 116 133
79 113 127
79 115 132
78 117 135
77 117 135
75 116 134
76 115 135
76 116 136
77 115 136
77 115 136
77 115 136
77 115 136
77 116 137
77 117 137
77 117 137
77 117 137
75 116 137
76 116 136
76 116 136
76 116 136
75 116 136
74 116 136
74 116 136
74 116 136
74 116 136
73 115 135
73 115 135
73 115 135
73 115 135
74 116 136
74 116 136
74 116 136
74 116 136
74 116 136
74 116 136
74 116 136
74 116 136
76 117 136
77 117 137
77 117 137
77 117 137
77 117 137
77 117 137
76 117 136
76 116 136
76 116 136
77 115 136
77 115 136
76 114 136
76 114 136
76 114 136
76 114 136
76 114 136
76 114 136
76 116 136
76 116 136
76 116 136
76 116 136
76 116 136
76 116 136
76 116 136
76 116 136
76 116 136
76 116 136
76 116 136
76 116 136
76 116 136
76 116 136
76 116 136
76 116 136
76 116 136
76 116 136
76 116 136
76 116 136
76 116 136
76 116 136
76 116 136
76 116 136
76 116 136
76 116 136
76 116 136
76 116 136
76 116 136
77 115 137
77 116 138
78 115 139
80 117 140
80 115 140
79 114 138
79 113 135
79 113 132
83 113 135
85 113 132
82 113 130
83 113 128
93 116 131
90 113 128
79 97 109
53 72 83
23 41 52
12 20 29
2 10 15
0 4 12
0 4 9
0 3 5
1 4 10
6 8 13
6 12 17
6 8 13
3 4 6
1 1 2
0 0 0
0 3 5
0 6 5
0 6 5
0 4 5
0 4 5
0 4 5
0 4 5
0 4 5
0 3 2
0 2 1
0 2 1
0 2 1
0 2 1
0 1 0
0 1 0
0 1 0
0 1 0
0 0 0
0 0 0
0 0 0
0 0 0
0 0 0
0 0 0
0 0 9
14 29 40
62 77 90
97 121 136
97 121 136
83 113 128
83 113 128
82 115 132
77 117 133
77 117 135
77 117 137
77 116 139
77 116 140
77 116 142
77 116 142
77 116 142
77 116 139
77 117 139
77 117 137
76 117 136
76 117 136
77 117 135
77 117 135
77 117 137
77 117 137
77 117 139
77 117 139
77 117 139
77 117 139
77 117 139
77 117 139
77 117 139
77 117 139
77 116 138
77 116 139
77 116 139
77 116 139
77 116 139
77 116 139
77 116 139
77 116 139
77 116 139
77 116 140
77 116 140
77 116 140
77 116 139
77 116 139
77 116 139
78 115 139
79 114 138
80 115 137
80 115 137
80 115 137
80 115 137
79 115 135
82 115 136
82 115 136
82 115 136
82 115 132
79 114 134
82 113 136
82 113 136
82 113 136
82 115 136
85 113 132
85 116 133
93 121 136
81 106 120
47 64 75
12 20 29
2 6 12
0 8 14
2 10 15
1 6 12
5 6 9
0 4 5
0 4 5
0 3 2
0 4 1
0 4 1
0 3 2
0 1 0
0 1 0
1 2 0
0 2 0
0 2 0
0 1 0
1 1 1
1 1 1
1 1 1
1 1 1
1 1 1
1 1 1
1 1 1
1 1 1
1 1 1
1 1 1
1 1 1
1 1 1
1 1 1
1 1 1
1 1 1
1 1 1
1 1 1
1 1 1
1 1 1
0 0 0
0 0 0
0 0 0
0 0 0
0 0 0
0 0 0
0 0 0
0 0 0
0 0 0
0 0 0
0 0 0
0 0 0
0 0 0
0 0 0
0 0 0
0 0 0
0 0 0
0 0 0
0 0 0
1 1 1
1 1 1
1 1 1
2 1 1
3 0 1
3 0 1
3 0 1
3 0 1
3 0 0
4 1 2
5 4 5
5 4 5
1 1 3
0 0 3
1 4 5
1 4 10
2 4 11
0 1 10
0 0 12
4 17 26
47 64 75
79 97 109
88 109 125
84 109 126
81 110 128
83 113 135
82 115 136
79 113 135
79 113 135
79 113 132
79 114 136
82 116 140
82 116 140
80 115 137
79 114 136
80 115 137
80 115 137
80 115 137
80 115 137
79 114 134
79 114 134
82 113 130
89 118 136
96 123 138
81 101 115
39 51 61
0 0 6
0 0 0
0 0 1
2 3 2
0 3 0
0 3 0
0 3 0
0 3 0
0 2 1
0 2 2
0 2 3
0 2 3
0 2 3
0 2 3
0 2 3
0 2 3
0 2 3
0 2 3
0 2 3
0 2 3
0 2 3
0 2 3
0 2 3
0 2 3
0 2 3
0 2 3
0 2 3
0 2 3
0 1 1
0 0 0
0 0 0
0 0 0
0 0 0
0 0 0
0 0 0
0 0 0
0 0 0
0 0 0
0 0 0
0 0 0
0 0 0
0 0 0
0 0 0
0 0 0
0 0 0
0 0 0
0 0 0
0 0 0
0 0 0
0 0 0
0 0 0
0 0 0
0 0 0
0 0 0
0 0 0
0 0 0
0 0 0
0 0 0
0 0 0
0 0 0
0 0 0
0 0 0
1 1 1
1 1 1
1 1 1
1 1 1
1 1 1
1 1 1
1 1 1
1 1 1
1 1 1
1 1 1
1 1 1
1 1 1
1 1 1
1 1 1
1 1 1
1 1 1
1 1 1
1 1 1
1 1 1
1 1 1
1 1 1
1 1 1
1 1 1
1 1 1
1 1 1
1 1 1
1 1 1
1 1 1
1 1 1
1 1 1
1 1 1
1 1 1
1 1 1
1 1 1
1 1 1
1 1 1
1 1 1
1 1 1
1 1 1
1 1 1
1 1 1
1 1 1
1 1 1
1 1 1
1 1 1
1 1 1
1 1 1
1 1 1
1 1 1
1 1 1
1 1 1
1 1 1
1 1 1
1 1 1
1 1 1
1 1 1
1 1 1
1 1 1
1 1 1
1 1 1
1 1 1
1 1 1
1 1 1
1 1 1
1 1 1
1 1 1
1 1 1
1 1 1
1 1 1
1 1 1
1 1 1
1 1 1
1 1 1
1 1 1
1 1 1
1 1 1
1 1 1
1 1 1
1 1 1
1 1 1
1 1 1
1 1 1
1 1 1
1 1 1
1 1 1
1 1 1
1 1 1
1 1 1
1 1 1
1 1 1
1 1 1
1 1 1
1 1 1
1 1 1
1 1 1
3 0 2
4 1 2
4 1 2
4 1 2
4 1 2
4 1 5
3 1 6
2 1 7
1 1 8
1 4 10
0 1 6
0 4 12
4 17 26
23 41 52
53 72 83
81 106 120
91 117 133
85 116 133
79 113 127
79 115 132
78 117 135
77 117 135
75 116 134
76 115 135
76 116 136
77 115 136
77 115 136
77 115 137
77 115 137
77 116 137
77 116 137
76 117 136
76 117 136
75 116 137
75 116 137
75 116 137
75 116 137
75 116 136
74 116 136
74 116 136
74 116 136
74 116 136
73 115 135
73 115 135
73 115 135
73 115 135
75 116 136
75 116 136
75 116 136
75 116 136
75 116 136
75 116 136
75 116 136
75 116 136
77 117 137
77 117 137
77 117 137
77 117 137
77 117 137
77 117 137
76 117 136
76 116 136
76 116 136
77 115 136
77 115 136
76 114 136
76 114 136
76 114 136
76 114 136
76 114 136
76 114 136
76 116 136
76 116 136
76 116 136
76 116 136
76 116 136
76 116 136
76 116 136
76 116 136
76 116 136
76 116 136
76 116 136
76 116 136
76 116 136
76 116 136
76 116 136
76 116 136
76 116 136
76 116 136
76 116 136
76 116 136
76 116 136
76 116 136
76 116 136
76 116 136
76 116 136
76 116 136
76 116 136
76 116 136
76 116 136
77 115 137
78 115 137
80 115 140
82 116 140
82 118 141
82 117 137
77 111 130
77 107 124
81 110 128
85 116 133
97 121 136
97 121 136
93 116 131
79 97 109
53 72 83
31 43 53
4 17 26
0 1 6
0 0 5
1 4 10
2 6 12
1 4 5
0 4 9
6 8 13
6 8 13
5 6 9
3 4 6
1 1 1
0 0 1
0 3 5
0 4 5
1 4 5
1 4 5
0 4 5
0 4 5
0 4 5
0 4 5
0 3 2
0 2 1
0 2 1
0 2 1
0 2 1
0 1 0
0 1 0
0 1 0
0 1 0
0 0 0
0 0 0
0 0 0
0 0 0
0 0 0
0 0 0
0 0 12
14 29 40
62 77 90
97 121 136
93 121 136
83 113 128
83 113 128
82 115 132
79 115 132
78 116 135
77 116 137
77 116 139
78 115 139
78 115 142
78 115 142
77 116 142
77 116 140
77 116 139
76 117 138
75 118 137
75 118 137
77 117 137
77 117 137
77 117 137
77 117 139
77 116 139
77 116 139
77 116 139
77 116 139
77 116 139
77 116 139
77 116 139
77 116 139
77 116 139
77 116 139
77 116 139
77 116 139
77 116 139
77 116 139
77 116 139
77 116 139
77 116 140
77 116 142
77 116 142
77 116 142
77 116 140
78 115 139
78 115 139
80 115 140
80 115 137
80 115 137
80 115 137
80 115 137
80 115 137
82 115 136
82 115 136
82 115 136
82 115 136
79 114 134
79 113 135
79 113 135
79 114 134
82 115 132
82 115 132
79 113 132
85 116 133
93 121 136
93 116 131
70 92 106
47 64 75
14 29 40
0 12 19
2 10 15
0 12 19
4 17 26
2 10 15
0 6 5
0 6 5
0 6 5
0 5 1
0 5 1
0 4 1
0 3 2
0 3 2
0 2 1
0 1 0
0 0 0
0 0 0
0 0 0
0 0 0
0 0 0
1 1 1
1 1 1
1 1 1
1 1 1
1 1 1
0 0 0
0 0 0
0 0 0
0 0 0
1 1 1
1 1 1
1 1 1
1 1 1
0 0 0
0 0 0
0 0 0
0 0 0
0 0 0
0 0 0
0 0 0
0 0 0
0 0 0
0 0 0
0 0 0
0 0 0
0 0 0
0 0 0
0 0 0
0 0 0
0 0 0
0 0 0
0 0 0
0 0 0
0 0 0
1 1 1
1 1 1
1 1 1
2 1 1
3 1 0
3 1 0
3 1 0
3 1 0
3 0 0
6 1 4
5 6 9
5 6 9
2 2 2
0 0 0
1 4 5
5 6 9
2 4 11
0 1 10
0 0 12
0 12 19
23 29 39
39 51 61
62 77 90
79 97 109
88 109 125
90 116 132
85 113 132
77 111 130
77 107 124
77 111 130
79 113 135
82 116 140
82 116 140
80 115 137
79 113 135
77 115 137
78 115 137
78 115 137
78 115 137
76 114 136
79 115 135
79 115 132
89 120 137
96 123 138
81 101 115
39 51 61
0 1 6
0 0 0
0 0 2
2 3 2
0 2 0
0 2 0
0 2 0
0 2 0
1 1 1
1 1 2
1 1 3
1 1 3
0 2 3
0 2 3
0 2 3
0 2 3
0 2 3
0 2 3
0 2 3
0 2 3
0 2 3
0 2 3
0 2 3
0 2 3
0 2 3
0 2 3
0 2 3
0 2 3
0 1 1
0 0 0
0 0 0
0 0 0
0 0 0
0 0 0
0 0 0
0 0 0
0 0 0
0 0 0
0 0 0
0 0 0
0 0 0
0 0 0
0 0 0
0 0 0
0 0 0
0 0 0
0 0 0
0 0 0
0 0 0
0 0 0
0 0 0
0 0 0
0 0 0
0 0 0
0 0 0
0 0 0
0 0 0
0 0 0
0 0 0
0 0 0
0 0 0
0 0 0
1 1 1
1 1 1
1 1 1
1 1 1
1 1 1
1 1 1
0 0 0
0 0 0
1 1 1
1 1 1
0 0 0
0 0 0
0 0 0
0 0 0
0 0 0
0 0 0
0 0 0
0 0 0
0 0 0
0 0 0
0 0 0
0 0 0
0 0 0
0 0 0
0 0 0
0 0 0
0 0 0
0 0 0
0 0 0
0 0 0
0 0 0
0 0 0
0 0 0
0 0 0
0 0 0
0 0 0
0 0 0
0 0 0
0 0 0
0 0 0
0 0 0
0 0 0
0 0 0
0 0 0
0 0 0
0 0 0
0 0 0
0 0 0
0 0 0
0 0 0
0 0 0
0 0 0
0 0 0
0 0 0
0 0 0
0 0 0
0 0 0
0 0 0
0 0 0
0 0 0
0 0 0
0 0 0
0 0 0
0 0 0
0 0 0
0 0 0
0 0 0
0 0 0
0 0 0
0 0 0
0 0 0
0 0 0
0 0 0
0 0 0
0 0 0
0 0 0
0 0 0
0 0 0
0 0 0
0 0 0
0 0 0
0 0 0
0 0 0
0 0 0
0 0 0
0 0 0
0 0 0
0 0 0
0 0 0
0 0 0
0 0 0
0 0 0
0 0 0
0 0 0
0 0 0
2 0 1
3 0 1
3 0 1
3 0 1
3 0 2
3 0 3
4 1 5
3 1 6
2 1 7
0 4 9
0 0 6
0 1 10
4 17 26
23 41 52
53 72 83
81 106 120
91 117 133
85 116 133
79 113 127
79 115 132
78 117 135
77 117 135
75 116 134
76 115 135
76 116 136
77 115 137
76 115 138
76 115 138
76 115 138
76 115 138
76 115 138
75 116 138
74 116 138
74 116 138
74 116 138
74 116 138
74 116 138
75 116 137
74 116 136
74 116 136
74 116 136
74 116 136
74 116 136
74 116 136
74 116 136
74 116 136
76 116 136
76 116 136
76 116 136
76 116 136
76 116 136
76 116 136
76 116 136
76 116 136
77 117 137
77 117 137
77 117 137
77 117 137
77 117 137
77 117 137
77 117 137
77 117 137
77 116 137
77 115 136
77 115 136
77 115 136
77 115 136
77 115 136
77 115 136
77 115 136
77 115 136
76 116 136
76 116 136
76 116 136
76 116 136
76 116 136
76 116 136
76 116 136
76 116 136
76 116 136
76 116 136
76 116 136
76 116 136
76 116 136
76 116 136
76 116 136
76 116 136
76 116 136
76 116 136
76 116 136
76 116 136
76 116 136
76 116 136
76 116 136
76 116 136
76 116 136
76 116 136
76 116 136
76 116 136
76 116 136
76 115 135
78 115 137
80 115 137
82 116 140
82 117 137
82 115 136
82 113 130
81 110 128
77 107 124
83 113 128
97 121 136
97 121 136
81 101 115
53 72 83
23 41 52
12 20 29
0 12 19
0 1 6
0 0 5
0 3 5
0 4 5
0 4 5
0 4 5
1 4 5
3 4 6
3 4 6
3 4 6
1 2 3
1 2 3
1 4 5
3 4 6
3 4 6
3 4 6
1 4 5
1 4 5
1 4 5
1 4 5
0 2 2
0 2 1
0 2 1
0 2 1
0 2 1
0 1 0
0 1 0
0 1 0
0 1 0
0 0 0
0 0 0
0 0 0
0 0 0
0 0 0
0 0 0
0 0 12
14 29 40
62 77 90
96 123 138
93 121 136
83 113 128
83 113 128
82 115 132
79 115 132
78 116 135
77 116 137
77 116 139
78 115 139
78 115 142
78 115 142
77 116 142
77 116 140
75 116 139
76 117 138
75 118 137
75 118 137
77 117 137
77 117 137
77 117 137
77 117 139
77 116 139
77 116 139
77 116 139
77 116 139
77 116 139
77 116 139
77 116 139
77 116 139
77 116 139
77 116 139
77 116 139
77 116 139
77 116 139
77 116 139
77 116 139
77 116 139
77 116 140
77 116 142
77 116 142
77 116 142
77 116 140
78 115 139
80 115 140
80 115 140
82 115 136
82 113 136
82 113 136
82 113 136
82 113 136
82 115 136
82 115 136
82 115 136
82 115 136
79 114 134
79 113 135
79 114 134
79 115 135
79 115 135
79 115 132
77 115 131
79 115 132
90 116 132
93 116 131
88 109 125
70 92 106
39 51 61
12 20 29
0 12 19
0 12 19
4 17 26
0 12 19
0 8 14
0 4 9
0 6 5
0 6 5
0 6 5
0 6 5
0 5 1
0 3 2
0 2 1
0 1 0
0 0 0
0 0 0
0 0 0
0 0 0
0 0 0
1 1 1
1 1 1
1 1 1
1 1 1
1 1 1
0 0 0
0 0 0
0 0 0
0 0 0
1 1 1
1 1 1
1 1 1
1 1 1
0 0 0
0 0 0
0 0 0
0 0 0
0 0 0
0 0 0
0 0 0
0 0 0
0 0 0
0 0 0
0 0 0
0 0 0
0 0 0
0 0 0
0 0 0
0 0 0
0 0 0
0 0 0
0 0 0
0 0 0
0 0 0
1 1 1
1 1 1
1 1 1
2 1 1
3 1 0
3 1 0
3 1 0
4 2 0
3 2 1
3 4 2
5 6 9
5 6 9
3 4 2
2 3 2
5 4 5
5 6 9
2 4 11
2 4 11
2 4 11
0 4 16
6 12 17
14 29 40
39 51 61
62 77 90
81 101 115
95 118 134
93 121 136
82 113 130
77 107 124
77 111 130
79 113 135
80 115 137
82 117 137
80 115 137
79 114 136
77 114 138
76 115 140
76 115 140
76 115 140
76 114 136
77 115 136
79 115 132
89 120 137
96 123 138
81 101 115
39 51 61
0 1 6
0 0 0
0 0 2
2 3 2
0 2 0
0 2 0
0 2 0
0 2 0
1 1 1
1 1 2
1 1 3
1 1 3
0 2 3
0 2 3
0 2 3
0 2 3
0 2 3
0 2 3
0 2 3
0 2 3
0 2 3
0 2 3
0 2 3
0 2 3
0 2 3
0 2 3
0 2 3
0 2 3
0 1 1
0 0 0
0 0 0
0 0 0
0 0 0
0 0 0
0 0 0
0 0 0
0 0 0
0 0 0
0 0 0
0 0 0
0 0 0
0 0 0
0 0 0
0 0 0
0 0 0
0 0 0
0 0 0
0 0 0
0 0 0
0 0 0
0 0 0
0 0 0
0 0 0
0 0 0
0 0 0
0 0 0
0 0 0
0 0 0
0 0 0
0 0 0
0 0 0
0 0 0
1 1 1
1 1 1
1 1 1
1 1 1
1 1 1
1 1 1
0 0 0
0 0 0
1 1 1
1 1 1
0 0 0
0 0 0
0 0 0
0 0 0
0 0 0
0 0 0
0 0 0
0 0 0
0 0 0
0 0 0
0 0 0
0 0 0
0 0 0
0 0 0
0 0 0
0 0 0
0 0 0
0 0 0
0 0 0
0 0 0
0 0 0
0 0 0
0 0 0
0 0 0
0 0 0
0 0 0
0 0 0
0 0 0
0 0 0
0 0 0
0 0 0
0 0 0
0 0 0
0 0 0
0 0 0
0 0 0
0 0 0
0 0 0
0 0 0
0 0 0
0 0 0
0 0 0
0 0 0
0 0 0
0 0 0
0 0 0
0 0 0
0 0 0
0 0 0
0 0 0
0 0 0
0 0 0
0 0 0
0 0 0
0 0 0
0 0 0
0 0 0
0 0 0
0 0 0
0 0 0
0 0 0
0 0 0
0 0 0
0 0 0
0 0 0
0 0 0
0 0 0
0 0 0
0 0 0
0 0 0
0 0 0
0 0 0
0 0 0
0 0 0
0 0 0
0 0 0
0 0 0
0 0 0
0 0 0
0 0 0
0 0 0
0 0 0
0 0 0
0 0 0
0 0 0
2 0 1
3 0 1
3 0 1
3 0 1
3 0 2
3 0 3
4 1 5
3 1 6
2 1 7
0 4 9
0 0 6
0 1 10
4 17 26
23 41 52
53 72 83
81 106 120
91 117 133
85 116 133
79 113 127
77 117 133
78 117 135
77 117 135
75 116 134
75 116 134
75 116 136
75 116 137
75 116 138
75 116 138
75 116 138
75 116 138
75 116 138
74 116 138
74 116 138
74 116 138
74 116 138
74 116 138
74 116 138
75 116 137
74 116 136
74 116 136
74 116 136
74 116 136
74 116 136
74 116 136
74 116 136
74 116 136
76 116 136
76 116 136
76 116 136
76 116 136
76 116 136
76 116 136
76 116 136
76 116 136
77 117 137
77 117 137
77 117 137
77 117 137
77 117 137
77 117 137
77 117 137
77 117 137
77 116 137
77 115 136
77 115 136
77 115 136
77 115 136
77 115 136
77 115 136
77 115 136
77 115 136
76 116 136
76 116 136
76 116 136
76 116 136
76 116 136
76 116 136
76 116 136
76 116 136
76 116 136
76 116 136
76 116 136
76 116 136
76 116 136
76 116 136
76 116 136
76 116 136
76 116 136
76 116 136
76 116 136
76 116 136
76 116 136
76 116 136
76 116 136
76 116 136
76 116 136
76 116 136
76 116 136
76 116 136
76 116 136
76 115 135
77 115 136
79 114 138
82 117 137
86 121 140
89 120 137
85 116 133
90 113 128
90 113 128
90 113 128
88 109 125
79 97 109
53 72 83
23 41 52
12 20 29
0 12 19
1 6 12
1 4 10
3 4 6
0 4 5
0 4 5
0 4 5
0 4 5
0 3 2
0 3 2
1 4 5
3 4 6
1 4 5
1 4 5
1 4 5
3 4 6
3 4 6
3 4 6
1 4 5
1 4 5
1 4 5
1 4 5
0 2 2
0 2 1
0 2 1
0 2 1
0 2 1
0 1 0
0 1 0
0 1 0
0 1 0
0 0 0
0 0 0
0 0 0
0 0 0
0 0 0
0 0 0
0 1 10
14 29 40
62 77 90
97 124 139
96 123 138
83 113 128
82 113 130
82 115 132
79 115 132
78 116 135
77 116 137
77 116 139
78 115 139
78 115 142
78 115 142
77 116 142
76 115 140
75 117 139
75 118 138
75 118 137
75 118 137
77 117 137
77 117 137
77 117 137
77 117 139
77 116 139
77 116 139
77 116 139
77 116 139
77 116 139
77 116 139
77 116 139
77 116 139
77 116 139
77 116 139
77 116 139
77 116 139
77 116 139
77 116 139
77 116 139
77 116 139
77 116 140
77 116 142
77 116 142
78 115 142
80 115 140
80 115 140
80 115 140
82 116 140
82 113 136
82 113 136
82 113 136
82 113 136
82 113 136
83 113 135
83 113 135
82 115 136
82 115 136
82 115 136
79 115 135
79 115 135
78 116 135
78 117 135
77 117 133
77 115 131
77 117 133
82 115 132
90 116 132
97 121 136
88 109 125
68 87 100
31 51 61
12 20 29
0 12 19
0 12 19
0 12 19
2 10 15
1 6 12
0 4 5
0 4 5
0 4 5
0 6 5
0 4 5
0 3 2
0 2 0
0 1 0
0 1 0
0 0 0
0 0 0
0 0 0
0 0 0
1 1 1
1 1 1
1 1 1
1 1 1
1 1 1
0 0 0
0 0 0
0 0 0
0 0 0
0 0 0
0 0 0
0 0 0
0 0 0
0 0 0
0 0 0
0 0 0
0 0 0
0 0 0
0 0 0
0 0 0
0 0 0
0 0 0
0 0 0
0 0 0
0 0 0
0 0 0
0 0 0
0 0 0
0 0 0
0 0 0
0 0 0
0 0 0
0 0 0
0 0 0
1 1 1
1 1 1
1 1 1
2 1 1
3 1 0
3 0 0
2 0 0
4 2 0
5 4 5
5 4 5
3 4 2
3 4 2
5 4 5
5 6 9
5 4 5
4 1 5
3 4 6
5 6 9
2 4 11
0 1 10
0 1 13
6 12 17
14 29 40
39 51 61
68 87 100
95 118 134
99 127 141
89 118 136
82 113 130
79 113 132
79 113 132
79 113 132
79 114 134
79 114 138
79 114 138
77 116 140
75 116 141
74 114 140
74 114 140
74 115 139
77 115 137
79 115 132
89 120 137
96 123 138
81 101 115
39 51 61
0 1 6
0 0 0
0 0 2
2 3 2
0 2 0
0 2 0
0 2 0
0 2 0
1 1 1
1 1 2
1 1 3
1 1 3
0 2 3
0 2 3
0 2 3
0 2 3
0 2 3
0 2 3
0 2 3
0 2 3
0 2 3
0 2 3
0 2 3
0 2 3
0 2 3
0 2 3
0 2 3
0 2 3
0 1 1
0 0 0
0 0 0
0 0 0
0 0 0
0 0 0
0 0 0
0 0 0
0 0 0
0 0 0
0 0 0
0 0 0
0 0 0
0 0 0
0 0 0
0 0 0
0 0 0
0 0 0
0 0 0
0 0 0
0 0 0
0 0 0
0 0 0
0 0 0
0 0 0
0 0 0
0 0 0
0 0 0
0 0 0
0 0 0
0 0 0
0 0 0
0 0 0
0 0 0
1 1 1
1 1 1
1 1 1
1 1 1
1 1 1
1 1 1
0 0 0
0 0 0
0 0 0
0 0 0
0 0 0
0 0 0
0 0 0
0 0 0
0 0 0
0 0 0
0 0 0
0 0 0
0 0 0
0 0 0
0 0 0
0 0 0
0 0 0
0 0 0
0 0 0
0 0 0
0 0 0
0 0 0
0 0 0
0 0 0
0 0 0
0 0 0
0 0 0
0 0 0
0 0 0
0 0 0
0 0 0
0 0 0
0 0 0
0 0 0
0 0 0
0 0 0
0 0 0
0 0 0
0 0 0
0 0 0
0 0 0
0 0 0
0 0 0
0 0 0
0 0 0
0 0 0
0 0 0
0 0 0
0 0 0
0 0 0
0 0 0
0 0 0
0 0 0
0 0 0
0 0 0
0 0 0
0 0 0
0 0 0
0 0 0
0 0 0
0 0 0
0 0 0
0 0 0
0 0 0
0 0 0
0 0 0
0 0 0
0 0 0
0 0 0
0 0 0
0 0 0
0 0 0
0 0 0
0 0 0
0 0 0
0 0 0
0 0 0
0 0 0
0 0 0
0 0 0
0 0 0
0 0 0
0 0 0
0 0 0
0 0 0
0 0 0
0 0 0
0 0 0
0 0 0
2 0 1
3 0 1
3 0 1
3 0 1
3 0 2
3 0 3
4 1 5
3 1 6
2 1 7
0 4 9
0 0 6
0 1 10
4 17 26
23 41 52
53 72 83
81 106 120
95 118 134
85 116 133
79 113 127
78 115 132
77 117 133
75 116 134
75 116 134
73 115 135
73 115 135
76 114 136
76 114 136
76 114 136
76 114 136
74 115 139
74 116 138
74 116 138
74 116 138
74 116 138
74 116 138
74 116 138
74 116 138
75 116 137
74 116 136
74 116 136
74 116 136
74 116 136
74 116 136
74 116 136
74 116 136
74 116 136
76 116 136
76 116 136
76 116 136
76 116 136
76 116 136
76 116 136
76 116 136
76 116 136
77 117 137
77 117 137
77 117 137
77 117 137
77 117 137
77 117 137
77 117 137
77 117 137
77 116 137
77 115 136
77 115 136
77 115 136
77 115 136
77 115 136
77 115 136
77 115 136
77 115 136
76 116 136
76 116 136
76 116 136
76 116 136
76 116 136
76 116 136
76 116 136
76 116 136
76 116 136
76 116 136
75 116 136
75 116 136
74 116 136
74 116 136
75 116 136
76 116 136
76 116 136
76 116 136
76 116 136
76 116 136
76 116 136
76 116 136
76 116 136
76 116 136
76 116 136
76 116 136
76 116 136
77 115 136
77 115 136
77 116 134
75 113 134
76 113 132
82 117 137
87 124 142
97 124 139
91 117 133
90 113 128
90 113 128
81 106 120
62 77 90
39 51 61
24 35 46
12 20 29
0 12 19
0 4 9
0 1 6
0 2 4
1 4 5
0 6 5
0 6 5
0 4 5
0 4 5
0 4 5
0 4 5
1 4 5
1 4 5
1 4 5
1 4 5
1 4 5
3 4 6
3 4 6
3 4 6
1 4 5
1 4 5
1 4 5
1 4 5
0 2 2
0 2 1
0 2 1
0 2 1
0 2 1
0 1 0
0 1 0
0 1 0
0 1 0
0 0 0
0 0 0
0 0 0
0 0 0
0 0 0
0 0 0
0 1 10
14 29 40
62 77 90
97 124 139
96 123 138
83 113 128
82 113 130
82 115 132
79 115 132
78 116 135
77 116 137
77 116 139
78 115 139
78 115 142
78 115 142
77 116 142
76 115 140
75 117 139
75 118 138
75 118 137
75 118 137
77 117 137
77 117 137
77 117 137
77 117 139
77 116 139
77 116 139
77 116 139
77 116 139
77 116 139
77 116 139
77 116 139
77 116 139
77 116 139
77 116 139
77 116 139
77 116 139
77 116 139
77 116 139
77 116 139
77 116 139
77 116 140
77 116 142
77 116 142
78 115 142
80 115 140
80 115 140
80 115 140
82 116 140
82 113 136
82 113 136
82 113 136
83 113 135
83 113 135
83 113 135
83 113 135
82 115 136
82 115 136
82 115 136
79 115 135
79 115 135
78 116 135
77 117 135
77 117 135
77 117 133
77 117 133
79 113 127
79 113 127
90 116 132
95 118 134
88 109 125
55 79 91
31 51 61
4 17 26
0 8 14
0 8 14
2 10 15
1 6 12
0 4 5
0 3 5
0 3 5
0 4 5
0 4 5
0 3 2
0 2 1
0 1 1
0 1 0
0 0 0
0 0 0
0 0 0
0 0 0
1 1 1
1 1 1
1 1 1
1 1 1
1 1 1
0 0 0
0 0 0
0 0 0
0 0 0
0 0 0
0 0 0
0 0 0
0 0 0
0 0 0
0 0 0
0 0 0
0 0 0
0 0 0
0 0 0
0 0 0
0 0 0
0 0 0
0 0 0
0 0 0
0 0 0
0 0 0
0 0 0
0 0 0
0 0 0
0 0 0
0 0 0
0 0 0
0 0 0
0 0 0
1 1 1
1 1 1
1 1 1
2 1 1
3 1 0
2 0 0
1 0 0
3 4 2
5 4 5
5 4 5
0 0 0
0 0 0
5 6 9
6 8 13
5 4 5
1 0 0
2 1 3
5 6 9
5 6 9
2 1 7
2 4 11
0 1 13
6 12 17
23 29 39
53 72 83
90 113 128
99 127 141
93 121 136
85 116 133
85 116 133
82 113 130
77 111 130
79 113 132
79 114 138
79 114 138
77 116 140
75 116 141
75 116 141
73 117 141
74 114 140
77 115 137
78 115 132
89 120 137
96 123 138
81 101 115
39 51 61
0 1 6
0 0 0
0 0 2
2 3 2
0 2 0
0 2 0
0 2 0
0 2 0
1 1 1
1 1 2
1 1 3
1 1 3
0 2 3
0 2 3
0 2 3
0 2 3
0 2 3
0 2 3
0 2 3
0 2 3
0 2 3
0 2 3
0 2 3
0 2 3
0 2 3
0 2 3
0 2 3
0 2 3
0 1 1
0 0 0
0 0 0
0 0 0
0 0 0
0 0 0
0 0 0
0 0 0
0 0 0
0 0 0
0 0 0
0 0 0
0 0 0
0 0 0
0 0 0
0 0 0
0 0 0
0 0 0
0 0 0
0 0 0
0 0 0
0 0 0
0 0 0
0 0 0
0 0 0
0 0 0
0 0 0
0 0 0
0 0 0
0 0 0
0 0 0
0 0 0
0 0 0
0 0 0
1 1 1
1 1 1
1 1 1
1 1 1
1 1 1
1 1 1
0 0 0
0 0 0
0 0 0
0 0 0
0 0 0
0 0 0
0 0 0
0 0 0
0 0 0
0 0 0
0 0 0
0 0 0
0 0 0
0 0 0
0 0 0
0 0 0
0 0 0
0 0 0
0 0 0
0 0 0
0 0 0
0 0 0
0 0 0
0 0 0
0 0 0
0 0 0
0 0 0
0 0 0
0 0 0
0 0 0
0 0 0
0 0 0
0 0 0
0 0 0
0 0 0
0 0 0
0 0 0
0 0 0
0 0 0
0 0 0
0 0 0
0 0 0
0 0 0
0 0 0
0 0 0
0 0 0
0 0 0
0 0 0
0 0 0
0 0 0
0 0 0
0 0 0
0 0 0
0 0 0
0 0 0
0 0 0
0 0 0
0 0 0
0 0 0
0 0 0
0 0 0
0 0 0
0 0 0
0 0 0
0 0 0
0 0 0
0 0 0
0 0 0
0 0 0
0 0 0
0 0 0
0 0 0
0 0 0
0 0 0
0 0 0
0 0 0
0 0 0
0 0 0
0 0 0
0 0 0
0 0 0
0 0 0
0 0 0
0 0 0
0 0 0
0 0 0
0 0 0
0 0 0
0 0 0
2 0 1
3 0 1
3 0 1
3 0 1
3 0 2
3 0 3
4 1 5
3 1 6
2 1 7
0 4 9
0 0 6
0 1 10
4 17 26
23 41 52
55 79 91
81 106 120
95 118 134
85 116 133
79 113 127
78 115 132
77 117 133
75 116 134
73 115 135
73 115 135
73 115 135
76 114 136
76 114 136
76 114 136
76 114 136
74 115 139
74 116 138
74 116 138
74 116 138
74 116 138
74 116 138
74 116 138
74 116 138
75 116 137
74 116 136
74 116 136
74 116 136
74 116 136
74 116 136
74 116 136
74 116 136
74 116 136
76 116 136
76 116 136
76 116 136
76 116 136
76 116 136
76 116 136
76 116 136
76 116 136
77 117 137
77 117 137
77 117 137
77 117 137
77 117 137
77 117 137
77 117 137
77 117 137
77 116 137
77 115 136
77 115 136
77 115 136
77 115 136
77 115 136
77 115 136
77 115 136
77 115 136
76 116 136
76 116 136
76 116 136
76 116 136
76 116 136
76 116 136
76 116 136
76 116 136
76 116 136
75 116 137
74 116 136
73 117 136
73 117 136
73 117 136
75 116 136
76 116 136
76 116 136
76 116 136
75 116 137
75 116 137
76 116 136
76 116 136
76 116 136
76 116 136
76 116 136
76 116 136
76 116 136
77 115 136
77 115 136
77 116 134
76 113 132
77 111 130
82 115 132
99 127 141
99 127 141
93 121 136
84 109 126
79 97 109
55 79 91
31 51 61
12 20 29
0 12 19
0 12 19
2 6 12
1 1 8
1 4 5
0 3 5
0 6 5
0 6 5
0 6 5
0 4 5
0 4 5
0 4 5
0 4 5
1 4 5
1 4 5
1 4 5
1 4 5
1 4 5
3 4 6
3 4 6
1 4 5
1 4 5
1 4 5
1 4 5
1 4 5
0 2 2
0 2 1
0 2 1
0 2 1
0 2 1
0 1 0
0 1 0
0 1 0
0 1 0
0 0 0
0 0 0
0 0 0
0 0 0
0 0 0
0 0 0
0 1 10
14 29 40
62 77 90
97 124 139
96 123 138
83 113 128
82 113 130
82 115 132
79 115 132
78 116 135
77 116 137
77 116 139
77 116 140
77 116 142
77 116 142
77 116 142
76 115 140
75 117 139
75 118 138
75 118 137
75 118 137
77 117 137
77 117 137
77 117 137
77 117 139
77 116 139
77 116 139
77 116 139
77 116 139
77 116 139
77 116 139
77 116 139
77 116 139
77 116 139
77 116 139
77 116 139
77 116 139
77 116 139
77 116 139
77 116 139
77 116 139
77 116 140
77 116 142
77 116 142
78 115 142
80 115 140
80 115 140
80 115 140
82 116 140
82 113 136
82 113 136
83 113 135
83 113 135
83 113 135
83 113 135
83 113 135
82 115 136
82 115 136
82 115 136
79 115 135
78 116 135
77 117 135
75 118 134
75 118 134
77 117 135
77 117 133
77 107 124
70 105 125
81 110 128
93 121 136
99 127 141
90 113 128
55 79 91
24 35 46
0 12 19
2 10 15
2 10 15
0 6 13
1 4 10
0 4 9
0 3 5
0 3 5
0 4 5
0 3 5
0 2 2
0 0 2
0 0 2
0 0 1
0 0 0
0 0 0
0 0 0
2 1 0
3 1 0
3 1 0
3 1 0
2 1 0
2 0 0
2 0 0
2 0 0
1 0 0
0 0 0
0 0 0
0 0 0
0 0 0
0 0 0
0 0 0
0 0 0
0 0 0
0 0 0
0 0 0
0 0 0
0 0 0
0 0 0
0 0 0
0 0 0
0 0 0
0 0 0
0 0 0
0 0 0
0 0 0
0 0 0
0 0 0
0 0 0
0 0 0
0 0 0
1 1 1
1 1 1
1 1 1
1 1 1
1 2 0
1 2 0
0 1 0
3 4 2
5 4 5
5 4 5
0 0 0
0 0 0
5 6 9
6 8 13
5 4 5
2 0 0
2 0 1
4 1 5
5 6 9
5 6 9
5 6 9
2 1 7
0 0 7
6 12 17
39 51 61
70 92 106
90 113 128
93 116 131
90 116 132
90 116 132
82 113 130
77 111 130
77 111 130
79 114 136
78 115 139
77 116 140
75 116 141
73 117 141
73 117 141
73 117 141
75 116 138
77 116 134
83 118 136
96 123 138
81 101 115
39 51 61
0 2 9
0 0 0
0 0 4
3 4 6
1 1 1
1 2 0
1 2 0
1 2 0
1 1 1
1 1 2
1 1 3
1 1 3
0 2 3
0 2 3
0 2 3
0 2 3
0 2 3
0 2 3
0 2 3
0 2 3
0 2 3
0 2 3
0 2 3
0 2 3
0 2 3
0 2 3
0 2 3
0 2 3
0 1 1
0 0 0
0 0 0
0 0 0
0 0 0
0 0 0
0 0 0
0 0 0
0 0 0
0 0 0
0 0 0
0 0 0
0 0 0
0 0 0
0 0 0
0 0 0
0 0 0
0 0 0
0 0 0
0 0 0
0 0 0
0 0 0
0 0 0
0 0 0
0 0 0
0 0 0
0 0 0
0 0 0
0 0 0
0 0 0
0 0 0
0 0 0
0 0 0
0 0 0
1 1 1
1 1 1
1 1 1
1 1 1
1 1 1
1 1 1
0 0 0
0 0 0
0 0 0
0 0 0
0 0 0
0 0 0
0 0 0
0 0 0
0 0 0
0 0 0
0 0 0
0 0 0
0 0 0
0 0 0
0 0 0
0 0 0
0 0 0
0 0 0
0 0 0
0 0 0
0 0 0
0 0 0
0 0 0
0 0 0
0 0 0
0 0 0
0 0 0
0 0 0
0 0 0
0 0 0
0 0 0
0 0 0
0 0 0
0 0 0
0 0 0
0 0 0
0 0 0
0 0 0
0 0 0
0 0 0
0 0 0
0 0 0
0 0 0
0 0 0
0 0 0
0 0 0
0 0 0
0 0 0
0 0 0
0 0 0
0 0 0
0 0 0
0 0 0
0 0 0
0 0 0
0 0 0
0 0 0
0 0 0
0 0 0
0 0 0
0 0 0
0 0 0
0 0 0
0 0 0
0 0 0
0 0 0
0 0 0
0 0 0
0 0 0
0 0 0
0 0 0
0 0 0
0 0 0
0 0 0
0 0 0
0 0 0
0 0 0
0 0 0
0 0 0
0 0 0
0 0 0
0 0 0
0 0 0
0 0 0
0 0 0
0 0 0
0 0 0
0 0 0
0 0 0
2 0 1
3 0 1
3 0 1
3 0 1
3 0 2
3 0 3
4 1 5
3 1 6
2 1 7
0 4 9
0 0 6
0 1 10
4 17 26
31 43 53
55 79 91
81 106 120
95 118 134
85 116 133
79 113 127
79 115 132
78 117 135
76 115 135
73 115 135
73 115 135
74 116 136
74 116 136
76 114 136
76 114 136
76 114 136
74 115 139
74 116 138
74 116 138
74 116 138
74 116 138
74 116 138
74 116 138
74 116 138
75 116 137
74 116 136
74 116 136
74 116 136
74 116 136
74 116 136
74 116 136
74 116 136
74 116 136
76 116 136
76 116 136
76 116 136
76 116 136
76 116 136
76 116 136
76 116 136
76 116 136
77 117 137
77 117 137
77 117 137
77 117 137
77 117 137
77 117 137
77 117 137
77 117 137
77 116 137
77 115 136
77 115 136
77 115 136
77 115 136
77 115 136
77 115 136
77 115 136
77 115 136
77 115 136
77 115 136
77 115 136
77 115 136
76 116 136
76 116 136
76 116 136
76 116 136
75 116 137
75 116 138
73 117 138
72 117 138
72 117 138
72 117 138
73 117 138
75 116 138
75 116 138
76 115 138
77 114 138
77 116 138
77 115 137
77 116 137
77 115 136
77 115 136
77 115 134
77 116 134
77 116 134
79 114 134
79 114 134
78 115 132
77 115 131
77 111 130
79 113 132
89 120 137
97 124 139
90 116 132
71 97 112
47 64 75
23 41 52
12 20 29
4 17 26
0 8 14
0 4 9
0 1 6
0 2 4
0 4 5
1 4 5
0 6 5
1 4 5
1 4 1
1 3 2
1 3 2
0 2 2
0 2 2
0 2 3
0 2 3
0 2 3
0 2 3
1 4 5
1 4 5
1 4 5
1 4 5
0 2 3
0 2 3
0 2 3
0 2 3
0 2 2
0 2 1
0 2 1
0 2 1
0 2 1
0 1 0
0 1 0
0 1 0
0 1 0
0 0 0
0 0 0
0 0 0
0 0 0
0 0 0
0 0 0
0 1 10
14 29 40
62 77 90
97 124 139
96 123 138
83 113 128
82 113 130
82 115 132
79 115 132
78 116 135
77 116 137
77 116 139
77 116 140
77 116 142
77 116 142
77 116 142
76 115 140
75 117 139
75 118 138
75 118 137
75 118 137
77 117 137
77 117 137
77 117 137
77 117 139
77 116 139
77 116 139
77 116 139
77 116 139
77 116 139
77 116 139
77 116 139
77 116 139
77 116 139
77 116 139
77 116 139
77 116 139
77 116 139
77 116 139
77 116 139
77 116 139
77 116 140
77 116 142
77 116 142
78 115 142
80 115 140
80 115 140
80 115 140
82 116 140
82 113 136
82 113 136
83 113 135
83 113 135
83 113 135
83 113 135
83 113 135
82 115 136
82 115 136
82 115 136
79 115 135
78 116 135
77 117 135
75 118 134
75 118 134
75 118 134
77 117 133
77 115 131
77 107 124
77 107 124
83 113 128
97 124 139
99 127 141
81 106 120
47 64 75
14 29 40
4 17 26
0 8 14
0 6 13
0 8 14
1 6 12
1 6 12
1 6 12
0 4 9
1 4 5
0 2 3
0 0 2
0 0 2
0 0 1
0 0 0
0 0 0
0 0 0
2 1 0
3 1 0
3 1 0
3 1 0
2 1 0
2 0 0
2 0 0
2 0 0
1 0 0
0 0 0
0 0 0
0 0 0
0 0 0
0 0 0
0 0 0
0 0 0
0 0 0
0 0 0
0 0 0
0 0 0
0 0 0
0 0 0
0 0 0
0 0 0
0 0 0
0 0 0
0 0 0
0 0 0
0 0 0
0 0 0
0 0 0
0 0 0
0 0 0
0 0 0
1 1 1
1 1 1
1 1 1
1 1 1
1 2 0
0 2 0
0 1 0
2 3 2
5 4 5
5 4 5
3 4 2
3 4 2
5 4 5
5 4 5
5 4 5
4 2 0
3 0 1
4 1 5
6 1 4
5 6 9
6 8 13
5 6 9
2 1 7
0 1 13
23 29 39
47 64 75
70 92 106
88 109 125
93 116 131
90 116 132
84 109 126
81 110 128
77 111 130
76 112 136
79 114 138
77 116 140
77 116 142
73 117 141
73 117 141
73 117 141
75 117 141
77 116 134
83 118 136
96 123 138
81 101 115
39 51 61
0 2 9
0 0 0
0 0 4
3 4 6
1 1 1
1 2 0
1 2 0
1 2 0
1 1 1
1 1 2
1 1 3
1 1 3
0 2 3
0 2 3
0 2 3
0 2 3
0 2 3
0 2 3
0 2 3
0 2 3
0 2 3
0 2 3
0 2 3
0 2 3
0 2 3
0 2 3
0 2 3
0 2 3
0 1 1
0 0 0
0 0 0
0 0 0
0 0 0
0 0 0
0 0 0
0 0 0
0 0 0
0 0 0
0 0 0
0 0 0
0 0 0
0 0 0
0 0 0
0 0 0
0 0 0
0 0 0
0 0 0
0 0 0
0 0 0
0 0 0
0 0 0
0 0 0
0 0 0
0 0 0
0 0 0
0 0 0
0 0 0
0 0 0
0 0 0
0 0 0
0 0 0
0 0 0
1 1 1
1 1 1
1 1 1
1 1 1
1 1 1
1 1 1
0 0 0
0 0 0
0 0 0
0 0 0
0 0 0
0 0 0
0 0 0
0 0 0
0 0 0
0 0 0
0 0 0
0 0 0
0 0 0
0 0 0
0 0 0
0 0 0
0 0 0
0 0 0
0 0 0
0 0 0
0 0 0
0 0 0
0 0 0
0 0 0
0 0 0
0 0 0
0 0 0
0 0 0
0 0 0
0 0 0
0 0 0
0 0 0
0 0 0
0 0 0
0 0 0
0 0 0
0 0 0
0 0 0
0 0 0
0 0 0
0 0 0
0 0 0
0 0 0
0 0 0
0 0 0
0 0 0
0 0 0
0 0 0
0 0 0
0 0 0
0 0 0
0 0 0
0 0 0
0 0 0
0 0 0
0 0 0
0 0 0
0 0 0
0 0 0
0 0 0
0 0 0
0 0 0
0 0 0
0 0 0
0 0 0
0 0 0
0 0 0
0 0 0
0 0 0
0 0 0
0 0 0
0 0 0
0 0 0
0 0 0
0 0 0
0 0 0
0 0 0
0 0 0
0 0 0
0 0 0
0 0 0
0 0 0
0 0 0
0 0 0
0 0 0
0 0 0
0 0 0
0 0 0
0 0 0
2 0 1
3 0 1
3 0 1
3 0 1
3 0 2
3 0 3
4 1 5
3 1 6
2 1 7
0 4 9
0 0 6
0 1 10
4 17 26
31 43 53
55 79 91
81 106 120
95 118 134
85 116 133
79 113 127
79 115 132
78 117 135
76 115 135
73 115 135
73 115 135
74 116 136
74 116 136
76 114 136
76 114 136
76 114 136
74 115 139
74 116 138
74 116 138
74 116 138
74 116 138
74 116 138
74 116 138
74 116 138
75 116 137
74 116 136
74 116 136
74 116 136
74 116 136
74 116 136
74 116 136
74 116 136
74 116 136
76 116 136
76 116 136
76 116 136
76 116 136
76 116 136
76 116 136
76 116 136
76 116 136
77 117 137
77 117 137
77 117 137
77 117 137
77 117 137
77 117 137
77 117 137
77 117 137
77 116 137
77 115 136
77 115 136
77 115 136
77 115 136
77 115 136
77 115 136
77 115 136
77 115 136
77 115 136
77 115 136
77 115 136
77 115 136
76 116 136
76 116 136
76 116 136
76 116 136
75 116 137
74 116 138
73 117 138
72 117 138
72 117 138
72 117 138
72 117 138
73 116 139
75 116 138
76 115 138
77 114 138
76 113 137
76 113 137
76 114 136
77 115 136
77 115 136
77 115 134
76 113 132
76 113 132
79 113 132
79 114 134
79 115 132
82 115 132
82 115 132
85 116 133
82 115 132
77 107 124
71 97 112
53 72 83
23 41 52
4 17 26
0 12 19
0 12 19
2 10 15
1 1 8
0 2 4
0 4 5
0 6 5
0 6 5
1 4 5
1 1 2
1 2 0
1 3 2
1 3 2
0 2 1
0 2 1
0 2 3
0 2 3
0 2 3
0 2 3
1 4 5
1 4 5
1 4 5
1 4 5
0 2 3
0 2 3
0 2 3
0 2 3
0 2 2
0 2 1
0 2 1
0 2 1
0 2 1
0 1 0
0 1 0
0 1 0
0 1 0
0 0 0
0 0 0
0 0 0
0 0 0
0 0 0
0 0 0
0 1 10
14 29 40
62 77 90
97 124 139
96 123 138
83 113 128
82 113 130
82 115 132
79 115 132
78 116 135
77 116 137
77 116 139
77 116 140
77 116 142
77 116 142
77 116 142
76 115 140
75 117 139
75 118 138
75 118 137
75 118 137
77 117 137
77 117 137
77 117 137
77 117 139
77 116 139
77 116 139
77 116 139
77 116 139
77 116 139
77 116 139
77 116 139
77 116 139
77 116 139
77 116 139
77 116 139
77 116 139
77 116 139
77 116 139
77 116 139
77 116 139
77 116 140
77 116 142
77 116 142
77 116 142
77 116 140
78 115 139
80 115 140
80 115 140
80 115 137
82 113 136
82 113 136
83 113 135
83 113 135
82 115 136
82 115 136
82 115 136
82 115 136
79 115 135
79 115 135
77 116 134
77 117 135
75 118 134
73 118 135
75 118 134
75 118 134
82 120 140
83 118 136
79 113 127
77 107 124
83 113 128
95 118 134
97 121 136
81 101 115
53 72 83
14 29 40
0 12 19
0 4 16
2 10 15
2 10 15
6 12 17
2 10 15
2 6 12
3 4 6
0 1 4
0 0 2
0 0 2
0 0 1
0 0 0
0 0 0
0 0 0
1 1 0
3 1 0
4 2 0
4 0 0
3 0 0
2 0 0
2 0 0
3 0 0
3 0 0
2 0 0
1 0 0
0 0 0
0 0 0
0 0 0
0 0 0
0 0 0
0 0 0
0 0 0
0 0 0
0 0 0
0 0 0
0 0 0
0 0 0
0 0 0
0 0 0
0 0 0
0 0 0
0 0 0
0 0 0
0 0 0
0 0 0
0 0 0
0 0 0
0 0 0
1 1 1
1 1 1
1 1 1
1 1 1
1 2 0
1 2 0
1 2 0
1 2 0
4 2 0
7 1 0
5 4 5
5 4 5
5 4 5
2 1 1
3 4 2
6 1 4
6 1 4
6 1 4
6 1 4
6 1 4
5 6 9
5 6 9
3 1 6
0 0 9
6 8 13
12 20 29
47 64 75
79 97 109
90 113 128
90 113 128
84 109 126
81 110 128
81 110 128
76 113 132
79 113 135
78 115 139
78 115 142
74 114 140
74 114 140
75 116 141
78 117 140
79 115 135
89 120 137
96 123 138
81 101 115
39 51 61
0 1 10
0 0 0
0 0 4
3 4 6
1 1 1
1 2 0
1 2 0
1 2 0
1 1 1
1 1 2
1 1 3
1 1 3
0 2 3
0 2 3
0 2 3
0 2 3
0 2 3
0 2 3
0 2 3
0 2 3
0 2 3
0 2 3
0 2 3
0 2 3
0 2 3
0 2 3
0 2 3
0 2 3
0 1 1
0 0 0
0 0 0
0 0 0
0 0 0
0 0 0
0 0 0
0 0 0
0 0 0
0 0 0
0 0 0
0 0 0
0 0 0
0 0 0
0 0 0
0 0 0
0 0 0
0 0 0
0 0 0
0 0 0
0 0 0
0 0 0
0 0 0
0 0 0
0 0 0
0 0 0
0 0 0
0 0 0
0 0 0
0 0 0
0 0 0
0 0 0
0 0 0
0 0 0
1 1 1
1 1 1
1 1 1
1 1 1
1 1 1
1 1 1
0 0 0
0 0 0
0 0 0
0 0 0
0 0 0
0 0 0
0 0 0
0 0 0
0 0 0
0 0 0
0 0 0
0 0 0
0 0 0
0 0 0
0 0 0
0 0 0
0 0 0
0 0 0
0 0 0
0 0 0
0 0 0
0 0 0
0 0 0
0 0 0
0 0 0
0 0 0
0 0 0
0 0 0
0 0 0
0 0 0
0 0 0
0 0 0
0 0 0
0 0 0
0 0 0
0 0 0
0 0 0
0 0 0
0 0 0
0 0 0
0 0 0
0 0 0
0 0 0
0 0 0
0 0 0
0 0 0
0 0 0
0 0 0
0 0 0
0 0 0
0 0 0
0 0 0
0 0 0
0 0 0
0 0 0
0 0 0
0 0 0
0 0 0
0 0 0
0 0 0
0 0 0
0 0 0
0 0 0
0 0 0
0 0 0
0 0 0
0 0 0
0 0 0
0 0 0
0 0 0
0 0 0
0 0 0
0 0 0
0 0 0
0 0 0
0 0 0
0 0 0
0 0 0
0 0 0
0 0 0
0 0 0
0 0 0
0 0 0
0 0 0
0 0 0
0 0 0
0 0 0
0 0 0
0 0 0
2 0 1
3 0 1
3 0 1
3 0 1
3 0 2
3 0 3
4 1 5
3 1 6
2 1 7
0 4 9
0 0 6
0 1 10
4 17 26
31 43 53
55 79 91
81 106 120
95 118 134
85 116 133
79 113 127
79 115 132
78 117 135
76 115 135
73 115 135
73 115 135
74 116 136
74 116 136
76 114 136
76 114 136
76 114 136
74 115 139
74 116 138
74 116 138
74 116 138
74 116 138
74 116 138
74 116 138
74 116 138
75 116 137
74 116 136
74 116 136
74 116 136
74 116 136
74 116 136
74 116 136
74 116 136
74 116 136
76 116 136
76 116 136
76 116 136
76 116 136
76 116 136
76 116 136
76 116 136
76 116 136
77 117 137
77 117 137
77 117 137
77 117 137
77 117 137
77 117 137
77 117 137
77 117 137
77 116 137
77 115 136
77 115 136
77 115 136
77 115 136
77 115 136
77 115 136
77 115 136
77 115 136
77 115 136
77 115 136
77 115 136
77 115 136
77 116 137
77 116 137
77 117 137
77 117 137
75 116 137
74 116 136
72 117 138
72 117 138
71 117 138
71 117 138
71 117 138
72 117 138
74 116 138
76 115 138
76 114 136
75 113 134
75 113 134
75 113 134
79 114 136
79 115 135
78 115 132
77 111 130
77 111 130
77 111 130
79 113 127
79 113 127
85 116 133
89 120 137
85 116 133
71 97 112
55 79 91
39 51 61
23 41 52
4 17 26
0 12 19
0 8 14
0 8 14
1 6 12
0 3 5
0 3 5
0 6 5
0 6 5
1 4 5
1 1 2
0 0 0
0 0 0
0 2 0
0 2 0
0 2 1
0 2 2
0 2 3
0 2 3
0 2 3
0 2 3
1 4 5
1 4 5
1 4 5
1 4 5
0 2 3
0 2 3
0 2 3
0 2 3
0 2 2
0 2 1
0 2 1
0 2 1
0 2 1
0 1 0
0 1 0
0 1 0
0 1 0
0 0 0
0 0 0
0 0 0
0 0 0
0 0 0
0 0 0
0 1 10
14 29 40
62 77 90
97 124 139
96 123 138
83 113 128
82 113 130
82 115 132
79 115 132
78 116 135
77 116 137
77 116 139
77 116 140
77 116 142
77 116 142
77 116 142
76 115 140
75 117 139
75 118 138
75 118 137
75 118 137
77 117 137
77 117 137
77 117 137
77 117 139
77 116 139
77 116 139
77 116 139
77 116 139
77 116 139
77 116 139
77 116 139
77 116 139
77 116 139
77 116 139
77 116 139
77 116 139
77 116 139
77 116 139
77 116 139
77 116 139
77 116 140
77 116 142
77 116 142
77 116 142
77 116 140
77 115 139
78 115 139
78 115 139
80 115 137
82 113 136
80 115 137
82 113 136
82 113 136
82 115 136
82 115 136
82 115 136
82 115 136
78 116 135
78 116 135
77 116 134
77 117 135
75 118 134
73 118 135
73 118 135
75 118 134
82 120 140
86 122 140
83 118 136
77 107 124
77 107 124
81 110 128
97 121 136
97 121 136
79 97 109
47 64 75
14 29 40
0 12 19
0 8 14
0 4 16
2 10 15
6 8 13
2 6 12
1 4 10
0 1 5
0 0 2
0 0 2
0 0 1
0 0 0
0 0 0
0 0 0
1 1 0
3 1 0
4 2 0
4 0 0
4 0 0
4 0 0
4 0 0
3 0 0
3 0 0
2 0 0
1 0 0
0 0 0
0 0 0
0 0 0
0 0 0
0 0 0
0 0 0
0 0 0
0 0 0
0 0 0
0 0 0
0 0 0
0 0 0
0 0 0
0 0 0
0 0 0
0 0 0
0 0 0
0 0 0
0 0 0
0 0 0
0 0 0
0 0 0
0 0 0
1 1 1
1 1 1
1 1 1
1 1 1
1 2 0
1 2 0
1 2 0
1 1 0
1 1 0
4 2 0
5 6 9
5 6 9
2 1 1
0 0 0
3 2 1
5 4 5
6 1 4
6 1 4
4 1 2
6 1 4
6 1 4
5 6 9
5 6 9
2 4 11
0 0 5
0 4 12
14 29 40
53 72 83
79 97 109
88 109 125
90 113 128
84 109 126
81 110 128
83 113 135
82 115 136
79 114 138
74 114 140
74 114 140
74 114 140
74 114 140
76 114 136
78 115 132
89 120 137
96 123 138
81 101 115
39 51 61
0 1 10
0 0 0
0 0 4
3 4 6
1 1 1
1 2 0
1 2 0
1 2 0
1 1 1
1 1 2
1 1 3
1 1 3
0 2 3
0 2 3
0 2 3
0 2 3
0 2 3
0 2 3
0 2 3
0 2 3
0 2 3
0 2 3
0 2 3
0 2 3
0 2 3
0 2 3
0 2 3
0 2 3
0 1 1
0 0 0
0 0 0
0 0 0
0 0 0
0 0 0
0 0 0
0 0 0
0 0 0
0 0 0
0 0 0
0 0 0
0 0 0
0 0 0
0 0 0
0 0 0
0 0 0
0 0 0
0 0 0
0 0 0
0 0 0
0 0 0
0 0 0
0 0 0
0 0 0
0 0 0
0 0 0
0 0 0
0 0 0
0 0 0
0 0 0
0 0 0
0 0 0
0 0 0
1 1 1
1 1 1
1 1 1
1 1 1
1 1 1
1 1 1
0 0 0
0 0 0
0 0 0
0 0 0
0 0 0
0 0 0
0 0 0
0 0 0
0 0 0
0 0 0
0 0 0
0 0 0
0 0 0
0 0 0
0 0 0
0 0 0
0 0 0
0 0 0
0 0 0
0 0 0
0 0 0
0 0 0
0 0 0
0 0 0
0 0 0
0 0 0
0 0 0
0 0 0
0 0 0
0 0 0
0 0 0
0 0 0
0 0 0
0 0 0
0 0 0
0 0 0
0 0 0
0 0 0
0 0 0
0 0 0
0 0 0
0 0 0
0 0 0
0 0 0
0 0 0
0 0 0
0 0 0
0 0 0
0 0 0
0 0 0
0 0 0
0 0 0
0 0 0
0 0 0
0 0 0
0 0 0
0 0 0
0 0 0
0 0 0
0 0 0
0 0 0
0 0 0
0 0 0
0 0 0
0 0 0
0 0 0
0 0 0
0 0 0
0 0 0
0 0 0
0 0 0
0 0 0
0 0 0
0 0 0
0 0 0
0 0 0
0 0 0
0 0 0
0 0 0
0 0 0
0 0 0
0 0 0
0 0 0
0 0 0
0 0 0
0 0 0
0 0 0
0 0 0
0 0 0
2 0 1
3 0 1
3 0 1
3 0 1
3 0 2
3 0 3
4 1 5
3 1 6
2 1 7
0 4 9
0 0 6
0 1 10
4 17 26
31 43 53
55 79 91
81 106 120
95 118 134
85 116 133
79 113 127
77 115 131
77 117 133
76 115 135
73 115 135
73 115 135
74 116 136
74 116 136
76 114 136
76 114 136
76 114 136
74 115 139
74 116 138
74 116 138
74 116 138
74 116 138
74 116 138
74 116 138
74 116 138
75 116 137
74 116 136
74 116 136
74 116 136
74 116 136
74 116 136
74 116 136
74 116 136
74 116 136
76 116 136
76 116 136
76 116 136
76 116 136
76 116 136
76 116 136
76 116 136
76 116 136
77 117 137
77 117 137
77 117 137
77 117 137
77 117 137
77 117 137
77 117 137
77 117 137
77 116 137
77 115 136
77 115 136
77 115 136
77 115 136
77 115 136
77 115 136
78 115 137
78 115 137
77 115 136
77 115 136
77 115 136
77 115 136
76 114 136
76 114 136
75 113 134
75 113 134
73 115 135
74 116 136
72 117 138
72 117 138
71 117 138
71 117 138
71 117 138
72 117 138
75 116 137
75 116 137
78 116 138
78 116 138
80 117 140
82 116 140
79 114 136
79 113 132
79 114 134
83 118 136
89 118 136
85 116 133
82 113 130
79 113 127
83 113 128
83 113 128
71 97 112
53 72 83
31 43 53
14 29 40
4 17 26
0 12 19
2 10 15
0 8 14
1 6 12
0 4 9
0 3 5
0 4 5
1 4 5
1 4 5
1 1 2
1 0 0
0 0 0
0 0 0
0 1 0
0 1 0
0 2 1
0 2 2
0 2 3
0 2 3
0 2 3
0 2 3
1 4 5
1 4 5
1 4 5
1 4 5
0 2 3
0 2 3
0 2 3
0 2 3
0 2 2
0 2 1
0 2 1
0 2 1
0 2 1
0 1 0
0 1 0
0 1 0
0 1 0
0 0 0
0 0 0
0 0 0
0 0 0
0 0 0
0 0 0
0 1 10
14 29 40
62 77 90
97 124 139
96 123 138
83 113 128
82 113 130
82 115 132
79 115 135
78 116 135
77 116 138
77 116 139
77 116 140
77 116 142
77 116 142
77 116 142
76 115 140
75 117 139
75 117 139
76 117 138
76 117 138
76 117 138
76 117 138
76 117 138
75 117 139
75 117 139
75 117 139
75 117 139
75 117 139
75 117 139
75 117 139
75 117 139
75 117 139
75 116 141
75 116 141
75 116 141
75 116 141
75 116 141
75 116 141
75 116 141
75 116 141
75 116 141
75 116 141
76 115 140
76 115 140
76 115 140
76 115 138
77 116 138
79 114 138
79 114 138
79 114 136
79 114 136
79 114 136
79 114 136
79 114 134
79 114 134
79 115 135
77 115 134
77 116 134
77 116 134
77 117 135
75 118 134
74 117 135
74 117 135
73 117 136
74 117 135
74 117 135
78 117 135
83 118 136
83 118 136
77 111 130
77 107 124
85 113 132
95 118 134
90 113 128
68 87 100
39 51 61
12 20 29
0 4 16
0 1 13
0 4 16
2 4 11
1 4 10
1 4 10
0 3 5
0 1 4
0 1 1
0 0 2
0 0 1
1 0 1
2 0 0
2 0 0
4 0 0
4 0 0
4 0 0
7 1 0
7 1 0
7 1 0
4 0 0
4 0 0
2 0 0
1 0 0
0 0 0
0 0 0
0 0 0
0 0 0
0 0 0
0 0 0
0 0 0
0 0 0
0 0 0
0 0 0
0 0 0
0 0 0
0 0 0
0 0 0
0 0 0
0 0 0
0 0 0
0 0 0
0 0 0
0 0 0
0 0 0
0 0 0
0 0 0
0 0 0
0 0 0
0 0 0
0 0 0
1 1 1
1 1 1
1 2 0
1 2 0
1 1 0
2 1 0
3 4 2
3 4 2
2 1 0
2 1 0
3 2 1
3 4 2
6 1 4
4 1 2
3 0 2
3 0 3
6 1 4
4 1 5
4 1 5
0 0 7
0 0 7
0 4 12
0 12 19
24 35 46
47 64 75
81 101 115
90 113 128
90 113 128
85 113 132
87 124 142
86 121 140
76 112 136
71 110 131
72 113 134
74 114 140
71 110 131
71 110 131
77 111 130
85 116 133
97 124 139
81 101 115
39 51 61
0 1 10
0 0 0
0 0 4
1 4 5
1 1 1
1 1 0
2 1 0
2 1 0
1 1 1
1 1 1
1 1 2
1 1 2
0 2 2
0 2 2
0 2 2
0 2 2
0 2 2
0 2 2
0 2 2
0 2 2
0 2 2
0 2 2
0 2 2
0 2 2
0 2 2
0 2 2
0 2 2
0 2 2
0 1 0
0 0 0
0 0 0
0 0 0
0 0 0
0 0 0
0 0 0
0 0 0
0 0 0
0 0 0
0 0 0
0 0 0
0 0 0
0 0 0
0 0 0
0 0 0
0 0 0
0 0 0
0 0 0
0 0 0
0 0 0
0 0 0
0 0 0
0 0 0
0 0 0
0 0 0
0 0 0
0 0 0
0 0 0
0 0 0
0 0 0
0 0 0
0 0 0
0 0 0
0 0 0
0 0 0
0 0 0
0 0 0
0 0 0
0 0 0
0 0 0
0 0 0
0 0 0
0 0 0
0 0 0
0 0 0
0 0 0
0 0 0
0 0 0
0 0 0
0 0 0
0 0 0
0 0 0
0 0 0
0 0 0
0 0 0
0 0 0
0 0 0
0 0 0
0 0 0
0 0 0
0 0 0
0 0 0
0 0 0
0 0 0
0 0 0
0 0 0
0 0 0
0 0 0
0 0 0
0 0 0
0 0 0
0 0 0
0 0 0
0 0 0
0 0 0
0 0 0
0 0 0
0 0 0
0 0 0
0 0 0
0 0 0
0 0 0
0 0 0
0 0 0
0 0 0
0 0 0
0 0 0
0 0 0
0 0 0
0 0 0
0 0 0
0 0 0
0 0 0
0 0 0
0 0 0
0 0 0
0 0 0
0 0 0
0 0 0
0 0 0
0 0 0
0 0 0
0 0 0
0 0 0
0 0 0
0 0 0
0 0 0
0 0 0
0 0 0
0 0 0
0 0 0
0 0 0
0 0 0
0 0 0
0 0 0
0 0 0
0 0 0
0 0 0
0 0 0
0 0 0
0 0 0
0 0 0
0 0 0
0 0 0
0 0 0
0 0 0
0 0 0
0 0 0
1 0 0
1 0 0
2 0 0
2 0 0
3 0 1
3 0 3
4 1 5
3 1 6
2 1 7
0 4 9
0 0 5
0 2 9
4 17 26
31 43 53
55 79 91
84 109 126
93 121 136
85 116 133
79 113 127
77 115 131
77 117 133
75 116 134
73 115 135
73 115 135
74 116 136
74 115 139
74 115 139
74 115 139
74 115 139
75 116 138
75 116 138
75 116 138
75 116 138
75 116 138
75 116 138
75 116 138
75 116 138
75 116 138
75 116 137
75 116 137
75 116 137
75 116 137
75 116 137
75 116 137
75 116 137
75 116 137
76 116 136
76 116 136
76 116 136
76 116 136
76 116 136
76 116 136
76 116 136
76 116 136
77 116 137
78 116 137
78 116 137
78 116 137
78 116 137
78 116 137
78 116 137
78 116 137
78 116 138
78 115 137
78 115 137
78 115 137
78 115 137
79 114 138
79 114 138
79 114 138
79 114 138
80 115 137
80 115 137
79 114 136
79 114 134
75 113 134
77 111 130
71 110 131
71 110 131
72 113 134
74 116 136
74 118 139
74 118 139
72 117 138
74 118 139
72 118 141
74 118 139
73 115 135
74 116 136
82 120 140
87 124 142
87 124 142
87 124 142
82 113 136
77 107 124
82 113 130
99 127 141
99 127 141
93 121 136
83 113 128
81 106 120
71 97 112
62 77 90
47 64 75
23 29 39
6 12 17
1 4 10
0 4 9
0 4 9
0 4 9
1 1 8
0 2 4
0 1 4
0 1 3
0 2 2
0 3 2
0 3 2
0 1 1
0 0 0
0 0 0
0 0 0
0 0 0
0 0 0
1 1 1
1 1 1
0 2 2
0 2 2
0 2 2
0 2 2
0 2 2
0 2 2
0 2 2
0 2 2
0 2 2
0 2 2
0 2 2
0 2 2
0 1 1
0 1 0
0 1 0
0 1 0
0 1 0
0 0 0
0 0 0
0 0 0
0 0 0
0 0 0
0 0 0
0 0 0
0 0 0
0 0 0
0 0 0
0 1 10
14 29 40
62 77 90
97 124 139
96 123 138
83 113 128
82 113 130
82 115 132
79 115 135
78 116 137
77 116 138
77 116 139
77 116 140
77 116 142
77 116 142
77 116 142
76 115 140
75 117 139
75 117 139
75 117 139
75 117 139
75 117 139
75 117 139
75 117 139
75 117 139
75 117 139
75 117 139
75 117 139
75 117 139
75 117 139
75 117 139
75 117 139
75 117 139
75 116 141
75 116 141
75 116 141
75 116 141
75 116 141
75 116 141
75 116 141
75 116 141
75 116 141
75 116 141
75 116 141
76 115 140
76 115 140
76 115 138
76 115 138
77 114 138
78 115 137
79 114 136
79 114 136
79 114 136
79 114 136
79 114 134
79 114 134
77 115 134
77 115 134
75 116 134
75 116 134
75 118 134
74 117 135
74 117 135
74 116 136
75 116 137
74 116 136
73 115 135
72 113 134
78 118 139
86 121 140
82 117 137
77 111 130
81 110 128
85 113 132
90 116 132
81 106 120
62 77 90
31 43 53
12 20 29
0 4 16
0 1 13
0 1 10
0 1 10
0 4 12
0 4 9
0 3 5
0 1 3
0 0 2
0 0 2
1 0 1
2 0 0
3 0 0
4 0 0
4 0 0
7 1 0
7 1 0
7 1 0
7 1 0
7 1 0
4 0 0
2 0 0
1 0 0
0 0 0
0 0 0
0 0 0
0 0 0
0 0 0
0 0 0
0 0 0
0 0 0
0 0 0
0 0 0
0 0 0
0 0 0
0 0 0
0 0 0
0 0 0
0 0 0
0 0 0
0 0 0
0 0 0
0 0 0
0 0 0
0 0 0
0 0 0
0 0 0
0 0 0
0 0 0
0 0 0
1 1 1
1 1 1
1 2 0
1 2 0
1 2 0
1 2 0
0 1 0
0 1 0
3 2 0
4 2 0
4 2 0
4 2 0
3 4 2
4 1 2
3 0 3
2 1 3
2 0 1
1 0 1
0 0 2
0 0 6
1 4 10
2 6 12
0 6 13
0 12 19
23 41 52
53 72 83
81 101 115
90 113 128
95 118 134
89 118 136
83 113 135
79 113 135
75 113 134
76 113 137
76 113 137
71 110 131
71 110 131
77 111 130
85 116 133
97 124 139
81 101 115
39 51 61
0 1 10
0 0 0
0 0 4
1 4 5
1 1 1
2 1 0
3 1 0
2 1 0
1 1 1
1 1 1
1 1 1
1 1 1
0 2 1
0 2 1
0 2 1
0 2 1
0 2 1
0 2 1
0 2 1
0 2 1
0 2 1
0 2 1
0 2 1
0 2 1
0 2 1
0 2 1
0 2 1
0 2 1
0 1 0
0 0 0
0 0 0
0 0 0
0 0 0
0 0 0
0 0 0
0 0 0
0 0 0
0 0 0
0 0 0
0 0 0
0 0 0
0 0 0
0 0 0
0 0 0
0 0 0
0 0 0
0 0 0
0 0 0
0 0 0
0 0 0
0 0 0
0 0 0
0 0 0
0 0 0
0 0 0
0 0 0
0 0 0
0 0 0
0 0 0
0 0 0
0 0 0
0 0 0
0 0 0
0 0 0
0 0 0
0 0 0
0 0 0
0 0 0
0 0 0
0 0 0
0 0 0
0 0 0
0 0 0
0 0 0
0 0 0
0 0 0
0 0 0
0 0 0
0 0 0
0 0 0
0 0 0
0 0 0
0 0 0
0 0 0
0 0 0
0 0 0
0 0 0
0 0 0
0 0 0
0 0 0
0 0 0
0 0 0
0 0 0
0 0 0
0 0 0
0 0 0
0 0 0
0 0 0
0 0 0
0 0 0
0 0 0
0 0 0
0 0 0
0 0 0
0 0 0
0 0 0
0 0 0
0 0 0
0 0 0
0 0 0
0 0 0
0 0 0
0 0 0
0 0 0
0 0 0
0 0 0
0 0 0
0 0 0
0 0 0
0 0 0
0 0 0
0 0 0
0 0 0
0 0 0
0 0 0
0 0 0
0 0 0
0 0 0
0 0 0
0 0 0
0 0 0
0 0 0
0 0 0
0 0 0
0 0 0
0 0 0
0 0 0
0 0 0
0 0 0
0 0 0
0 0 0
0 0 0
0 0 0
0 0 0
0 0 0
0 0 0
0 0 0
0 0 0
0 0 0
0 0 0
0 0 0
0 0 0
0 0 0
0 0 0
0 0 0
0 0 0
0 0 0
0 0 0
0 0 0
1 0 0
2 0 0
3 0 1
3 0 3
4 1 5
3 1 6
2 1 7
0 4 9
0 0 5
0 2 9
4 17 26
31 43 53
55 79 91
84 109 126
93 121 136
85 116 133
79 113 127
77 115 131
75 117 131
75 116 134
73 115 135
73 115 135
74 116 136
74 115 139
74 114 140
74 114 140
74 114 140
75 116 138
76 115 138
76 115 138
76 115 138
76 115 138
76 115 138
76 115 138
76 115 138
76 115 138
76 115 138
76 115 138
76 115 138
76 115 138
76 115 138
76 115 138
76 115 138
76 115 138
76 116 136
76 116 136
76 116 136
76 116 136
76 116 136
76 116 136
76 116 136
76 116 136
77 116 137
78 116 137
78 116 137
78 116 137
78 116 137
78 116 137
78 116 137
78 116 137
78 116 138
78 115 139
78 115 139
78 115 139
78 115 139
80 115 140
80 115 140
80 115 140
80 115 140
80 115 137
80 115 137
80 115 137
80 115 137
80 115 137
80 115 137
78 115 137
76 114 136
75 116 136
74 116 136
74 118 139
74 118 139
74 118 139
74 118 139
74 118 139
74 118 139
75 118 137
76 117 136
82 120 140
87 124 142
87 124 142
87 124 142
83 113 135
77 107 124
85 113 132
99 127 141
99 127 141
93 116 131
81 101 115
68 87 100
53 72 83
31 51 61
14 29 40
2 6 12
0 0 2
0 0 0
0 2 4
2 1 3
0 0 3
0 0 2
0 0 1
0 0 1
0 0 2
0 1 1
0 0 0
0 0 0
0 0 0
0 0 0
0 0 0
0 0 0
0 0 0
0 0 0
1 1 1
1 1 1
0 2 1
0 2 1
0 2 1
0 2 1
0 2 1
0 2 1
0 2 1
0 2 1
0 2 1
0 2 1
0 2 1
0 2 1
0 1 0
0 0 0
0 0 0
0 0 0
0 0 0
0 0 0
0 0 0
0 0 0
0 0 0
0 0 0
0 0 0
0 0 0
0 0 0
0 0 0
0 0 0
0 1 10
14 29 40
62 77 90
97 124 139
96 123 138
83 113 128
82 113 130
82 115 132
79 115 135
78 116 137
77 116 138
77 116 139
77 116 140
77 116 142
77 116 142
77 116 142
76 115 140
75 117 139
75 117 139
75 117 139
75 117 139
75 117 139
75 117 139
75 117 139
75 117 139
75 117 139
75 117 139
75 117 139
75 117 139
75 117 139
75 117 139
75 117 139
75 117 139
75 116 141
75 116 141
75 116 141
75 116 141
75 116 141
75 116 141
75 116 141
75 116 141
75 116 141
75 116 141
75 116 141
75 116 141
75 116 139
76 115 138
76 115 138
76 115 138
77 115 137
77 115 136
77 115 136
77 115 136
77 115 136
77 115 134
77 115 134
75 116 134
75 116 134
75 118 134
74 117 135
74 117 135
74 117 135
74 117 135
74 116 136
74 116 136
74 116 136
76 117 136
76 117 136
77 116 137
80 115 137
80 115 137
82 115 136
83 113 135
85 113 132
85 113 132
88 109 125
79 97 109
62 77 90
39 51 61
12 20 29
0 4 16
0 0 12
0 1 13
0 4 16
0 6 13
0 4 9
0 2 4
0 1 4
0 0 4
0 0 1
1 0 0
3 0 0
4 0 0
4 0 0
7 1 0
7 1 0
7 1 0
7 1 0
7 1 0
7 1 0
3 0 0
1 0 0
0 0 0
0 0 0
0 0 0
0 0 0
0 0 0
0 0 0
0 0 0
0 0 0
0 0 0
0 0 0
0 0 0
0 0 0
0 0 0
0 0 0
0 0 0
0 0 0
0 0 0
0 0 0
0 0 0
0 0 0
0 0 0
0 0 0
0 0 0
0 0 0
0 0 0
0 0 0
0 0 0
1 1 1
1 1 1
1 1 1
1 1 1
1 2 0
1 2 0
0 1 0
1 1 0
3 2 0
4 2 0
4 2 0
4 2 0
4 1 2
4 1 2
2 1 2
1 0 1
0 0 0
0 0 1
0 1 3
0 1 5
1 1 5
1 1 5
0 4 9
0 8 14
4 17 26
24 35 46
53 72 83
88 109 125
95 118 134
81 106 120
71 97 112
83 113 135
86 121 140
82 118 141
79 114 138
82 116 140
82 120 140
82 115 132
85 116 133
96 123 138
81 101 115
39 51 61
0 1 10
0 0 0
0 0 4
3 1 6
2 0 1
3 1 0
3 1 0
2 1 0
1 1 1
1 1 1
1 1 1
1 1 1
0 2 1
0 2 1
0 2 1
0 2 1
0 2 1
0 2 1
0 2 1
0 2 1
0 2 1
0 2 1
0 2 1
0 2 1
0 2 1
0 2 1
0 2 1
0 2 1
0 1 0
0 0 0
0 0 0
0 0 0
0 0 0
0 0 0
0 0 0
0 0 0
0 0 0
0 0 0
0 0 0
0 0 0
0 0 0
0 0 0
0 0 0
0 0 0
0 0 0
0 0 0
0 0 0
0 0 0
0 0 0
0 0 0
0 0 0
0 0 0
0 0 0
0 0 0
0 0 0
0 0 0
0 0 0
0 0 0
0 0 0
0 0 0
0 0 0
0 0 0
0 0 0
0 0 0
0 0 0
0 0 0
0 0 0
0 0 0
0 0 0
0 0 0
0 0 0
0 0 0
0 0 0
0 0 0
0 0 0
0 0 0
0 0 0
0 0 0
0 0 0
0 0 0
0 0 0
0 0 0
0 0 0
0 0 0
0 0 0
0 0 0
0 0 0
0 0 0
0 0 0
0 0 0
0 0 0
0 0 0
0 0 0
0 0 0
0 0 0
0 0 0
0 0 0
0 0 0
0 0 0
0 0 0
0 0 0
0 0 0
0 0 0
0 0 0
0 0 0
0 0 0
0 0 0
0 0 0
0 0 0
0 0 0
0 0 0
0 0 0
0 0 0
0 0 0
0 0 0
0 0 0
0 0 0
0 0 0
0 0 0
0 0 0
0 0 0
0 0 0
0 0 0
0 0 0
0 0 0
0 0 0
0 0 0
0 0 0
0 0 0
0 0 0
0 0 0
0 0 0
0 0 0
0 0 0
0 0 0
0 0 0
0 0 0
0 0 0
0 0 0
0 0 0
0 0 0
0 0 0
0 0 0
0 0 0
0 0 0
0 0 0
0 0 0
0 0 0
0 0 0
0 0 0
0 0 0
0 0 0
0 0 0
0 0 0
0 0 0
0 0 0
0 0 0
0 0 0
0 0 0
1 0 0
2 0 0
3 0 1
3 0 3
4 1 5
3 1 6
2 1 7
0 4 9
0 0 5
0 2 9
4 17 26
31 43 53
55 79 91
84 109 126
93 121 136
85 116 133
77 107 124
79 113 127
77 115 131
75 113 134
73 115 135
74 116 136
74 116 136
74 115 139
74 114 140
74 114 140
74 114 140
75 116 138
76 115 138
76 115 138
76 115 138
76 115 138
76 115 138
76 115 138
76 115 138
76 115 138
76 115 138
76 115 138
76 115 138
76 115 138
76 115 138
76 115 138
76 115 138
76 115 138
76 116 136
76 116 136
76 116 136
76 116 136
76 116 136
76 116 136
76 116 136
76 116 136
77 116 137
78 116 137
78 116 137
78 116 137
78 116 137
78 116 137
78 116 137
78 116 137
78 116 138
78 115 139
78 115 139
78 115 139
78 115 139
80 115 140
80 115 140
79 114 138
79 114 138
80 115 137
82 113 136
82 116 140
82 118 141
86 121 140
87 124 142
87 124 142
87 124 142
82 120 140
75 116 136
75 116 137
74 118 139
74 118 139
74 118 139
74 118 139
74 118 139
78 118 139
82 120 140
82 120 140
82 116 140
82 115 136
83 113 135
81 110 128
77 107 124
90 116 132
97 124 139
95 118 134
81 101 115
55 79 91
47 64 75
23 41 52
12 20 29
2 6 12
0 0 3
0 0 0
0 0 0
0 0 0
1 0 1
0 0 0
0 0 0
0 0 0
0 0 0
0 0 0
0 0 0
0 0 0
0 0 0
0 0 0
0 0 0
0 0 0
0 0 0
0 0 0
0 0 0
1 1 1
1 1 1
0 2 1
0 2 1
0 2 1
0 2 1
0 2 1
0 2 1
0 2 1
0 2 1
0 2 1
0 2 1
0 2 1
0 2 1
0 1 0
0 0 0
0 0 0
0 0 0
0 0 0
0 0 0
0 0 0
0 0 0
0 0 0
0 0 0
0 0 0
0 0 0
0 0 0
0 0 0
0 0 0
0 1 10
14 29 40
62 77 90
97 124 139
96 123 138
83 113 128
82 113 130
82 115 132
79 115 135
78 116 137
77 116 138
77 116 139
77 116 140
77 116 142
77 116 142
77 116 142
76 115 140
75 117 139
75 117 139
75 117 139
75 117 139
75 117 139
75 117 139
75 117 139
75 117 139
75 117 139
75 117 139
75 117 139
75 117 139
75 117 139
75 117 139
75 117 139
75 117 139
75 116 141
75 116 141
75 116 141
75 116 141
75 116 141
75 116 141
75 116 141
75 116 141
75 116 141
75 116 141
75 116 141
75 116 141
75 116 139
76 115 138
76 115 138
76 115 138
77 115 137
76 116 136
76 116 136
77 115 136
77 115 136
77 115 134
77 115 134
75 116 134
75 116 134
75 118 134
74 117 135
74 117 135
74 117 135
74 117 135
74 116 136
73 115 135
74 116 136
78 118 139
82 118 141
75 113 134
71 110 131
76 114 136
86 121 140
86 121 140
85 113 132
84 109 126
88 109 125
90 113 128
81 101 115
62 77 90
31 43 53
12 20 29
0 1 13
0 0 12
0 1 13
0 6 13
0 6 13
0 4 9
0 1 6
0 0 4
0 0 1
0 0 0
2 0 0
4 0 0
4 0 0
7 1 0
7 1 0
7 1 0
7 1 0
7 1 0
7 1 0
3 0 0
1 0 0
0 0 0
0 0 0
0 0 0
0 0 0
0 0 0
0 0 0
0 0 0
0 0 0
0 0 0
0 0 0
0 0 0
0 0 0
0 0 0
0 0 0
0 0 0
0 0 0
0 0 0
0 0 0
0 0 0
0 0 0
0 0 0
0 0 0
0 0 0
0 0 0
0 0 0
0 0 0
0 0 0
1 1 1
1 1 1
1 1 1
1 1 1
1 2 0
1 2 0
1 2 0
2 1 0
3 2 0
4 2 0
3 1 0
3 1 0
4 1 2
4 1 2
2 1 1
0 0 0
0 0 0
0 0 2
0 1 4
0 1 4
0 0 2
0 0 1
3 4 6
2 10 15
0 4 12
0 6 13
23 41 52
79 97 109
90 113 128
81 101 115
71 97 112
85 116 133
97 124 139
86 121 140
82 116 140
86 121 140
87 124 142
85 116 133
85 116 133
93 121 136
81 101 115
39 51 61
0 1 10
0 0 0
0 0 4
4 1 5
3 0 1
4 2 0
3 1 0
2 1 0
1 1 1
1 1 1
1 1 1
1 1 1
0 2 1
0 2 1
0 2 1
0 2 1
0 2 1
0 2 1
0 2 1
0 2 1
0 2 1
0 2 1
0 2 1
0 2 1
0 2 1
0 2 1
0 2 1
0 2 1
0 1 0
0 0 0
0 0 0
0 0 0
0 0 0
0 0 0
0 0 0
0 0 0
0 0 0
0 0 0
0 0 0
0 0 0
0 0 0
0 0 0
0 0 0
0 0 0
0 0 0
0 0 0
0 0 0
0 0 0
0 0 0
0 0 0
0 0 0
0 0 0
0 0 0
0 0 0
0 0 0
0 0 0
0 0 0
0 0 0
0 0 0
0 0 0
0 0 0
0 0 0
0 0 0
0 0 0
0 0 0
0 0 0
0 0 0
0 0 0
0 0 0
0 0 0
0 0 0
0 0 0
0 0 0
0 0 0
0 0 0
0 0 0
0 0 0
0 0 0
0 0 0
0 0 0
0 0 0
0 0 0
0 0 0
0 0 0
0 0 0
0 0 0
0 0 0
0 0 0
0 0 0
0 0 0
0 0 0
0 0 0
0 0 0
0 0 0
0 0 0
0 0 0
0 0 0
0 0 0
0 0 0
0 0 0
0 0 0
0 0 0
0 0 0
0 0 0
0 0 0
0 0 0
0 0 0
0 0 0
0 0 0
0 0 0
0 0 0
0 0 0
0 0 0
0 0 0
0 0 0
0 0 0
0 0 0
0 0 0
0 0 0
0 0 0
0 0 0
0 0 0
0 0 0
0 0 0
0 0 0
0 0 0
0 0 0
0 0 0
0 0 0
0 0 0
0 0 0
0 0 0
0 0 0
0 0 0
0 0 0
0 0 0
0 0 0
0 0 0
0 0 0
0 0 0
0 0 0
0 0 0
0 0 0
0 0 0
0 0 0
0 0 0
0 0 0
0 0 0
0 0 0
0 0 0
0 0 0
0 0 0
0 0 0
0 0 0
0 0 0
0 0 0
0 0 0
0 0 0
0 0 0
1 0 0
2 0 0
3 0 1
3 0 3
4 1 5
3 1 6
2 1 7
0 4 9
0 0 5
0 2 9
4 17 26
31 43 53
55 79 91
84 109 126
93 121 136
85 116 133
77 107 124
79 113 127
77 115 131
75 113 134
73 115 135
74 116 136
74 116 136
74 115 139
74 114 140
74 114 140
74 114 140
75 116 138
76 115 138
76 115 138
76 115 138
76 115 138
76 115 138
76 115 138
76 115 138
76 115 138
76 115 138
76 115 138
76 115 138
76 115 138
76 115 138
76 115 138
76 115 138
76 115 138
76 116 136
76 116 136
76 116 136
76 116 136
76 116 136
76 116 136
76 116 136
76 116 136
77 116 137
78 116 137
78 116 137
78 116 137
78 116 137
78 116 137
78 116 137
78 116 137
78 116 138
78 115 139
78 115 139
78 115 139
78 115 139
80 115 140
80 115 140
79 114 138
79 114 138
80 115 137
82 113 136
82 116 140
82 116 140
86 121 140
87 124 142
87 124 142
87 124 142
82 120 140
76 116 136
75 116 137
74 118 139
74 118 139
74 118 139
74 118 139
75 118 138
78 118 139
80 115 137
80 115 137
79 114 134
79 113 132
81 110 128
83 113 128
84 109 126
81 106 120
71 97 112
68 87 100
47 64 75
31 51 61
14 29 40
4 17 26
0 4 12
0 0 5
1 1 5
1 1 5
0 1 3
0 0 0
0 0 0
0 0 0
0 0 0
0 0 0
0 0 0
0 0 0
0 0 0
0 0 0
0 0 0
0 0 0
0 0 0
0 0 0
0 0 0
0 0 0
0 0 0
1 1 1
1 1 1
0 2 1
0 2 1
0 2 1
0 2 1
0 2 1
0 2 1
0 2 1
0 2 1
0 2 1
0 2 1
0 2 1
0 2 1
0 1 0
0 0 0
0 0 0
0 0 0
0 0 0
0 0 0
0 0 0
0 0 0
0 0 0
0 0 0
0 0 0
0 0 0
0 0 0
0 0 0
0 0 0
0 1 10
14 29 40
55 79 91
97 124 139
93 121 136
83 113 128
82 113 130
82 115 132
79 115 135
78 116 137
77 116 138
77 116 139
76 115 140
75 117 141
75 117 141
75 117 141
75 117 141
75 117 139
75 117 139
75 117 139
75 117 139
75 117 139
75 117 139
75 117 139
75 117 139
75 117 139
75 117 139
75 117 139
75 117 139
75 117 139
75 117 139
75 117 139
75 117 139
75 116 141
75 116 141
75 116 141
75 116 141
75 116 141
75 116 141
75 116 141
75 116 141
75 116 141
75 116 141
75 116 141
75 116 141
75 116 139
75 116 138
75 116 138
75 116 138
75 116 137
74 116 136
74 116 136
76 116 136
76 116 136
75 116 134
75 116 134
75 118 134
75 118 134
74 117 135
74 117 135
74 117 135
74 117 135
72 117 135
73 117 136
72 117 135
74 116 136
78 118 139
82 120 140
72 113 134
71 110 131
76 114 136
87 124 142
86 121 140
82 113 130
85 113 132
95 118 134
99 127 141
99 127 141
81 101 115
47 64 75
23 29 39
0 4 16
0 0 12
0 1 13
2 10 15
0 8 14
0 4 12
0 2 9
0 0 4
0 0 2
0 0 1
1 0 0
4 2 0
4 2 0
7 1 0
7 1 0
7 1 0
7 1 0
7 1 0
4 2 0
3 0 0
1 0 0
0 0 0
0 0 0
0 0 0
0 0 0
0 0 0
0 0 0
0 0 0
0 0 0
0 0 0
0 0 0
0 0 0
0 0 0
0 0 0
0 0 0
0 0 0
0 0 0
0 0 0
0 0 0
0 0 0
0 0 0
0 0 0
0 0 0
0 0 0
0 0 0
0 0 0
0 0 0
0 0 0
1 1 1
1 1 1
1 1 1
1 1 1
1 1 1
1 1 1
1 1 1
2 1 1
2 1 1
3 2 1
2 1 1
2 1 1
2 1 1
2 1 1
1 0 0
0 0 0
1 1 1
1 1 1
1 1 2
0 0 2
0 1 4
0 3 5
1 4 5
1 4 5
0 0 1
0 0 9
14 29 40
47 64 75
79 97 109
88 109 125
90 116 132
90 116 132
85 113 132
83 113 135
89 118 136
89 118 136
85 116 133
82 113 130
85 116 133
93 121 136
81 101 115
39 51 61
0 4 12
0 0 0
0 0 5
4 1 5
3 0 2
4 0 0
3 0 1
2 0 1
1 1 1
1 1 1
1 1 1
1 1 1
0 2 1
0 2 1
0 2 1
0 2 1
0 2 1
0 2 1
0 2 1
0 2 1
0 2 1
0 2 1
0 2 1
0 2 1
0 2 1
0 2 1
0 2 1
0 2 1
0 1 0
0 0 0
0 0 0
0 0 0
0 0 0
0 0 0
0 0 0
0 0 0
0 0 0
0 0 0
0 0 0
0 0 0
0 0 0
0 0 0
0 0 0
0 0 0
0 0 0
0 0 0
0 0 0
0 0 0
0 0 0
0 0 0
0 0 0
0 0 0
0 0 0
0 0 0
0 0 0
0 0 0
0 0 0
0 0 0
0 0 0
0 0 0
0 0 0
0 0 0
0 0 0
0 0 0
0 0 0
0 0 0
0 0 0
0 0 0
0 0 0
0 0 0
0 0 0
0 0 0
0 0 0
0 0 0
0 0 0
0 0 0
0 0 0
0 0 0
0 0 0
0 0 0
0 0 0
0 0 0
0 0 0
0 0 0
0 0 0
0 0 0
0 0 0
0 0 0
0 0 0
0 0 0
0 0 0
0 0 0
0 0 0
0 0 0
0 0 0
0 0 0
0 0 0
0 0 0
0 0 0
0 0 0
0 0 0
0 0 0
0 0 0
0 0 0
0 0 0
0 0 0
0 0 0
0 0 0
0 0 0
0 0 0
0 0 0
0 0 0
0 0 0
0 0 0
0 0 0
0 0 0
0 0 0
0 0 0
0 0 0
0 0 0
0 0 0
0 0 0
0 0 0
0 0 0
0 0 0
0 0 0
0 0 0
0 0 0
0 0 0
0 0 0
0 0 0
0 0 0
0 0 0
0 0 0
0 0 0
0 0 0
0 0 0
0 0 0
0 0 0
0 0 0
0 0 0
0 0 0
0 0 0
0 0 0
0 0 0
0 0 0
0 0 0
0 0 0
0 0 0
0 0 0
0 0 0
0 0 0
0 0 0
0 0 0
0 0 0
0 0 0
0 0 0
0 0 0
0 0 0
1 0 0
2 0 0
3 0 1
3 0 3
4 1 5
3 1 6
2 1 7
0 4 9
0 0 4
0 2 9
4 17 26
31 43 53
55 79 91
88 109 125
95 118 134
83 113 128
77 107 124
79 113 127
77 115 131
75 116 134
73 115 135
74 115 139
74 115 139
74 114 140
74 114 140
74 114 140
74 114 140
75 116 138
76 115 138
76 115 138
76 115 138
76 115 138
76 115 138
76 115 138
76 115 138
76 115 138
76 115 138
76 115 138
76 115 138
76 115 138
76 115 138
76 115 138
76 115 138
76 115 138
76 116 136
76 116 136
76 116 136
76 116 136
76 116 136
76 116 136
76 116 136
76 116 136
77 116 137
78 116 137
78 116 137
78 116 137
78 116 137
78 116 137
78 116 137
78 116 137
78 116 137
78 116 137
78 116 137
78 116 137
78 116 137
80 115 137
80 115 137
80 115 140
80 115 140
82 113 136
82 113 136
82 113 136
79 113 135
79 113 135
76 113 132
77 111 130
76 113 132
75 113 134
78 117 135
78 118 139
76 117 138
76 117 138
76 117 138
78 118 139
76 116 136
71 110 131
70 105 125
77 111 130
82 115 136
89 120 137
90 116 132
90 116 132
84 109 126
68 87 100
47 64 75
23 41 52
14 29 40
12 20 29
6 12 17
0 4 12
1 1 8
0 3 5
0 2 4
1 1 3
0 1 1
0 0 0
0 0 0
0 0 0
0 0 0
0 0 0
0 0 0
0 0 0
0 0 0
0 0 0
0 0 0
0 0 0
0 0 0
0 0 0
0 0 0
0 0 0
0 0 0
0 0 0
0 0 0
0 1 0
0 1 0
0 1 0
0 1 0
0 1 0
0 1 0
0 1 0
0 1 0
0 1 0
0 1 0
0 1 0
0 1 0
0 0 0
0 0 0
0 0 0
0 0 0
0 0 0
0 0 0
0 0 0
0 0 0
0 0 0
0 0 0
0 0 0
0 0 0
0 0 0
0 0 0
0 0 0
0 1 10
14 29 40
55 79 91
96 123 138
93 121 136
83 113 128
82 113 130
82 115 132
79 115 135
78 116 137
77 116 138
77 116 139
76 115 140
75 117 141
75 117 141
75 117 141
75 117 141
75 117 139
75 117 139
75 117 139
75 117 139
75 117 139
75 117 139
75 117 139
75 117 139
75 117 139
75 117 139
75 117 139
75 117 139
75 117 139
75 117 139
75 117 139
75 117 139
75 116 141
75 116 141
75 116 141
75 116 141
75 116 141
75 116 141
75 116 141
75 116 141
75 116 141
75 116 141
75 116 141
75 116 141
75 116 139
74 116 138
74 116 138
74 116 138
75 116 137
74 116 136
74 116 136
76 116 136
76 116 136
75 116 134
75 116 134
75 118 134
74 117 135
74 117 135
74 117 135
74 117 135
74 117 135
72 117 135
72 117 136
72 117 135
74 116 136
75 119 142
78 117 140
75 116 138
72 113 134
77 115 136
82 120 140
83 118 136
82 113 130
85 113 132
97 121 136
99 127 141
99 127 141
90 113 128
68 87 100
39 51 61
12 20 29
0 4 16
0 0 12
0 6 13
0 4 16
0 6 13
0 4 12
0 1 5
0 0 3
0 0 2
1 1 1
3 1 0
4 2 0
7 1 0
7 1 0
7 1 0
7 1 0
7 1 0
4 2 0
3 0 0
1 0 0
0 0 0
0 0 0
0 0 0
0 0 0
0 0 0
0 0 0
0 0 0
0 0 0
0 0 0
0 0 0
0 0 0
0 0 0
0 0 0
0 0 0
0 0 0
0 0 0
0 0 0
0 0 0
0 0 0
0 0 0
0 0 0
0 0 0
0 0 0
0 0 0
0 0 0
0 0 0
0 0 0
1 1 1
1 1 1
1 1 1
1 1 1
1 1 1
1 1 1
1 1 1
1 1 1
2 2 2
2 2 2
1 1 1
1 1 1
1 1 1
1 1 1
0 0 0
0 0 0
1 1 1
1 1 1
1 0 0
0 0 2
0 3 5
0 6 13
0 4 9
1 1 1
0 1 1
0 4 12
4 17 26
24 35 46
53 72 83
90 113 128
99 127 141
91 117 133
84 109 126
85 113 132
85 113 132
81 110 128
77 107 124
77 107 124
85 116 133
96 123 138
81 101 115
39 51 61
0 4 12
0 0 0
0 0 6
3 1 6
3 0 3
4 1 2
3 0 1
2 0 1
1 1 1
1 1 1
1 1 1
1 1 1
0 2 1
0 2 1
0 2 1
0 2 1
0 2 1
0 2 1
0 2 1
0 2 1
0 2 1
0 2 1
0 2 1
0 2 1
0 2 1
0 2 1
0 2 1
0 2 1
0 1 0
0 0 0
0 0 0
0 0 0
0 0 0
0 0 0
0 0 0
0 0 0
0 0 0
0 0 0
0 0 0
0 0 0
0 0 0
0 0 0
0 0 0
0 0 0
0 0 0
0 0 0
0 0 0
0 0 0
0 0 0
0 0 0
0 0 0
0 0 0
0 0 0
0 0 0
0 0 0
0 0 0
0 0 0
0 0 0
0 0 0
0 0 0
0 0 0
0 0 0
0 0 0
0 0 0
0 0 0
0 0 0
0 0 0
0 0 0
0 0 0
0 0 0
0 0 0
0 0 0
0 0 0
0 0 0
0 0 0
0 0 0
0 0 0
0 0 0
0 0 0
0 0 0
0 0 0
0 0 0
0 0 0
0 0 0
0 0 0
0 0 0
0 0 0
0 0 0
0 0 0
0 0 0
0 0 0
0 0 0
0 0 0
0 0 0
0 0 0
0 0 0
0 0 0
0 0 0
0 0 0
0 0 0
0 0 0
0 0 0
0 0 0
0 0 0
0 0 0
0 0 0
0 0 0
0 0 0
0 0 0
0 0 0
0 0 0
0 0 0
0 0 0
0 0 0
0 0 0
0 0 0
0 0 0
0 0 0
0 0 0
0 0 0
0 0 0
0 0 0
0 0 0
0 0 0
0 0 0
0 0 0
0 0 0
0 0 0
0 0 0
0 0 0
0 0 0
0 0 0
0 0 0
0 0 0
0 0 0
0 0 0
0 0 0
0 0 0
0 0 0
0 0 0
0 0 0
0 0 0
0 0 0
0 0 0
0 0 0
0 0 0
0 0 0
0 0 0
0 0 0
0 0 0
0 0 0
0 0 0
0 0 0
0 0 0
0 0 0
0 0 0
0 0 0
0 0 0
0 0 0
1 0 0
2 0 0
3 0 1
3 0 3
4 1 5
3 1 6
2 1 7
0 4 9
0 0 4
0 2 9
4 17 26
31 43 53
55 79 91
88 109 125
95 118 134
83 113 128
77 107 124
79 113 127
77 115 131
75 116 134
73 115 135
74 115 139
74 114 140
74 114 140
74 114 140
74 114 140
74 114 140
75 116 138
76 115 138
76 115 138
76 115 138
76 115 138
76 115 138
76 115 138
76 115 138
76 115 138
76 115 138
76 115 138
76 115 138
76 115 138
76 115 138
76 115 138
76 115 138
76 115 138
76 116 136
76 116 136
76 116 136
76 116 136
76 116 136
76 116 136
76 116 136
76 116 136
77 116 137
78 116 137
78 116 137
78 116 137
78 116 137
78 116 137
78 116 137
78 116 137
78 116 137
78 116 137
78 116 137
78 116 137
78 116 137
80 115 137
80 115 137
82 116 140
82 116 140
82 113 136
82 113 136
79 113 135
77 111 130
77 111 130
70 105 125
70 105 125
70 105 125
71 110 131
78 117 135
78 118 139
77 117 137
76 117 136
77 117 137
80 117 140
79 115 135
77 111 130
70 105 125
77 111 130
83 118 136
89 118 136
81 110 128
81 101 115
68 87 100
47 64 75
14 29 40
0 12 19
0 4 16
0 6 13
0 0 9
0 2 9
2 6 12
1 6 12
0 3 5
0 0 1
0 0 0
0 0 0
0 0 0
0 0 0
0 0 0
0 0 0
0 0 0
0 0 0
0 0 0
0 0 0
0 0 0
0 0 0
0 0 0
0 0 0
0 0 0
0 0 0
0 0 0
0 0 0
0 0 0
0 1 0
0 1 0
0 1 0
0 1 0
0 1 0
0 1 0
0 1 0
0 1 0
0 1 0
0 1 0
0 1 0
0 1 0
0 0 0
0 0 0
0 0 0
0 0 0
0 0 0
0 0 0
0 0 0
0 0 0
0 0 0
0 0 0
0 0 0
0 0 0
0 0 0
0 0 0
0 0 0
0 1 10
14 29 40
55 79 91
96 123 138
93 121 136
83 113 128
82 113 130
82 115 132
79 115 135
78 116 137
77 116 138
77 116 139
76 115 140
75 117 141
75 117 141
75 117 141
75 117 141
75 117 139
75 117 139
75 117 139
75 117 139
75 117 139
75 117 139
75 117 139
75 117 139
75 117 139
75 117 139
75 117 139
75 117 139
75 117 139
75 117 139
75 117 139
75 117 139
75 116 141
75 116 141
75 116 141
75 116 141
75 116 141
75 116 141
75 116 141
75 116 141
75 116 141
75 116 141
75 116 141
75 116 141
75 116 139
74 116 138
74 116 138
74 116 138
75 116 137
74 116 136
74 116 136
75 116 136
75 116 136
75 118 134
75 118 134
74 117 135
74 117 135
74 117 135
74 117 135
74 117 135
74 117 135
72 117 135
73 117 136
73 117 136
74 116 136
74 116 138
75 118 142
82 120 140
82 120 140
78 117 140
76 113 132
77 111 130
82 113 130
85 113 132
90 116 132
93 116 131
90 113 128
90 113 128
81 106 120
68 87 100
39 51 61
14 29 40
0 4 16
0 1 10
0 4 12
2 10 15
1 6 12
0 2 9
0 1 6
0 1 6
0 3 2
1 1 1
3 2 0
4 2 0
7 1 0
7 1 0
7 1 0
7 1 0
4 2 0
3 0 0
1 0 0
0 0 0
0 0 0
0 0 0
0 0 0
0 0 0
0 0 0
0 0 0
0 0 0
0 0 0
0 0 0
0 0 0
0 0 0
0 0 0
0 0 0
0 0 0
0 0 0
0 0 0
0 0 0
0 0 0
0 0 0
0 0 0
0 0 0
0 0 0
0 0 0
0 0 0
0 0 0
0 0 0
1 1 1
1 1 1
1 1 1
1 1 1
1 1 1
1 1 1
1 1 1
1 1 1
2 2 2
2 2 2
1 1 1
1 1 1
1 1 1
1 1 1
0 0 0
0 0 0
0 0 1
1 1 1
2 0 0
2 2 2
3 4 6
2 10 15
2 6 12
0 4 5
0 4 9
0 8 14
0 4 12
2 10 15
31 43 53
70 92 106
95 118 134
97 121 136
90 113 128
91 117 133
85 113 132
77 107 124
77 107 124
77 107 124
90 116 132
96 123 138
81 101 115
39 51 61
0 4 12
0 0 0
0 0 6
3 1 6
3 0 3
4 1 2
4 0 0
3 0 1
2 0 1
2 0 1
1 1 1
1 1 1
0 2 1
0 2 1
0 2 1
0 2 1
0 2 1
0 2 1
0 2 1
0 2 1
0 2 1
0 2 1
0 2 1
0 2 1
0 2 1
0 2 1
0 2 1
0 2 1
0 1 0
0 0 0
0 0 0
0 0 0
0 0 0
0 0 0
0 0 0
0 0 0
0 0 0
0 0 0
0 0 0
0 0 0
0 0 0
0 0 0
0 0 0
0 0 0
0 0 0
0 0 0
0 0 0
0 0 0
0 0 0
0 0 0
0 0 0
0 0 0
0 0 0
0 0 0
0 0 0
0 0 0
0 0 0
0 0 0
0 0 0
0 0 0
0 0 0
0 0 0
0 0 0
0 0 0
0 0 0
0 0 0
0 0 0
0 0 0
0 0 0
0 0 0
0 0 0
0 0 0
0 0 0
0 0 0
0 0 0
0 0 0
0 0 0
0 0 0
0 0 0
0 0 0
0 0 0
0 0 0
0 0 0
0 0 0
0 0 0
0 0 0
0 0 0
0 0 0
0 0 0
0 0 0
0 0 0
0 0 0
0 0 0
0 0 0
0 0 0
0 0 0
0 0 0
0 0 0
0 0 0
0 0 0
0 0 0
0 0 0
0 0 0
0 0 0
0 0 0
0 0 0
0 0 0
0 0 0
0 0 0
0 0 0
0 0 0
0 0 0
0 0 0
0 0 0
0 0 0
0 0 0
0 0 0
0 0 0
0 0 0
0 0 0
0 0 0
0 0 0
0 0 0
0 0 0
0 0 0
0 0 0
0 0 0
0 0 0
0 0 0
0 0 0
0 0 0
0 0 0
0 0 0
0 0 0
0 0 0
0 0 0
0 0 0
0 0 0
0 0 0
0 0 0
0 0 0
0 0 0
0 0 0
0 0 0
0 0 0
0 0 0
0 0 0
0 0 0
0 0 0
0 0 0
0 0 0
0 0 0
0 0 0
0 0 0
0 0 0
0 0 0
0 0 0
0 0 0
0 0 0
1 0 0
2 0 0
3 0 1
3 0 3
4 1 5
3 1 6
2 1 7
0 4 9
0 0 4
0 2 9
4 17 26
31 43 53
55 79 91
88 109 125
95 118 134
83 113 128
77 107 124
79 113 127
76 113 132
75 113 134
76 114 136
74 114 140
74 114 140
74 114 140
74 114 140
74 114 140
74 114 140
74 115 139
76 115 140
76 115 138
76 115 138
76 115 138
76 115 138
76 115 138
76 115 138
76 115 138
76 115 138
76 115 138
76 115 138
76 115 138
76 115 138
76 115 138
76 115 138
76 115 138
76 116 136
76 116 136
76 116 136
76 116 136
76 116 136
76 116 136
76 116 136
76 116 136
77 116 137
78 116 137
78 116 137
78 116 137
78 116 137
78 116 137
77 115 137
77 115 137
78 116 137
78 116 138
78 116 138
78 116 138
80 117 140
82 117 137
80 115 137
82 117 137
82 117 137
82 115 136
82 115 136
82 113 136
79 114 134
79 113 132
77 111 130
77 111 130
77 111 130
79 113 132
79 115 135
79 115 135
79 115 132
78 115 132
79 115 135
79 115 135
82 115 136
83 118 136
89 118 136
89 118 136
81 110 128
71 97 112
55 79 91
47 64 75
23 41 52
12 20 29
0 4 16
0 1 10
0 0 9
0 0 9
0 0 5
0 1 6
1 4 10
1 4 10
0 2 4
0 0 1
0 0 0
0 0 0
0 0 0
0 0 0
0 0 0
0 0 0
0 0 0
0 0 0
0 0 0
0 0 0
0 0 0
0 0 0
0 0 0
0 0 0
0 0 0
0 0 0
0 0 0
0 0 0
0 0 0
0 1 0
0 1 0
0 1 0
0 1 0
0 1 0
0 1 0
0 1 0
0 1 0
0 1 0
0 1 0
0 1 0
0 1 0
0 0 0
0 0 0
0 0 0
0 0 0
0 0 0
0 0 0
0 0 0
0 0 0
0 0 0
0 0 0
0 0 0
0 0 0
0 0 0
0 0 0
0 0 0
0 1 10
14 29 40
55 79 91
96 123 138
93 121 136
83 113 128
82 113 130
82 115 132
79 115 135
78 116 137
77 116 138
77 116 139
76 115 140
75 117 141
75 117 141
75 117 141
75 117 141
75 117 139
75 117 139
75 117 139
75 117 139
75 117 139
75 117 139
75 117 139
75 117 139
75 117 139
75 117 139
75 117 139
75 117 139
75 117 139
75 117 139
75 117 139
75 117 139
75 116 141
75 116 141
75 116 141
75 116 141
75 116 141
75 116 141
75 116 141
75 116 141
75 116 141
75 116 141
75 116 141
75 116 141
75 116 139
74 116 138
74 116 138
74 116 138
75 116 137
74 116 136
74 116 136
74 116 136
74 116 136
74 117 135
74 117 135
74 117 135
74 117 135
74 117 135
74 117 135
74 117 135
74 117 135
74 117 135
74 116 136
74 116 136
74 116 136
74 116 138
75 118 142
82 120 140
82 118 141
78 117 140
75 113 134
77 111 130
79 113 132
82 113 130
84 109 126
81 106 120
81 106 120
88 109 125
90 113 128
88 109 125
68 87 100
39 51 61
12 20 29
0 1 13
0 1 13
2 10 15
0 6 13
0 4 12
0 4 12
0 4 12
0 4 5
0 2 3
2 1 1
4 2 0
4 2 0
7 1 0
7 1 0
7 1 0
4 2 0
3 0 0
1 0 0
0 0 0
0 0 0
0 0 0
0 0 0
0 0 0
0 0 0
0 0 0
0 0 0
0 0 0
0 0 0
0 0 0
0 0 0
0 0 0
0 0 0
0 0 0
0 0 0
0 0 0
0 0 0
0 0 0
0 0 0
0 0 0
0 0 0
0 0 0
0 0 0
0 0 0
0 0 0
0 0 0
1 1 1
1 1 1
1 1 1
1 1 1
1 1 1
1 1 1
1 1 1
1 1 1
2 2 2
2 2 2
1 1 1
1 1 1
1 1 1
1 1 1
0 0 0
0 0 0
0 0 0
1 1 1
2 1 1
3 4 2
5 6 9
6 8 13
2 6 12
1 6 12
0 6 13
0 8 14
0 0 7
0 0 6
12 20 29
39 51 61
68 87 100
90 113 128
97 121 136
97 121 136
88 109 125
81 106 120
81 106 120
81 106 120
90 116 132
96 123 138
81 101 115
39 51 61
0 4 12
0 0 0
0 0 6
3 1 6
3 0 3
4 1 2
4 0 0
4 0 0
3 0 1
2 0 1
1 1 1
1 1 1
0 2 1
0 2 1
0 2 1
0 2 1
0 2 1
0 2 1
0 2 1
0 2 1
0 2 1
0 2 1
0 2 1
0 2 1
0 2 1
0 2 1
0 2 1
0 2 1
0 1 0
0 0 0
0 0 0
0 0 0
0 0 0
0 0 0
0 0 0
0 0 0
0 0 0
0 0 0
0 0 0
0 0 0
0 0 0
0 0 0
0 0 0
0 0 0
0 0 0
0 0 0
0 0 0
0 0 0
0 0 0
0 0 0
0 0 0
0 0 0
0 0 0
0 0 0
0 0 0
0 0 0
0 0 0
0 0 0
0 0 0
0 0 0
0 0 0
0 0 0
0 0 0
0 0 0
0 0 0
0 0 0
0 0 0
0 0 0
0 0 0
0 0 0
0 0 0
0 0 0
0 0 0
0 0 0
0 0 0
0 0 0
0 0 0
0 0 0
0 0 0
0 0 0
0 0 0
0 0 0
0 0 0
0 0 0
0 0 0
0 0 0
0 0 0
0 0 0
0 0 0
0 0 0
0 0 0
0 0 0
0 0 0
0 0 0
0 0 0
0 0 0
0 0 0
0 0 0
0 0 0
0 0 0
0 0 0
0 0 0
0 0 0
0 0 0
0 0 0
0 0 0
0 0 0
0 0 0
0 0 0
0 0 0
0 0 0
0 0 0
0 0 0
0 0 0
0 0 0
0 0 0
0 0 0
0 0 0
0 0 0
0 0 0
0 0 0
0 0 0
0 0 0
0 0 0
0 0 0
0 0 0
0 0 0
0 0 0
0 0 0
0 0 0
0 0 0
0 0 0
0 0 0
0 0 0
0 0 0
0 0 0
0 0 0
0 0 0
0 0 0
0 0 0
0 0 0
0 0 0
0 0 0
0 0 0
0 0 0
0 0 0
0 0 0
0 0 0
0 0 0
0 0 0
0 0 0
0 0 0
0 0 0
0 0 0
0 0 0
0 0 0
0 0 0
0 0 0
0 0 0
1 0 0
2 0 0
3 0 1
3 0 3
4 1 5
3 1 6
2 1 7
0 4 9
0 0 4
0 2 9
4 17 26
31 43 53
55 79 91
88 109 125
93 121 136
83 113 128
77 107 124
77 111 130
76 113 132
73 115 135
74 115 139
74 114 140
74 114 140
74 114 140
74 114 140
74 114 140
74 114 140
76 115 140
76 115 140
76 115 140
76 115 138
76 115 138
76 115 138
76 115 138
76 115 138
76 115 138
76 115 138
76 115 138
76 115 138
76 115 138
76 115 138
76 115 138
76 115 138
76 115 138
76 116 136
76 116 136
76 116 136
76 116 136
76 116 136
76 116 136
76 116 136
76 116 136
77 116 137
78 116 137
78 116 137
78 116 137
78 116 137
78 116 137
77 115 136
77 115 136
77 115 136
78 116 137
78 116 137
78 116 137
78 116 137
80 115 137
80 115 137
79 115 135
79 115 135
82 115 136
82 115 136
82 115 136
83 118 136
83 118 136
89 120 137
86 121 140
86 121 140
83 118 136
85 116 133
82 115 132
82 115 132
82 115 132
82 115 132
82 113 130
82 115 132
89 118 136
85 116 133
77 107 124
70 92 106
47 64 75
23 41 52
12 20 29
0 4 16
0 1 10
0 1 10
2 6 12
1 4 10
0 4 9
0 1 6
0 1 6
0 1 6
0 1 5
0 0 3
0 0 2
0 0 1
0 0 0
0 0 0
0 0 0
0 0 0
0 0 0
0 0 0
0 0 0
0 0 0
0 0 0
0 0 0
0 0 0
0 0 0
0 0 0
0 0 0
0 0 0
0 0 0
0 0 0
0 0 0
0 1 0
0 1 0
0 1 0
0 1 0
0 1 0
0 1 0
0 1 0
0 1 0
0 1 0
0 1 0
0 1 0
0 1 0
0 0 0
0 0 0
0 0 0
0 0 0
0 0 0
0 0 0
0 0 0
0 0 0
0 0 0
0 0 0
0 0 0
0 0 0
0 0 0
0 0 0
0 0 0
0 0 12
14 29 40
55 79 91
96 123 138
93 121 136
83 113 128
82 113 130
82 115 132
79 115 135
78 116 137
77 116 138
77 116 139
75 117 141
75 117 141
75 117 141
75 117 141
75 117 141
74 118 139
74 118 139
74 118 139
74 118 139
75 117 141
75 117 141
75 117 141
75 117 141
75 117 141
75 117 141
75 117 141
75 117 141
75 117 141
75 117 141
75 117 141
75 117 141
75 116 141
75 116 141
75 116 141
75 116 141
75 116 141
75 116 141
75 116 141
75 116 141
75 116 141
75 116 141
75 116 141
75 116 141
75 116 139
74 116 138
74 116 138
74 116 138
75 116 137
74 116 136
74 116 136
74 116 136
74 116 136
74 117 135
74 117 135
74 117 135
74 117 135
75 116 134
75 116 134
75 116 134
75 116 134
75 116 134
75 116 136
75 116 136
75 116 136
78 118 139
78 117 140
74 115 139
72 113 134
77 115 139
86 121 140
86 121 140
82 115 132
79 113 127
77 107 124
77 107 124
84 109 126
84 109 126
88 109 125
90 113 128
84 109 126
68 87 100
31 43 53
4 17 26
0 4 16
0 4 16
0 8 14
0 8 14
2 10 15
0 8 14
1 6 12
0 3 5
1 3 2
2 3 2
3 2 1
4 1 2
4 2 0
4 2 0
4 2 0
1 0 0
0 0 0
0 0 0
0 0 0
0 0 0
0 0 0
0 0 0
0 0 0
0 0 0
0 0 0
0 0 0
0 0 0
0 0 0
0 0 0
0 0 0
0 0 0
0 0 0
0 0 0
0 0 0
0 0 0
0 0 0
0 0 0
0 0 0
0 0 0
0 0 0
0 0 0
0 0 0
0 0 0
0 0 0
0 0 0
0 0 0
0 0 0
0 0 0
1 1 1
1 1 1
1 1 1
1 1 1
1 1 1
1 1 1
1 1 1
1 1 1
1 1 1
1 1 1
1 1 1
1 1 1
1 0 0
2 1 0
3 2 1
3 4 2
5 4 5
3 4 6
3 4 6
0 4 9
1 6 12
1 6 12
0 4 9
0 2 9
1 1 8
12 20 29
39 51 61
70 92 106
95 118 134
95 118 134
88 109 125
81 106 120
81 106 120
81 106 120
90 116 132
96 123 138
81 101 115
39 51 61
0 4 16
0 0 1
0 0 7
2 1 7
3 0 3
3 0 3
4 1 2
4 1 2
3 0 1
2 0 1
1 1 1
1 1 1
0 2 0
0 2 0
0 2 0
0 2 0
0 2 1
0 2 1
0 2 1
0 2 1
1 1 1
1 1 1
1 1 1
1 1 1
1 1 1
1 1 1
1 1 1
1 1 1
0 0 0
0 0 0
0 0 0
0 0 0
0 0 0
0 0 0
0 0 0
0 0 0
0 0 0
0 0 0
0 0 0
0 0 0
0 0 0
0 0 0
0 0 0
0 0 0
0 0 0
0 0 0
0 0 0
0 0 0
0 0 0
0 0 0
0 0 0
0 0 0
0 0 0
0 0 0
0 0 0
0 0 0
0 0 0
0 0 0
0 0 0
0 0 0
0 0 0
0 0 0
0 0 0
0 0 0
0 0 0
0 0 0
0 0 0
0 0 0
0 0 0
0 0 0
0 0 0
0 0 0
0 0 0
0 0 0
0 0 0
0 0 0
0 0 0
0 0 0
0 0 0
0 0 0
0 0 0
0 0 0
0 0 0
0 0 0
0 0 0
0 0 0
0 0 0
0 0 0
0 0 0
0 0 0
0 0 0
0 0 0
0 0 0
0 0 0
0 0 0
0 0 0
0 0 0
0 0 0
0 0 0
0 0 0
0 0 0
0 0 0
0 0 0
0 0 0
0 0 0
0 0 0
0 0 0
0 0 0
0 0 0
0 0 0
0 0 0
0 0 0
0 0 0
0 0 0
0 0 0
0 0 0
0 0 0
0 0 0
0 0 0
0 0 0
0 0 0
0 0 0
0 0 0
0 0 0
0 0 0
0 0 0
0 0 0
0 0 0
0 0 0
0 0 0
0 0 0
0 0 0
0 0 0
0 0 0
0 0 0
0 0 0
0 0 0
0 0 0
0 0 0
0 0 0
0 0 0
0 0 0
0 0 0
0 0 0
0 0 0
0 0 0
0 0 0
0 0 0
0 0 0
0 0 0
0 0 0
0 0 0
0 0 0
0 0 0
0 0 0
0 0 0
0 0 0
0 0 0
0 0 0
1 0 0
2 0 0
3 0 1
3 0 3
4 1 5
3 1 6
2 1 7
0 4 9
0 0 4
0 2 9
4 17 26
31 43 53
62 77 90
88 109 125
93 121 136
83 113 128
77 107 124
77 111 130
76 113 132
73 115 135
74 115 139
73 116 139
73 116 139
73 116 139
73 116 139
74 114 140
74 114 140
76 115 140
75 116 141
75 116 141
75 116 139
75 116 139
75 116 139
75 116 139
75 116 139
75 116 139
76 115 138
76 115 138
76 115 138
76 115 138
76 115 138
76 115 138
76 115 138
76 115 138
77 115 136
77 115 136
77 115 136
77 115 136
77 115 136
77 115 136
77 115 136
77 115 136
78 116 137
78 116 137
78 116 137
78 116 137
78 116 135
78 116 135
77 115 134
76 115 135
75 113 134
75 113 134
75 113 134
75 113 134
76 113 132
75 113 134
79 113 132
79 114 134
79 113 132
79 113 132
79 113 132
79 113 132
79 115 132
82 115 132
85 116 133
85 116 133
89 118 136
89 118 136
89 118 136
85 116 133
85 116 133
89 118 136
90 116 132
83 113 128
77 107 124
71 97 112
68 87 100
53 72 83
31 51 61
23 41 52
4 17 26
0 4 16
0 0 6
0 0 6
0 2 9
2 4 11
1 4 10
1 4 5
0 3 5
0 3 5
0 1 3
0 0 2
0 0 2
1 1 2
1 1 1
1 1 1
0 0 0
0 0 0
0 0 0
0 0 0
0 0 0
0 0 0
0 0 0
0 0 0
0 0 0
0 0 0
0 0 0
0 0 0
0 0 0
0 0 0
0 0 0
0 0 0
0 0 0
0 0 0
0 0 0
0 0 0
0 0 0
0 0 0
0 0 0
0 0 0
0 0 0
0 0 0
0 0 0
0 0 0
0 0 0
0 0 0
0 0 0
0 0 0
0 0 0
0 0 0
0 0 0
0 0 0
0 0 0
0 0 0
0 0 0
0 0 0
0 0 0
0 0 0
0 0 0
0 0 0
0 0 12
14 29 40
55 79 91
96 123 138
93 121 136
83 113 128
82 113 130
82 115 132
79 115 135
78 116 137
77 116 138
77 116 139
75 117 141
75 117 141
75 117 141
75 117 141
75 117 141
75 118 142
75 118 142
75 118 142
75 118 142
75 117 141
75 117 141
75 117 141
75 117 141
75 117 141
75 117 141
75 117 141
75 117 141
75 117 141
75 117 141
75 117 141
75 117 141
75 116 141
75 116 141
75 116 141
75 116 141
75 116 141
75 116 141
75 116 141
75 116 141
75 116 141
75 116 141
75 116 141
75 116 141
75 116 139
74 116 138
74 116 138
74 116 138
75 116 137
74 116 136
74 116 136
74 116 136
74 116 136
74 117 135
74 117 135
74 117 135
74 117 135
75 116 134
75 116 134
75 116 134
75 116 134
76 115 135
76 116 136
76 115 135
76 116 136
82 120 140
78 117 140
71 110 131
70 105 125
76 114 136
87 124 142
87 124 142
78 117 135
77 107 124
79 113 127
85 113 132
89 118 136
85 116 133
81 106 120
84 109 126
93 116 131
81 106 120
53 72 83
23 41 52
4 17 26
0 12 19
0 4 16
0 12 19
0 12 19
0 12 19
0 6 13
0 4 9
0 3 5
1 4 5
1 3 2
2 2 2
3 2 1
4 2 0
3 1 0
0 0 0
0 0 0
0 0 0
0 0 0
0 0 0
0 0 0
0 0 0
0 0 0
0 0 0
0 0 0
0 0 0
0 0 0
0 0 0
0 0 0
0 0 0
0 0 0
0 0 0
0 0 0
0 0 0
0 0 0
0 0 0
0 0 0
0 0 0
0 0 0
0 0 0
0 0 0
0 0 0
0 0 0
0 0 0
0 0 0
0 0 0
0 0 0
0 0 0
1 1 1
1 1 1
1 1 1
1 1 1
1 1 1
1 1 1
1 1 1
1 1 1
1 1 1
1 1 1
1 1 1
1 1 1
2 1 0
3 1 0
3 2 1
3 4 2
3 4 2
2 2 2
2 2 2
1 4 5
1 4 5
0 4 5
1 6 12
0 8 14
0 0 6
0 0 3
12 20 29
47 64 75
79 97 109
88 109 125
88 109 125
90 113 128
88 109 125
84 109 126
90 113 128
96 123 138
81 106 120
39 51 61
0 4 16
0 0 2
0 0 9
3 1 6
3 1 6
4 1 5
3 0 3
4 1 2
3 0 1
2 0 1
1 1 1
1 1 1
0 2 0
0 2 0
0 2 0
0 2 0
0 2 1
0 2 1
0 2 1
0 2 1
1 1 1
1 1 1
1 1 1
1 1 1
1 1 1
1 1 1
1 1 1
1 1 1
0 0 0
0 0 0
0 0 0
0 0 0
0 0 0
0 0 0
0 0 0
0 0 0
0 0 0
0 0 0
0 0 0
0 0 0
0 0 0
0 0 0
0 0 0
0 0 0
0 0 0
0 0 0
0 0 0
0 0 0
0 0 0
0 0 0
0 0 0
0 0 0
0 0 0
0 0 0
0 0 0
0 0 0
0 0 0
0 0 0
0 0 0
0 0 0
0 0 0
0 0 0
0 0 0
0 0 0
0 0 0
0 0 0
0 0 0
0 0 0
0 0 0
0 0 0
0 0 0
0 0 0
0 0 0
0 0 0
0 0 0
0 0 0
0 0 0
0 0 0
0 0 0
0 0 0
0 0 0
0 0 0
0 0 0
0 0 0
0 0 0
0 0 0
0 0 0
0 0 0
0 0 0
0 0 0
0 0 0
0 0 0
0 0 0
0 0 0
0 0 0
0 0 0
0 0 0
0 0 0
0 0 0
0 0 0
0 0 0
0 0 0
0 0 0
0 0 0
0 0 0
0 0 0
0 0 0
0 0 0
0 0 0
0 0 0
0 0 0
0 0 0
0 0 0
0 0 0
0 0 0
0 0 0
0 0 0
0 0 0
0 0 0
0 0 0
0 0 0
0 0 0
0 0 0
0 0 0
0 0 0
0 0 0
0 0 0
0 0 0
0 0 0
0 0 0
0 0 0
0 0 0
0 0 0
0 0 0
0 0 0
0 0 0
0 0 0
0 0 0
0 0 0
0 0 0
0 0 0
0 0 0
0 0 0
0 0 0
0 0 0
0 0 0
0 0 0
0 0 0
0 0 0
0 0 0
0 0 0
0 0 0
0 0 0
0 0 0
0 0 0
0 0 0
0 0 0
0 0 0
0 0 0
1 0 0
2 0 0
3 0 1
3 0 3
4 1 5
3 1 6
2 1 7
0 4 9
0 0 4
0 2 9
4 17 26
31 43 53
62 77 90
88 109 125
93 121 136
83 113 128
77 107 124
77 111 130
76 113 132
73 115 135
74 115 139
73 116 139
73 116 139
73 116 139
73 117 141
74 114 140
74 114 140
74 115 139
75 116 141
75 116 141
75 116 141
75 116 141
75 116 141
75 116 141
75 116 141
75 116 139
76 115 138
76 115 138
76 115 138
76 115 138
76 115 138
76 115 138
76 115 138
76 115 138
77 115 136
77 115 136
77 115 136
77 115 136
77 115 136
77 115 136
77 115 136
77 115 136
78 116 137
78 116 137
78 116 137
78 116 137
78 116 135
78 116 135
78 116 135
77 115 134
76 113 132
76 113 132
71 110 131
76 113 132
76 113 132
76 113 132
79 113 132
79 115 132
79 115 132
79 115 132
79 113 132
79 113 127
79 113 127
79 113 127
82 113 130
85 113 132
89 118 136
93 121 136
93 121 136
89 118 136
85 113 132
77 107 124
81 101 115
71 97 112
55 79 91
47 64 75
23 41 52
14 29 40
14 29 40
4 17 26
0 4 16
0 0 12
0 1 10
0 1 10
0 4 9
0 4 9
0 4 5
0 3 5
0 2 4
0 2 3
1 1 1
1 1 1
1 1 1
1 1 1
1 1 1
1 1 1
0 0 0
0 0 0
0 0 0
0 0 0
0 0 0
0 0 0
0 0 0
0 0 0
0 0 0
0 0 0
0 0 0
0 0 0
0 0 0
0 0 0
0 0 0
0 0 0
0 0 0
0 0 0
0 0 0
0 0 0
0 0 0
0 0 0
0 0 0
0 0 0
0 0 0
0 0 0
0 0 0
0 0 0
0 0 0
0 0 0
0 0 0
0 0 0
0 0 0
0 0 0
0 0 0
0 0 0
0 0 0
0 0 0
0 0 0
0 0 0
0 0 0
0 0 0
0 0 0
0 0 0
0 0 12
14 29 40
55 79 91
96 123 138
93 121 136
83 113 128
82 113 130
82 115 132
79 115 135
78 116 137
77 116 138
77 116 139
75 117 141
75 117 141
75 117 141
75 117 141
75 117 141
75 118 142
75 118 142
75 118 142
75 118 142
75 117 141
75 117 141
75 117 141
75 117 141
75 117 141
75 117 141
75 117 141
75 117 141
75 117 141
75 117 141
75 117 141
75 117 141
75 116 141
75 116 141
75 116 141
75 116 141
75 116 141
75 116 141
75 116 141
75 116 141
75 116 141
75 116 141
75 116 141
75 116 141
75 116 139
74 116 138
74 116 138
74 116 138
75 116 137
74 116 136
74 116 136
74 116 136
74 116 136
74 117 135
74 117 135
74 117 135
74 117 135
75 116 134
77 116 134
77 116 134
77 116 134
76 115 135
76 116 136
76 115 135
76 115 135
78 118 139
78 117 140
72 113 134
71 110 131
75 116 137
87 124 142
87 124 142
78 117 135
77 111 130
79 113 132
82 115 132
82 115 132
83 113 128
79 113 127
83 113 128
91 117 133
84 109 126
68 87 100
47 64 75
14 29 40
4 17 26
0 12 19
0 12 19
0 12 19
0 12 19
0 8 14
0 4 9
0 4 9
0 3 5
0 3 5
1 3 2
2 3 2
3 2 1
2 1 0
0 0 0
0 0 0
0 0 0
0 0 0
0 0 0
0 0 0
0 0 0
0 0 0
0 0 0
0 0 0
0 0 0
0 0 0
0 0 0
0 0 0
0 0 0
0 0 0
0 0 0
0 0 0
0 0 0
0 0 0
0 0 0
0 0 0
0 0 0
0 0 0
0 0 0
0 0 0
0 0 0
0 0 0
0 0 0
0 0 0
0 0 0
0 0 0
0 0 0
1 1 1
1 1 1
1 1 1
1 1 1
1 1 1
1 1 1
1 1 1
1 1 1
1 1 1
1 1 1
1 1 1
1 1 1
2 1 0
3 1 0
4 2 0
3 2 1
3 2 1
3 1 0
2 1 0
1 1 2
0 2 4
1 4 5
1 4 10
2 6 12
0 4 9
0 1 6
0 6 13
23 29 39
47 64 75
70 92 106
93 116 131
95 118 134
93 116 131
88 109 125
83 113 128
97 121 136
81 106 120
39 51 61
0 4 16
0 0 2
0 0 9
3 1 6
3 1 6
4 1 5
3 0 3
4 1 2
3 0 1
2 0 1
2 0 1
2 1 1
1 2 0
1 2 0
0 2 0
0 2 0
0 2 1
0 2 1
0 2 1
0 2 1
1 1 1
1 1 1
1 1 1
1 1 1
1 1 1
1 1 1
1 1 1
1 1 1
0 0 0
0 0 0
0 0 0
0 0 0
0 0 0
0 0 0
0 0 0
0 0 0
0 0 0
0 0 0
0 0 0
0 0 0
0 0 0
0 0 0
0 0 0
0 0 0
0 0 0
0 0 0
0 0 0
0 0 0
0 0 0
0 0 0
0 0 0
0 0 0
0 0 0
0 0 0
0 0 0
0 0 0
0 0 0
0 0 0
0 0 0
0 0 0
0 0 0
0 0 0
0 0 0
0 0 0
0 0 0
0 0 0
0 0 0
0 0 0
0 0 0
0 0 0
0 0 0
0 0 0
0 0 0
0 0 0
0 0 0
0 0 0
0 0 0
0 0 0
0 0 0
0 0 0
0 0 0
0 0 0
0 0 0
0 0 0
0 0 0
0 0 0
0 0 0
0 0 0
0 0 0
0 0 0
0 0 0
0 0 0
0 0 0
0 0 0
0 0 0
0 0 0
0 0 0
0 0 0
0 0 0
0 0 0
0 0 0
0 0 0
0 0 0
0 0 0
0 0 0
0 0 0
0 0 0
0 0 0
0 0 0
0 0 0
0 0 0
0 0 0
0 0 0
0 0 0
0 0 0
0 0 0
0 0 0
0 0 0
0 0 0
0 0 0
0 0 0
0 0 0
0 0 0
0 0 0
0 0 0
0 0 0
0 0 0
0 0 0
0 0 0
0 0 0
0 0 0
0 0 0
0 0 0
0 0 0
0 0 0
0 0 0
0 0 0
0 0 0
0 0 0
0 0 0
0 0 0
0 0 0
0 0 0
0 0 0
0 0 0
0 0 0
0 0 0
0 0 0
0 0 0
0 0 0
0 0 0
0 0 0
0 0 0
0 0 0
0 0 0
0 0 0
0 0 0
0 0 0
0 0 0
1 0 0
2 0 0
3 0 1
3 0 3
4 1 5
3 1 6
2 1 7
0 4 9
0 0 4
0 2 9
4 17 26
31 43 53
62 77 90
88 109 125
93 121 136
83 113 128
77 107 124
79 113 127
77 115 131
73 115 135
74 115 139
73 116 139
73 116 139
73 116 139
73 117 141
74 114 140
74 114 140
74 115 139
75 116 141
75 116 141
75 116 141
75 116 141
75 116 141
75 116 141
75 116 141
75 116 139
76 115 138
76 115 138
76 115 138
76 115 138
76 115 138
76 115 138
76 115 138
76 115 138
77 115 136
77 115 136
77 115 136
77 115 136
77 115 136
77 115 136
77 115 136
77 115 136
78 116 137
78 116 137
78 116 137
78 116 137
78 116 135
78 116 135
79 115 135
79 115 135
78 116 135
77 115 134
77 116 134
78 116 135
79 115 135
79 115 135
82 115 132
82 115 132
82 115 132
82 115 132
82 113 130
79 113 127
77 107 124
81 110 128
85 116 133
89 120 137
99 127 141
99 127 141
97 124 139
90 113 128
71 97 112
55 79 91
53 72 83
47 64 75
31 43 53
14 29 40
4 17 26
0 12 19
0 4 16
0 1 13
0 1 10
0 0 9
2 4 11
1 4 10
0 4 9
0 4 5
0 4 5
0 3 5
0 2 3
0 1 1
2 1 0
2 1 0
2 1 1
1 1 1
1 1 1
1 1 1
0 0 0
0 0 0
0 0 0
0 0 0
0 0 0
0 0 0
0 0 0
0 0 0
0 0 0
0 0 0
0 0 0
0 0 0
0 0 0
0 0 0
0 0 0
0 0 0
0 0 0
0 0 0
0 0 0
0 0 0
0 0 0
0 0 0
0 0 0
0 0 0
0 0 0
0 0 0
0 0 0
0 0 0
0 0 0
0 0 0
0 0 0
0 0 0
0 0 0
0 0 0
0 0 0
0 0 0
0 0 0
0 0 0
0 0 0
0 0 0
0 0 0
0 0 0
0 0 0
0 0 0
0 0 12
14 29 40
55 79 91
97 124 139
96 123 138
83 113 128
82 113 130
82 115 132
79 115 135
78 116 137
77 116 138
77 116 139
75 117 141
75 117 141
75 117 141
75 117 141
75 117 141
75 118 142
75 118 142
75 118 142
75 118 142
75 117 141
75 117 141
75 117 141
75 117 141
75 117 141
75 117 141
75 117 141
75 117 141
75 117 141
75 117 141
75 117 141
75 117 141
75 116 141
75 116 141
75 116 141
75 116 141
75 116 141
75 116 141
75 116 141
75 116 141
75 116 141
75 116 141
75 116 141
75 116 141
75 116 139
74 116 138
74 116 138
74 116 138
75 116 137
74 116 136
74 116 136
74 116 136
74 116 136
74 117 135
74 117 135
74 117 135
74 117 135
75 116 134
75 116 134
75 116 134
75 116 134
76 115 135
76 116 136
76 115 135
73 115 135
73 115 135
76 115 138
78 117 140
82 120 140
78 118 139
75 116 134
75 116 134
78 117 135
83 118 136
83 118 136
79 113 127
77 107 124
79 113 127
82 115 132
89 118 136
83 113 128
81 106 120
81 101 115
55 79 91
31 51 61
14 29 40
4 17 26
0 12 19
0 12 19
0 12 19
0 8 14
0 4 12
0 4 9
0 4 9
0 3 5
1 4 5
2 3 2
2 2 2
1 1 1
0 0 0
0 0 0
0 0 0
0 0 0
0 0 0
0 0 0
0 0 0
0 0 0
0 0 0
0 0 0
0 0 0
0 0 0
0 0 0
0 0 0
0 0 0
0 0 0
0 0 0
0 0 0
0 0 0
0 0 0
0 0 0
0 0 0
0 0 0
0 0 0
0 0 0
0 0 0
0 0 0
0 0 0
0 0 0
0 0 0
0 0 0
0 0 0
0 0 0
1 1 1
1 1 1
1 1 1
1 1 1
1 1 1
1 1 1
1 1 1
1 1 1
1 1 1
1 1 1
1 1 1
1 1 1
2 1 0
3 1 0
4 2 0
4 2 0
4 2 0
4 2 0
3 2 0
2 2 2
1 2 3
3 4 6
1 4 5
0 3 5
2 6 12
6 12 17
0 8 14
0 6 13
12 20 29
53 72 83
81 101 115
93 116 131
93 116 131
88 109 125
83 113 128
93 121 136
81 106 120
39 51 61
0 4 16
0 0 2
0 0 9
3 1 6
3 1 6
4 1 5
3 0 3
4 1 2
3 0 1
3 0 1
3 0 1
3 2 1
1 2 0
1 2 0
0 2 0
0 2 0
0 2 1
0 2 1
0 2 1
0 2 1
1 1 1
1 1 1
1 1 1
1 1 1
1 1 1
1 1 1
1 1 1
1 1 1
0 0 0
0 0 0
0 0 0
0 0 0
0 0 0
0 0 0
0 0 0
0 0 0
0 0 0
0 0 0
0 0 0
0 0 0
0 0 0
0 0 0
0 0 0
0 0 0
0 0 0
0 0 0
0 0 0
0 0 0
0 0 0
0 0 0
0 0 0
0 0 0
0 0 0
0 0 0
0 0 0
0 0 0
0 0 0
0 0 0
0 0 0
0 0 0
0 0 0
0 0 0
0 0 0
0 0 0
0 0 0
0 0 0
0 0 0
0 0 0
0 0 0
0 0 0
0 0 0
0 0 0
0 0 0
0 0 0
0 0 0
0 0 0
0 0 0
0 0 0
0 0 0
0 0 0
0 0 0
0 0 0
0 0 0
0 0 0
0 0 0
0 0 0
0 0 0
0 0 0
0 0 0
0 0 0
0 0 0
0 0 0
0 0 0
0 0 0
0 0 0
0 0 0
0 0 0
0 0 0
0 0 0
0 0 0
0 0 0
0 0 0
0 0 0
0 0 0
0 0 0
0 0 0
0 0 0
0 0 0
0 0 0
0 0 0
0 0 0
0 0 0
0 0 0
0 0 0
0 0 0
0 0 0
0 0 0
0 0 0
0 0 0
0 0 0
0 0 0
0 0 0
0 0 0
0 0 0
0 0 0
0 0 0
0 0 0
0 0 0
0 0 0
0 0 0
0 0 0
0 0 0
0 0 0
0 0 0
0 0 0
0 0 0
0 0 0
0 0 0
0 0 0
0 0 0
0 0 0
0 0 0
0 0 0
0 0 0
0 0 0
0 0 0
0 0 0
0 0 0
0 0 0
0 0 0
0 0 0
0 0 0
0 0 0
0 0 0
0 0 0
0 0 0
0 0 0
0 0 0
0 0 0
1 0 0
2 0 0
3 0 1
3 0 3
4 1 5
3 1 6
2 1 7
0 4 9
0 0 4
0 2 9
4 17 26
31 43 53
62 77 90
88 109 125
93 121 136
83 113 128
77 107 124
79 113 127
77 115 131
73 115 135
74 115 139
73 116 139
73 116 139
73 116 139
73 117 141
73 117 141
73 117 141
73 116 139
75 116 141
75 116 141
75 116 141
75 116 141
75 116 141
75 116 141
75 116 141
75 116 139
76 115 138
76 115 138
76 115 138
76 115 138
76 115 138
76 115 138
76 115 138
76 115 138
77 115 136
77 115 136
77 115 136
77 115 136
77 115 136
77 115 136
77 115 136
77 115 136
78 116 137
78 116 137
78 116 137
78 116 137
78 116 135
78 116 135
79 115 135
82 117 137
82 117 137
82 120 140
82 120 140
82 120 140
82 120 140
83 118 136
83 118 136
83 118 136
83 118 136
83 118 136
85 116 133
82 115 132
83 113 128
83 113 128
90 116 132
91 117 133
93 121 136
93 116 131
84 109 126
70 92 106
53 72 83
31 51 61
24 35 46
4 17 26
4 17 26
0 4 16
0 1 13
0 0 12
0 1 13
0 1 13
0 1 10
0 1 10
0 4 9
0 4 9
0 3 5
0 3 5
1 4 5
1 3 2
1 1 2
1 1 1
3 1 0
3 1 0
2 1 1
1 1 1
1 1 1
1 1 1
0 0 0
0 0 0
0 0 0
0 0 0
0 0 0
0 0 0
0 0 0
0 0 0
0 0 0
0 0 0
0 0 0
0 0 0
0 0 0
0 0 0
0 0 0
0 0 0
0 0 0
0 0 0
0 0 0
0 0 0
0 0 0
0 0 0
0 0 0
0 0 0
0 0 0
0 0 0
0 0 0
0 0 0
0 0 0
0 0 0
0 0 0
0 0 0
0 0 0
0 0 0
0 0 0
0 0 0
0 0 0
0 0 0
0 0 0
0 0 0
0 0 0
0 0 0
0 0 0
0 0 0
0 0 12
14 29 40
55 79 91
97 124 139
96 123 138
82 113 130
82 113 130
82 115 132
79 115 135
78 116 137
77 116 138
77 116 139
76 115 140
75 117 141
73 117 141
75 118 142
75 118 142
75 118 142
75 118 142
75 118 142
75 118 142
75 117 141
75 117 141
75 117 141
75 117 141
75 117 141
75 117 141
75 117 141
75 117 141
75 117 141
75 117 141
75 117 141
75 117 141
75 116 141
75 116 141
75 116 141
75 116 141
75 116 141
75 116 141
75 116 141
75 116 141
75 116 141
75 116 141
75 116 141
75 116 141
75 116 139
74 116 138
74 116 138
74 116 138
75 116 137
74 116 136
74 116 136
74 116 136
74 116 136
74 117 135
74 117 135
74 117 135
74 117 135
74 117 135
75 118 134
75 118 134
75 118 134
75 116 134
76 116 136
76 116 136
75 116 136
72 113 134
76 114 136
82 120 140
87 124 142
78 118 139
71 110 131
71 110 131
78 117 135
86 122 140
83 118 136
79 113 127
70 105 125
77 107 124
83 118 136
89 120 137
79 113 127
79 113 127
90 116 132
81 106 120
55 79 91
23 41 52
14 29 40
4 17 26
4 17 26
0 12 19
0 8 14
0 6 13
0 4 12
0 4 9
0 4 9
3 4 6
1 4 5
1 2 3
1 1 2
0 0 0
0 0 0
0 0 0
0 0 0
0 0 0
0 0 0
0 0 0
0 0 0
0 0 0
0 0 0
0 0 0
0 0 0
0 0 0
0 0 0
0 0 0
0 0 0
0 0 0
0 0 0
0 0 0
0 0 0
0 0 0
0 0 0
0 0 0
0 0 0
0 0 0
0 0 0
0 0 0
0 0 0
0 0 0
0 0 0
0 0 0
0 0 0
0 0 0
1 1 1
1 1 1
1 1 1
1 1 1
1 1 1
1 1 1
1 1 1
1 1 1
1 1 1
1 1 1
1 1 1
1 1 1
2 1 0
3 1 0
4 2 0
4 2 0
4 2 0
4 2 0
4 2 0
3 2 1
3 4 2
3 4 6
1 4 5
0 2 4
6 8 13
12 20 29
0 12 19
0 1 10
0 4 16
24 35 46
53 72 83
81 101 115
90 113 128
88 109 125
84 109 126
93 121 136
81 101 115
39 51 61
0 6 13
0 0 1
0 0 9
3 1 6
3 1 6
4 1 5
3 0 3
4 1 2
3 0 1
3 0 1
3 0 1
3 2 1
1 2 0
1 2 0
0 2 0
0 2 0
0 2 1
0 2 1
0 2 1
0 2 1
1 1 1
1 1 1
1 1 1
1 1 1
1 1 1
1 1 1
1 1 1
1 1 1
0 0 0
0 0 0
0 0 0
0 0 0
0 0 0
0 0 0
0 0 0
0 0 0
0 0 0
0 0 0
0 0 0
0 0 0
0 0 0
0 0 0
0 0 0
0 0 0
0 0 0
0 0 0
0 0 0
0 0 0
0 0 0
0 0 0
0 0 0
0 0 0
0 0 0
0 0 0
0 0 0
0 0 0
0 0 0
0 0 0
0 0 0
0 0 0
0 0 0
0 0 0
0 0 0
0 0 0
0 0 0
0 0 0
0 0 0
0 0 0
0 0 0
0 0 0
0 0 0
0 0 0
0 0 0
0 0 0
0 0 0
0 0 0
0 0 0
0 0 0
0 0 0
0 0 0
0 0 0
0 0 0
0 0 0
0 0 0
0 0 0
0 0 0
0 0 0
0 0 0
0 0 0
0 0 0
0 0 0
0 0 0
0 0 0
0 0 0
0 0 0
0 0 0
0 0 0
0 0 0
0 0 0
0 0 0
0 0 0
0 0 0
0 0 0
0 0 0
0 0 0
0 0 0
0 0 0
0 0 0
0 0 0
0 0 0
0 0 0
0 0 0
0 0 0
0 0 0
0 0 0
0 0 0
0 0 0
0 0 0
0 0 0
0 0 0
0 0 0
0 0 0
0 0 0
0 0 0
0 0 0
0 0 0
0 0 0
0 0 0
0 0 0
0 0 0
0 0 0
0 0 0
0 0 0
0 0 0
0 0 0
0 0 0
0 0 0
0 0 0
0 0 0
0 0 0
0 0 0
0 0 0
0 0 0
0 0 0
0 0 0
0 0 0
0 0 0
0 0 0
0 0 0
0 0 0
0 0 0
0 0 0
0 0 0
0 0 0
0 0 0
0 0 0
0 0 0
0 0 0
0 0 0
1 0 0
2 0 0
3 0 1
4 1 2
3 0 3
3 0 3
2 1 7
0 4 9
0 0 4
0 2 9
4 17 26
31 43 53
62 77 90
88 109 125
93 121 136
83 113 128
77 107 124
79 113 127
77 115 131
73 115 135
74 115 139
73 116 139
73 116 139
73 117 141
73 117 141
73 117 141
73 117 141
73 116 139
75 116 141
75 116 141
75 116 141
75 116 141
75 116 141
75 116 141
75 116 141
75 116 139
76 115 138
76 115 138
76 115 138
76 115 138
76 115 138
76 115 138
76 115 138
76 115 138
77 115 136
77 115 136
77 115 136
77 115 136
77 115 136
77 115 136
77 115 136
77 115 136
78 116 137
78 116 137
78 116 137
78 116 137
78 116 135
78 116 135
78 116 135
78 117 135
82 120 140
87 124 142
87 124 142
86 122 140
82 120 140
83 118 136
78 117 135
79 115 132
79 115 132
85 116 133
89 120 137
93 121 136
93 121 136
91 117 133
83 113 128
81 106 120
70 92 106
55 79 91
47 64 75
31 51 61
24 35 46
12 20 29
0 12 19
0 1 10
0 0 9
0 0 9
0 0 9
0 0 9
0 1 10
1 4 10
0 4 12
0 6 13
0 6 13
1 4 10
1 4 5
1 4 5
2 1 3
2 3 2
2 1 1
2 1 0
3 1 0
3 1 0
3 2 1
2 1 1
2 1 1
2 1 1
0 0 0
0 0 0
0 0 0
0 0 0
0 0 0
0 0 0
0 0 0
0 0 0
0 0 0
0 0 0
0 0 0
0 0 0
0 0 0
0 0 0
0 0 0
0 0 0
0 0 0
0 0 0
0 0 0
0 0 0
0 0 0
0 0 0
0 0 0
0 0 0
0 0 0
0 0 0
0 0 0
0 0 0
0 0 0
0 0 0
0 0 0
0 0 0
0 0 0
0 0 0
0 0 0
0 0 0
0 0 0
0 0 0
0 0 0
0 0 0
0 0 0
0 0 0
0 0 0
0 0 0
0 0 12
14 29 40
55 79 91
97 124 139
96 123 138
83 113 128
82 113 130
82 115 132
79 115 135
78 116 137
77 116 138
77 116 139
76 115 140
75 117 141
75 118 142
75 118 142
75 118 142
75 118 142
75 118 142
75 118 142
75 118 142
75 117 141
75 117 141
75 117 141
75 117 141
75 117 141
75 117 141
75 117 141
75 117 141
75 117 141
75 117 141
75 117 141
75 117 141
75 116 141
75 116 141
75 116 141
75 116 141
75 116 141
75 116 141
75 116 141
75 116 141
75 116 141
75 116 141
75 116 141
75 116 141
75 116 139
74 116 138
74 116 138
74 116 138
75 116 137
74 116 136
74 116 136
74 116 136
74 116 136
74 117 135
74 117 135
74 117 135
74 117 135
74 117 135
74 117 135
74 117 135
74 117 135
75 116 134
76 116 136
77 117 137
76 116 136
72 113 134
75 113 134
82 120 140
87 124 142
80 117 140
70 105 125
71 110 131
78 117 135
82 120 140
78 117 135
75 117 131
70 105 125
71 110 131
77 117 133
83 118 136
79 113 127
82 115 132
97 124 139
97 121 136
70 92 106
47 64 75
31 51 61
14 29 40
4 17 26
0 4 16
0 4 16
0 6 13
0 6 13
0 4 9
1 4 10
1 4 10
1 4 10
3 4 6
1 4 5
0 0 1
0 0 0
0 0 0
0 0 0
0 0 0
0 0 0
0 0 0
0 0 0
0 0 0
0 0 0
0 0 0
0 0 0
0 0 0
0 0 0
0 0 0
0 0 0
0 0 0
0 0 0
0 0 0
0 0 0
0 0 0
0 0 0
0 0 0
0 0 0
0 0 0
0 0 0
0 0 0
0 0 0
0 0 0
0 0 0
0 0 0
0 0 0
0 0 0
1 1 1
1 1 1
1 1 1
1 1 1
1 1 1
1 1 1
1 1 1
1 1 1
1 1 1
1 1 1
1 1 1
1 1 1
3 2 0
4 2 0
4 2 0
4 2 0
4 2 0
4 2 0
4 2 0
4 2 0
4 2 0
3 4 2
2 3 2
1 4 5
5 6 9
6 12 17
6 12 17
2 10 15
0 4 12
0 12 19
24 35 46
53 72 83
79 97 109
81 106 120
83 113 128
97 121 136
81 101 115
39 51 61
0 4 12
0 0 0
0 0 9
2 1 7
3 1 6
4 1 5
3 0 3
4 1 2
3 0 1
3 0 0
3 1 0
3 1 0
1 2 0
1 2 0
0 2 0
0 2 0
0 2 1
0 2 1
0 2 1
0 2 1
1 1 1
1 1 1
1 1 1
1 1 1
1 1 1
1 1 1
1 1 1
1 1 1
0 0 0
0 0 0
0 0 0
0 0 0
0 0 0
0 0 0
0 0 0
0 0 0
0 0 0
0 0 0
0 0 0
0 0 0
0 0 0
0 0 0
0 0 0
0 0 0
0 0 0
0 0 0
0 0 0
0 0 0
0 0 0
0 0 0
0 0 0
0 0 0
0 0 0
0 0 0
0 0 0
0 0 0
0 0 0
0 0 0
0 0 0
0 0 0
0 0 0
0 0 0
0 0 0
0 0 0
0 0 0
0 0 0
0 0 0
0 0 0
0 0 0
0 0 0
0 0 0
0 0 0
0 0 0
0 0 0
0 0 0
0 0 0
0 0 0
0 0 0
0 0 0
0 0 0
0 0 0
0 0 0
0 0 0
0 0 0
0 0 0
0 0 0
0 0 0
0 0 0
0 0 0
0 0 0
0 0 0
0 0 0
0 0 0
0 0 0
0 0 0
0 0 0
0 0 0
0 0 0
0 0 0
0 0 0
0 0 0
0 0 0
0 0 0
0 0 0
0 0 0
0 0 0
0 0 0
0 0 0
0 0 0
0 0 0
0 0 0
0 0 0
0 0 0
0 0 0
0 0 0
0 0 0
0 0 0
0 0 0
0 0 0
0 0 0
0 0 0
0 0 0
0 0 0
0 0 0
0 0 0
0 0 0
0 0 0
0 0 0
0 0 0
0 0 0
0 0 0
0 0 0
0 0 0
0 0 0
0 0 0
0 0 0
0 0 0
0 0 0
0 0 0
0 0 0
0 0 0
0 0 0
0 0 0
0 0 0
0 0 0
0 0 0
0 0 0
0 0 0
0 0 0
0 0 0
0 0 0
0 0 0
0 0 0
0 0 0
0 0 0
0 0 0
0 0 0
0 0 0
0 0 0
1 0 0
2 0 0
3 0 0
4 0 0
4 1 2
3 0 3
2 1 7
0 4 9
0 0 4
0 1 6
4 17 26
31 43 53
62 77 90
88 109 125
95 118 134
83 113 128
77 107 124
79 113 127
77 115 131
73 115 135
74 115 139
73 116 139
73 117 141
73 117 141
73 117 141
73 117 141
73 117 141
73 116 139
75 116 141
75 116 141
75 116 141
75 116 141
75 116 141
75 116 141
75 116 141
75 116 139
76 115 138
76 115 138
76 115 138
76 115 138
76 115 138
76 115 138
76 115 138
76 115 138
77 115 136
77 115 136
77 115 136
77 115 136
77 115 136
77 115 136
77 115 136
77 115 136
78 116 137
78 116 137
78 116 137
78 116 137
78 116 135
78 116 135
77 115 134
78 116 135
82 120 140
87 124 142
87 124 142
87 124 142
82 120 140
83 118 136
79 115 132
77 115 131
79 113 127
79 113 127
79 113 127
85 116 133
83 113 128
81 106 120
68 87 100
53 72 83
31 51 61
14 29 40
4 17 26
4 17 26
0 12 19
0 4 12
0 0 7
0 0 6
0 0 7
0 0 9
0 1 10
0 1 13
0 4 12
0 4 12
0 6 13
0 6 13
0 6 13
1 6 12
3 4 6
1 4 5
2 1 3
2 1 1
3 1 0
3 1 0
3 1 0
3 1 0
3 1 0
3 1 0
3 1 0
3 1 0
1 0 0
0 0 0
0 0 0
0 0 0
0 0 0
0 0 0
0 0 0
0 0 0
0 0 0
0 0 0
0 0 0
0 0 0
0 0 0
0 0 0
0 0 0
0 0 0
0 0 0
0 0 0
0 0 0
0 0 0
0 0 0
0 0 0
0 0 0
0 0 0
0 0 0
0 0 0
0 0 0
0 0 0
0 0 0
0 0 0
0 0 0
0 0 0
0 0 0
0 0 0
0 0 0
0 0 0
0 0 0
0 0 0
0 0 0
0 0 0
0 0 0
0 0 0
0 0 0
0 0 0
0 0 12
14 29 40
55 79 91
93 121 136
89 120 137
81 110 128
82 113 130
82 115 132
79 115 135
78 116 137
78 116 138
77 117 139
75 117 141
75 117 141
74 118 139
75 118 142
75 118 142
75 117 141
75 118 142
75 117 141
75 117 141
75 116 141
75 116 141
75 116 141
75 116 141
75 116 141
75 116 141
75 116 141
75 116 141
75 116 141
75 116 141
75 116 141
75 116 141
74 115 139
74 115 139
74 115 139
74 115 139
74 115 139
74 115 139
74 115 139
74 115 139
74 115 139
74 115 139
74 115 139
74 115 139
75 116 138
75 116 137
75 116 137
75 116 137
75 116 137
75 116 136
75 116 136
76 115 135
76 115 135
75 116 134
75 116 134
75 116 134
75 116 134
75 116 134
75 116 134
75 116 134
75 116 134
75 116 134
76 115 135
77 116 137
76 115 135
76 113 132
75 113 134
80 117 140
87 124 142
80 117 140
71 110 131
71 110 131
78 117 135
78 117 135
75 117 131
75 117 131
75 117 131
75 117 131
75 117 131
75 117 131
77 115 131
82 115 132
91 117 133
95 118 134
88 109 125
79 97 109
55 79 91
31 51 61
4 17 26
0 1 10
0 1 10
0 8 14
0 8 14
0 4 9
0 4 9
1 4 10
1 4 10
3 4 6
1 4 5
0 0 1
0 0 0
0 0 0
0 0 0
0 0 0
0 0 0
0 0 0
0 0 0
0 0 0
0 0 0
0 0 0
0 0 0
0 0 0
0 0 0
0 0 0
0 0 0
0 0 0
0 0 0
0 0 0
0 0 0
0 0 0
0 0 0
0 0 0
0 0 0
0 0 0
0 0 0
0 0 0
0 0 0
0 0 0
0 0 0
0 0 0
0 0 0
0 0 0
1 1 1
1 1 1
1 1 1
1 1 1
1 1 1
1 1 1
1 1 1
1 1 1
1 1 1
1 1 1
1 1 1
1 1 1
3 2 0
4 2 0
4 2 0
3 2 0
4 2 0
4 2 0
4 2 0
4 2 0
4 2 0
3 2 1
3 4 2
1 2 3
3 4 6
5 6 9
2 6 12
6 8 13
0 1 10
0 2 9
6 12 17
31 43 53
53 72 83
79 97 109
93 116 131
99 127 141
81 101 115
39 51 61
0 4 12
0 0 0
0 0 9
2 1 7
3 1 6
4 1 5
3 0 3
4 1 2
3 0 1
3 0 0
2 1 0
2 1 0
1 2 0
1 2 0
0 2 0
0 2 0
0 2 1
0 2 1
0 2 1
0 2 1
1 1 1
1 1 1
1 1 1
1 1 1
1 1 1
1 1 1
1 1 1
1 1 1
0 0 0
0 0 0
0 0 0
0 0 0
0 0 0
0 0 0
0 0 0
0 0 0
0 0 0
0 0 0
0 0 0
0 0 0
0 0 0
0 0 0
0 0 0
0 0 0
0 0 0
0 0 0
0 0 0
0 0 0
0 0 0
0 0 0
0 0 0
0 0 0
0 0 0
0 0 0
0 0 0
0 0 0
0 0 0
0 0 0
0 0 0
0 0 0
0 0 0
0 0 0
0 0 0
0 0 0
0 0 0
0 0 0
0 0 0
0 0 0
0 0 0
0 0 0
0 0 0
0 0 0
0 0 0
0 0 0
0 0 0
0 0 0
0 0 0
0 0 0
0 0 0
0 0 0
0 0 0
0 0 0
0 0 0
0 0 0
0 0 0
0 0 0
0 0 0
0 0 0
0 0 0
0 0 0
0 0 0
0 0 0
0 0 0
0 0 0
0 0 0
0 0 0
0 0 0
0 0 0
0 0 0
0 0 0
0 0 0
0 0 0
0 0 0
0 0 0
0 0 0
0 0 0
0 0 0
0 0 0
0 0 0
0 0 0
0 0 0
0 0 0
0 0 0
0 0 0
0 0 0
0 0 0
0 0 0
0 0 0
0 0 0
0 0 0
0 0 0
0 0 0
0 0 0
0 0 0
0 0 0
0 0 0
0 0 0
0 0 0
0 0 0
0 0 0
0 0 0
0 0 0
0 0 0
0 0 0
0 0 0
0 0 0
0 0 0
0 0 0
0 0 0
0 0 0
0 0 0
0 0 0
0 0 0
0 0 0
0 0 0
0 0 0
0 0 0
0 0 0
0 0 0
0 0 0
0 0 0
0 0 0
0 0 0
0 0 0
0 0 0
0 0 0
0 0 0
0 0 0
0 0 0
1 0 0
2 0 0
3 0 0
4 0 0
4 1 2
3 0 3
2 1 7
1 1 8
0 0 4
0 1 6
4 17 26
31 43 53
62 77 90
88 109 125
95 118 134
83 113 128
77 107 124
79 113 127
77 115 131
75 113 134
74 115 139
74 114 140
74 114 140
74 114 140
74 114 140
74 114 140
74 114 140
74 115 139
74 115 139
74 115 139
74 115 139
74 115 139
74 115 139
74 115 139
74 115 139
75 116 138
77 115 137
77 115 137
77 115 137
77 115 137
77 115 137
77 116 138
77 116 138
77 116 138
76 114 136
76 114 136
76 114 136
76 114 136
76 114 136
76 114 136
76 114 136
76 114 136
77 115 134
77 115 134
77 115 134
79 114 134
79 114 134
78 115 132
76 113 132
78 115 132
86 121 140
99 127 141
99 127 141
87 124 142
87 124 142
86 122 140
86 122 140
83 118 136
77 107 124
71 97 112
68 87 100
55 79 91
55 79 91
47 64 75
31 51 61
24 35 46
12 20 29
0 12 19
0 4 16
0 0 12
0 1 13
0 1 10
0 2 9
2 4 11
2 6 12
0 6 13
0 6 13
0 8 14
0 8 14
0 8 14
0 6 13
1 6 12
0 4 9
0 4 9
3 4 6
1 4 5
2 1 3
2 1 1
3 1 0
3 1 0
3 1 0
3 1 0
3 1 0
4 2 0
4 2 0
4 2 0
1 0 0
0 0 0
0 0 0
0 0 0
0 0 0
0 0 0
0 0 0
0 0 0
0 0 0
0 0 0
0 0 0
0 0 0
0 0 0
0 0 0
0 0 0
0 0 0
0 0 0
0 0 0
0 0 0
0 0 0
0 0 0
0 0 0
0 0 0
0 0 0
0 0 0
0 0 0
0 0 0
0 0 0
0 0 0
0 0 0
0 0 0
0 0 0
0 0 0
0 0 0
0 0 0
0 0 0
0 0 0
0 0 0
0 0 0
0 0 0
0 0 0
0 0 0
0 0 0
0 0 0
0 0 12
14 29 40
55 79 91
96 123 138
93 121 136
83 113 128
82 113 130
82 115 132
79 114 134
79 115 135
78 116 135
77 117 137
75 118 138
75 118 138
75 118 138
75 117 139
75 117 139
77 116 139
78 115 139
78 115 139
77 115 139
78 115 139
78 115 139
78 115 139
78 115 139
78 115 139
78 115 139
78 115 139
78 115 139
78 115 139
78 115 139
78 115 139
78 115 139
77 114 138
77 114 138
77 114 138
77 114 138
77 114 138
77 114 138
77 114 138
77 114 138
77 114 138
77 114 138
77 114 138
77 114 138
77 115 137
77 115 136
77 115 136
77 115 136
77 115 136
77 115 136
77 115 136
77 115 134
77 115 134
77 115 134
77 115 134
77 115 134
77 115 134
77 115 134
77 115 134
77 115 134
77 115 134
77 115 134
77 115 134
77 115 134
77 115 134
76 113 132
77 115 134
78 117 135
82 120 140
82 117 137
76 113 132
77 115 131
77 117 133
75 117 131
75 117 131
75 117 131
77 117 133
75 118 134
71 110 131
70 105 125
75 117 131
82 115 132
81 110 128
90 113 128
97 121 136
97 121 136
81 106 120
53 72 83
23 29 39
0 0 12
0 0 9
0 6 13
1 6 12
0 1 6
1 1 8
1 4 10
3 4 6
3 4 6
2 1 3
0 0 1
0 0 0
0 0 0
0 0 0
0 0 0
0 0 0
0 0 0
0 0 0
0 0 0
0 0 0
0 0 0
0 0 0
0 0 0
0 0 0
0 0 0
0 0 0
0 0 0
0 0 0
0 0 0
0 0 0
0 0 0
0 0 0
0 0 0
0 0 0
0 0 0
0 0 0
0 0 0
0 0 0
0 0 0
0 0 0
0 0 0
0 0 0
0 0 0
1 1 1
1 1 1
1 1 1
1 1 1
1 1 1
1 1 1
1 1 1
1 1 1
1 1 1
1 1 1
1 1 1
1 1 1
3 2 0
4 2 0
4 2 0
3 1 0
3 0 0
4 0 0
4 0 0
3 1 0
3 1 0
4 2 0
4 2 0
3 2 1
1 1 2
0 1 1
0 1 3
0 1 6
0 1 6
0 1 6
0 4 9
4 17 26
31 43 53
68 87 100
93 116 131
99 127 141
81 101 115
39 51 61
0 1 10
0 0 0
0 0 9
2 1 7
3 1 6
4 1 5
3 0 3
4 1 2
3 0 1
2 1 0
1 2 0
1 2 0
1 2 0
1 2 0
0 2 0
0 2 0
0 2 1
0 2 1
0 2 1
0 2 1
1 1 1
1 1 1
1 1 1
1 1 1
1 1 1
1 1 1
1 1 1
1 1 1
0 0 0
0 0 0
0 0 0
0 0 0
0 0 0
0 0 0
0 0 0
0 0 0
0 0 0
0 0 0
0 0 0
0 0 0
0 0 0
0 0 0
0 0 0
0 0 0
0 0 0
0 0 0
0 0 0
0 0 0
0 0 0
0 0 0
0 0 0
0 0 0
0 0 0
0 0 0
0 0 0
0 0 0
0 0 0
0 0 0
0 0 0
0 0 0
0 0 0
0 0 0
0 0 0
0 0 0
0 0 0
0 0 0
0 0 0
0 0 0
0 0 0
0 0 0
0 0 0
0 0 0
0 0 0
0 0 0
0 0 0
0 0 0
0 0 0
0 0 0
0 0 0
0 0 0
0 0 0
0 0 0
0 0 0
0 0 0
0 0 0
0 0 0
0 0 0
0 0 0
0 0 0
0 0 0
0 0 0
0 0 0
0 0 0
0 0 0
0 0 0
0 0 0
0 0 0
0 0 0
0 0 0
0 0 0
0 0 0
0 0 0
0 0 0
0 0 0
0 0 0
0 0 0
0 0 0
0 0 0
0 0 0
0 0 0
0 0 0
0 0 0
0 0 0
0 0 0
0 0 0
0 0 0
0 0 0
0 0 0
0 0 0
0 0 0
0 0 0
0 0 0
0 0 0
0 0 0
0 0 0
0 0 0
0 0 0
0 0 0
0 0 0
0 0 0
0 0 0
0 0 0
0 0 0
0 0 0
0 0 0
0 0 0
0 0 0
0 0 0
0 0 0
0 0 0
0 0 0
0 0 0
0 0 0
0 0 0
0 0 0
0 0 0
0 0 0
0 0 0
0 0 0
0 0 0
0 0 0
0 0 0
0 0 0
0 0 0
0 0 0
0 0 0
0 0 0
0 0 0
0 0 0
1 0 0
2 0 0
3 0 0
4 0 0
4 1 2
3 0 3
1 1 5
1 4 5
0 0 3
0 1 6
4 17 26
31 43 53
62 77 90
88 109 125
95 118 134
83 113 128
81 106 120
77 107 124
79 113 127
77 115 134
76 114 136
76 114 136
76 114 136
76 114 136
76 114 136
76 114 136
76 114 136
75 116 138
76 115 138
77 116 138
77 114 138
77 114 138
77 114 138
77 115 137
77 115 136
77 115 136
77 115 136
77 115 136
79 114 136
79 114 136
79 114 136
79 114 136
79 114 136
79 114 136
79 114 134
79 114 134
79 113 135
79 113 135
79 113 135
79 113 135
79 113 135
79 113 135
79 113 132
79 113 132
79 113 132
82 115 132
82 115 132
82 113 130
79 113 127
82 113 130
83 118 136
96 123 138
96 123 138
89 118 136
82 115 132
79 113 127
79 113 127
77 107 124
70 92 106
53 72 83
31 51 61
23 41 52
14 29 40
4 17 26
2 10 15
2 10 15
0 8 14
0 8 14
0 6 13
0 4 16
0 4 16
0 4 16
0 8 14
2 10 15
2 10 15
2 10 15
2 10 15
0 8 14
0 8 14
0 6 13
0 4 12
0 4 9
0 3 5
0 3 5
1 4 5
1 4 5
2 1 3
2 1 1
3 1 0
3 1 0
3 1 0
3 1 0
3 1 0
3 1 0
3 1 0
3 1 0
1 0 0
0 0 0
0 0 0
0 0 0
0 0 0
0 0 0
0 0 0
0 0 0
0 0 0
0 0 0
0 0 0
0 0 0
0 0 0
0 0 0
0 0 0
0 0 0
0 0 0
0 0 0
0 0 0
0 0 0
0 0 0
0 0 0
0 0 0
0 0 0
0 0 0
0 0 0
0 0 0
0 0 0
0 0 0
0 0 0
0 0 0
0 0 0
0 0 0
0 0 0
0 0 0
0 0 0
0 0 0
0 0 0
0 0 0
0 0 0
0 0 0
0 0 0
0 0 0
0 0 0
0 0 12
14 29 40
68 87 100
99 127 141
99 127 141
83 113 128
82 113 130
82 113 130
79 113 132
79 113 132
76 113 132
76 113 132
75 116 134
75 117 131
75 116 134
76 115 135
76 114 136
76 114 136
79 113 135
79 113 135
79 113 135
79 113 135
79 113 135
79 113 135
79 113 135
79 113 135
79 113 135
79 113 135
79 113 135
79 113 135
79 113 135
79 113 135
79 113 135
79 113 135
79 113 135
79 113 135
79 113 135
79 113 135
79 113 135
79 113 135
79 113 135
79 113 135
79 113 135
79 113 135
79 113 135
79 113 135
79 114 134
79 114 134
79 114 134
79 114 134
79 114 134
79 114 134
78 115 132
78 115 132
79 114 134
79 114 134
79 114 134
78 115 132
79 114 134
79 114 134
79 114 134
79 114 134
78 115 132
78 115 132
78 115 132
78 115 132
78 115 132
77 115 134
79 115 135
78 117 135
78 117 135
78 115 132
78 115 132
77 117 133
75 117 131
75 117 131
75 117 131
77 117 133
77 117 133
71 110 131
70 105 125
75 117 131
79 115 132
81 110 128
90 113 128
95 118 134
99 127 141
95 118 134
79 97 109
39 51 61
12 20 29
1 4 10
0 0 3
0 0 4
0 0 6
1 4 10
3 4 6
3 4 6
2 1 2
1 0 1
1 0 0
0 0 0
0 0 0
0 0 0
0 0 0
0 0 0
0 0 0
0 0 0
0 0 0
0 0 0
0 0 0
0 0 0
0 0 0
0 0 0
0 0 0
0 0 0
0 0 0
0 0 0
0 0 0
0 0 0
0 0 0
0 0 0
0 0 0
0 0 0
0 0 0
0 0 0
0 0 0
0 0 0
0 0 0
0 0 0
0 0 0
0 0 0
0 0 0
1 1 1
1 1 1
1 1 1
1 1 1
1 1 1
1 1 1
1 1 1
1 1 1
1 1 1
1 1 1
1 1 1
1 1 1
2 1 0
3 2 0
3 1 0
3 1 0
3 0 0
4 0 0
3 0 0
3 1 0
3 1 0
4 2 0
4 2 0
2 1 1
0 0 1
0 0 0
0 0 0
0 1 3
0 1 6
1 4 10
0 0 6
0 2 9
12 20 29
47 64 75
79 97 109
97 121 136
88 109 125
39 51 61
1 1 8
0 0 0
1 1 8
2 4 11
1 1 5
3 0 3
3 0 3
4 1 2
3 0 1
2 1 0
1 2 0
1 2 0
1 2 0
1 2 0
0 2 0
0 2 0
0 2 1
0 2 1
0 2 1
0 2 1
1 1 1
1 1 1
1 1 1
1 1 1
1 1 1
1 1 1
1 1 1
1 1 1
0 0 0
0 0 0
0 0 0
0 0 0
0 0 0
0 0 0
0 0 0
0 0 0
0 0 0
0 0 0
0 0 0
0 0 0
0 0 0
0 0 0
0 0 0
0 0 0
0 0 0
0 0 0
0 0 0
0 0 0
0 0 0
0 0 0
0 0 0
0 0 0
0 0 0
0 0 0
0 0 0
0 0 0
0 0 0
0 0 0
0 0 0
0 0 0
0 0 0
0 0 0
0 0 0
0 0 0
0 0 0
0 0 0
0 0 0
0 0 0
0 0 0
0 0 0
0 0 0
0 0 0
0 0 0
0 0 0
0 0 0
0 0 0
0 0 0
0 0 0
0 0 0
0 0 0
0 0 0
0 0 0
0 0 0
0 0 0
0 0 0
0 0 0
0 0 0
0 0 0
0 0 0
0 0 0
0 0 0
0 0 0
0 0 0
0 0 0
0 0 0
0 0 0
0 0 0
0 0 0
0 0 0
0 0 0
0 0 0
0 0 0
0 0 0
0 0 0
0 0 0
0 0 0
0 0 0
0 0 0
0 0 0
0 0 0
0 0 0
0 0 0
0 0 0
0 0 0
0 0 0
0 0 0
0 0 0
0 0 0
0 0 0
0 0 0
0 0 0
0 0 0
0 0 0
0 0 0
0 0 0
0 0 0
0 0 0
0 0 0
0 0 0
0 0 0
0 0 0
0 0 0
0 0 0
0 0 0
0 0 0
0 0 0
0 0 0
0 0 0
0 0 0
0 0 0
0 0 0
0 0 0
0 0 0
0 0 0
0 0 0
0 0 0
0 0 0
0 0 0
0 0 0
0 0 0
0 0 0
0 0 0
0 0 0
0 0 0
0 0 0
0 0 0
0 0 0
1 0 0
1 0 0
2 0 0
2 0 0
3 0 0
3 0 0
3 0 1
2 0 2
1 1 5
0 1 6
0 0 2
0 0 6
6 12 17
31 43 53
62 77 90
88 109 125
93 116 131
84 109 126
81 106 120
81 106 120
83 113 128
79 113 132
76 113 132
75 113 134
75 113 134
75 113 134
75 113 134
75 113 134
75 113 134
76 114 136
76 114 136
79 114 134
79 113 135
79 113 135
79 113 135
79 113 135
79 114 134
79 114 134
79 115 135
79 114 134
79 113 135
79 113 132
79 113 132
77 111 130
77 111 130
79 113 132
79 113 132
82 115 132
83 113 135
83 113 135
83 113 135
82 115 132
82 115 132
85 116 133
89 120 137
93 121 136
93 121 136
93 121 136
89 120 137
89 118 136
91 117 133
91 117 133
90 116 132
84 109 126
81 101 115
70 92 106
55 79 91
53 72 83
47 64 75
47 64 75
39 51 61
23 41 52
12 20 29
0 12 19
0 6 13
0 0 5
0 0 3
0 0 4
0 2 9
1 6 12
2 6 12
0 4 16
0 4 16
0 6 13
0 8 14
0 8 14
0 8 14
0 8 14
1 6 12
0 6 13
1 6 12
0 4 9
0 4 9
0 3 5
0 2 4
0 2 3
1 3 2
1 3 2
2 2 2
2 1 1
3 1 0
3 1 0
4 2 0
3 1 0
2 1 0
2 1 0
2 1 0
2 1 0
1 0 0
0 0 0
0 0 0
0 0 0
0 0 0
0 0 0
0 0 0
0 0 0
0 0 0
0 0 0
0 0 0
0 0 0
0 0 0
0 0 0
0 0 0
0 0 0
0 0 0
0 0 0
0 0 0
0 0 0
0 0 0
0 0 0
0 0 0
0 0 0
0 0 0
0 0 0
0 0 0
0 0 0
0 0 0
0 0 0
0 0 0
0 0 0
0 0 0
0 0 0
0 0 0
0 0 0
0 0 0
0 0 0
0 0 0
0 0 0
0 0 0
0 0 0
0 0 0
0 0 0
0 0 12
14 29 40
70 92 106
99 127 141
99 127 141
90 116 132
85 113 132
82 113 130
81 110 128
81 110 128
77 111 130
77 111 130
77 111 130
77 115 131
77 115 131
76 113 132
79 113 132
79 113 132
82 113 130
82 113 130
85 113 132
85 113 132
85 113 132
85 113 132
85 113 132
85 113 132
85 113 132
85 113 132
85 113 132
85 113 132
85 113 132
85 113 132
85 113 132
82 115 132
83 113 135
83 113 135
83 113 135
83 113 135
83 113 135
83 113 135
83 113 135
83 113 135
83 113 135
83 113 135
83 113 135
83 113 135
83 113 135
83 113 135
83 113 135
83 113 135
83 113 135
83 113 135
83 113 135
83 113 135
83 113 135
83 113 135
83 113 135
83 113 135
83 113 135
83 113 135
82 115 132
82 115 132
82 115 132
82 115 132
79 114 134
82 115 132
79 114 134
82 115 132
83 118 136
83 118 136
82 115 132
78 115 132
77 115 131
77 117 133
79 115 132
79 115 132
77 117 133
77 115 131
75 117 131
75 117 131
75 117 131
77 115 131
82 115 132
91 117 133
93 116 131
90 113 128
93 116 131
97 121 136
93 116 131
79 97 109
39 51 61
12 20 29
0 0 0
0 0 0
0 0 7
5 6 9
5 4 5
6 1 4
2 0 0
1 0 0
2 0 0
1 0 0
0 0 0
0 0 0
0 0 0
0 0 0
0 0 0
0 0 0
0 0 0
0 0 0
0 0 0
0 0 0
0 0 0
0 0 0
0 0 0
0 0 0
0 0 0
0 0 0
0 0 0
0 0 0
0 0 0
0 0 0
0 0 0
0 0 0
0 0 0
0 0 0
0 0 0
0 0 0
0 0 0
0 0 0
0 0 0
0 0 0
0 0 0
1 1 1
1 1 1
1 1 1
1 1 1
1 1 1
1 1 1
1 1 1
1 1 1
1 1 1
1 1 1
1 1 1
1 1 1
1 1 1
1 1 1
2 0 1
3 0 1
3 0 1
3 1 0
2 1 0
2 0 0
2 0 0
3 1 0
3 1 0
1 1 1
1 1 1
1 1 1
1 1 1
0 2 2
0 2 4
1 4 5
0 0 5
0 0 4
6 8 13
23 29 39
53 72 83
88 109 125
88 109 125
39 51 61
0 0 6
0 0 0
1 1 8
1 4 10
1 1 5
2 1 3
3 0 3
3 0 2
3 0 1
2 1 0
1 2 0
1 2 0
1 1 1
1 1 1
1 1 1
1 1 1
1 1 1
1 1 1
1 1 1
1 1 1
1 1 1
1 1 1
1 1 1
1 1 1
1 1 1
1 1 1
1 1 1
1 1 1
0 0 0
0 0 0
0 0 0
0 0 0
0 0 0
0 0 0
0 0 0
0 0 0
0 0 0
0 0 0
0 0 0
0 0 0
0 0 0
0 0 0
0 0 0
0 0 0
0 0 0
0 0 0
0 0 0
0 0 0
0 0 0
0 0 0
0 0 0
0 0 0
0 0 0
0 0 0
0 0 0
0 0 0
0 0 0
0 0 0
0 0 0
0 0 0
0 0 0
0 0 0
0 0 0
0 0 0
0 0 0
0 0 0
0 0 0
0 0 0
0 0 0
0 0 0
0 0 0
0 0 0
0 0 0
0 0 0
0 0 0
0 0 0
0 0 0
0 0 0
0 0 0
0 0 0
0 0 0
0 0 0
0 0 0
0 0 0
0 0 0
0 0 0
0 0 0
0 0 0
0 0 0
0 0 0
0 0 0
0 0 0
0 0 0
0 0 0
0 0 0
0 0 0
0 0 0
0 0 0
0 0 0
0 0 0
0 0 0
0 0 0
0 0 0
0 0 0
0 0 0
0 0 0
0 0 0
0 0 0
0 0 0
0 0 0
0 0 0
0 0 0
0 0 0
0 0 0
0 0 0
0 0 0
0 0 0
0 0 0
0 0 0
0 0 0
0 0 0
0 0 0
0 0 0
0 0 0
0 0 0
0 0 0
0 0 0
0 0 0
0 0 0
0 0 0
0 0 0
0 0 0
0 0 0
0 0 0
0 0 0
0 0 0
0 0 0
0 0 0
0 0 0
0 0 0
0 0 0
0 0 0
0 0 0
0 0 0
0 0 0
0 0 0
0 0 0
0 0 0
0 0 0
0 0 0
0 0 0
0 0 0
0 0 0
0 0 0
0 0 0
0 0 0
0 0 0
2 1 0
3 1 0
3 1 0
3 1 0
4 2 0
3 0 0
3 0 1
2 0 2
2 1 3
0 1 6
0 0 3
0 1 6
6 12 17
31 43 53
62 77 90
88 109 125
93 116 131
81 106 120
71 97 112
84 109 126
90 113 128
82 113 130
82 113 130
79 113 132
79 113 132
79 113 132
79 113 132
79 113 132
79 113 132
79 114 134
79 114 134
83 113 135
83 113 135
83 113 135
83 113 135
83 113 135
82 115 136
82 115 136
82 115 136
83 113 135
83 113 135
85 113 132
82 113 130
81 110 128
81 110 128
82 113 130
82 113 130
85 113 132
85 113 132
90 116 132
85 113 132
83 113 128
83 113 128
85 113 132
91 117 133
93 121 136
93 121 136
90 116 132
83 113 128
88 109 125
88 109 125
81 106 120
79 97 109
68 87 100
53 72 83
31 51 61
23 41 52
12 20 29
4 17 26
6 12 17
6 12 17
2 10 15
0 8 14
0 6 13
0 4 9
0 4 9
0 3 5
0 2 9
0 4 9
0 4 9
0 4 9
0 2 9
0 2 9
1 1 8
0 1 6
0 1 6
0 1 6
0 1 6
0 1 6
0 1 6
0 2 4
0 1 6
0 3 5
0 3 5
0 2 4
1 1 2
2 2 2
2 2 2
1 1 1
1 1 1
2 0 1
3 0 1
4 0 0
3 0 1
1 0 0
0 0 0
0 0 0
0 0 0
0 0 0
0 0 0
0 0 0
0 0 0
0 0 0
0 0 0
0 0 0
0 0 0
0 0 0
0 0 0
0 0 0
0 0 0
0 0 0
0 0 0
0 0 0
0 0 0
0 0 0
0 0 0
0 0 0
0 0 0
0 0 0
0 0 0
0 0 0
0 0 0
0 0 0
0 0 0
0 0 0
0 0 0
0 0 0
0 0 0
0 0 0
0 0 0
0 0 0
0 0 0
0 0 0
0 0 0
0 0 0
0 0 0
0 0 0
0 0 0
0 0 0
0 0 0
0 0 0
0 0 0
0 1 13
14 29 40
68 87 100
99 127 141
99 127 141
95 118 134
95 118 134
89 120 137
89 120 137
89 120 137
89 120 137
89 120 137
89 120 137
86 122 140
86 122 140
89 120 137
89 120 137
93 121 136
93 121 136
95 118 134
95 118 134
93 121 136
93 121 136
93 121 136
97 121 136
95 118 134
95 118 134
93 121 136
93 121 136
93 121 136
93 121 136
93 121 136
93 121 136
93 121 136
93 121 136
93 121 136
93 121 136
93 121 136
93 121 136
93 121 136
93 121 136
93 121 136
93 121 136
93 121 136
93 121 136
93 121 136
93 121 136
93 121 136
93 121 136
93 121 136
93 121 136
93 121 136
93 121 136
93 121 136
93 121 136
93 121 136
93 121 136
93 121 136
93 121 136
93 121 136
89 120 137
89 120 137
89 120 137
89 120 137
89 120 137
89 120 137
89 120 137
89 120 137
87 124 142
97 124 139
87 124 142
86 122 140
86 122 140
86 122 140
87 124 142
87 124 142
86 122 140
89 120 137
86 122 140
86 122 140
86 122 140
89 120 137
93 121 136
99 127 141
97 124 139
90 113 128
88 109 125
97 121 136
99 127 141
93 116 131
68 87 100
39 51 61
12 20 29
6 8 13
6 8 13
2 4 11
4 1 5
5 4 5
6 1 4
5 4 5
3 0 1
1 0 0
0 0 0
0 0 0
0 0 0
0 0 0
0 0 0
0 0 0
0 0 0
0 0 0
0 0 0
0 0 0
0 0 0
0 0 0
0 0 0
0 0 0
0 0 0
0 0 0
0 0 0
0 0 0
0 0 0
0 0 0
0 0 0
0 0 0
0 0 0
0 0 0
0 0 0
0 0 0
0 0 0
0 0 0
0 0 0
0 0 0
0 0 0
1 1 1
1 1 1
1 1 1
1 1 1
1 1 1
1 1 1
1 1 1
1 1 1
1 1 1
1 1 1
1 1 1
1 1 1
1 1 1
1 1 1
1 0 1
2 0 1
2 0 1
3 1 0
2 1 0
1 0 0
1 0 0
3 1 0
3 1 0
1 1 1
2 1 1
1 2 1
1 1 1
0 2 1
0 2 3
1 4 5
1 4 5
1 1 5
1 4 5
6 12 17
31 43 53
68 87 100
79 97 109
39 51 61
0 0 6
0 0 0
1 1 8
1 4 10
1 1 5
2 1 3
3 0 2
3 0 1
2 1 1
2 1 0
1 2 0
1 2 0
1 1 1
1 1 1
1 1 1
1 1 1
1 1 1
1 1 1
1 1 1
1 1 1
1 1 1
1 1 1
1 1 1
1 1 1
1 1 1
1 1 1
1 1 1
1 1 1
0 0 0
0 0 0
0 0 0
0 0 0
0 0 0
0 0 0
0 0 0
0 0 0
0 0 0
0 0 0
0 0 0
0 0 0
0 0 0
0 0 0
0 0 0
0 0 0
0 0 0
0 0 0
0 0 0
0 0 0
0 0 0
0 0 0
0 0 0
0 0 0
0 0 0
0 0 0
0 0 0
0 0 0
0 0 0
0 0 0
0 0 0
0 0 0
0 0 0
0 0 0
0 0 0
0 0 0
0 0 0
0 0 0
0 0 0
0 0 0
0 0 0
0 0 0
0 0 0
0 0 0
0 0 0
0 0 0
0 0 0
0 0 0
0 0 0
0 0 0
0 0 0
0 0 0
0 0 0
0 0 0
0 0 0
0 0 0
0 0 0
0 0 0
0 0 0
0 0 0
0 0 0
0 0 0
0 0 0
0 0 0
0 0 0
0 0 0
0 0 0
0 0 0
0 0 0
0 0 0
0 0 0
0 0 0
0 0 0
0 0 0
0 0 0
0 0 0
0 0 0
0 0 0
0 0 0
0 0 0
0 0 0
0 0 0
0 0 0
0 0 0
0 0 0
0 0 0
0 0 0
0 0 0
0 0 0
0 0 0
0 0 0
0 0 0
0 0 0
0 0 0
0 0 0
0 0 0
0 0 0
0 0 0
0 0 0
0 0 0
0 0 0
0 0 0
0 0 0
0 0 0
0 0 0
0 0 0
0 0 0
0 0 0
0 0 0
0 0 0
0 0 0
0 0 0
0 0 0
0 0 0
0 0 0
0 0 0
0 0 0
0 0 0
0 0 0
0 0 0
0 0 0
0 0 0
0 0 0
0 0 0
0 0 0
0 0 0
0 0 0
0 0 0
0 0 0
2 1 0
3 1 0
3 1 0
3 1 0
6 1 4
6 1 4
5 4 5
5 4 5
5 6 9
5 6 9
1 4 5
0 4 9
12 20 29
39 51 61
68 87 100
93 116 131
97 121 136
88 109 125
81 106 120
90 113 128
97 121 136
96 123 138
93 121 136
93 121 136
96 123 138
93 121 136
93 121 136
93 121 136
93 121 136
96 123 138
96 123 138
97 124 139
96 123 138
96 123 138
96 123 138
96 123 138
97 124 139
97 124 139
97 124 139
97 124 139
97 124 139
99 127 141
99 127 141
99 127 141
99 127 141
99 127 141
97 124 139
97 121 136
95 118 134
90 116 132
84 109 126
81 106 120
81 106 120
81 101 115
71 97 112
70 92 106
70 92 106
68 87 100
55 79 91
55 79 91
53 72 83
53 72 83
47 64 75
31 51 61
24 35 46
14 29 40
0 12 19
0 4 9
0 0 2
0 0 0
0 0 1
0 0 4
0 1 6
1 4 10
2 6 12
2 6 12
2 6 12
1 6 12
1 4 10
0 4 9
0 1 6
0 1 6
0 1 6
0 0 5
0 0 4
0 0 4
0 0 4
0 0 4
0 0 4
0 0 4
0 0 3
0 2 4
0 3 5
0 2 4
0 1 3
1 1 2
2 1 1
2 1 1
1 1 1
1 1 1
2 0 1
2 0 1
3 0 1
2 0 1
0 0 0
0 0 0
0 0 0
0 0 0
0 0 0
0 0 0
0 0 0
0 0 0
0 0 0
0 0 0
0 0 0
0 0 0
0 0 0
0 0 0
0 0 0
0 0 0
0 0 0
0 0 0
0 0 0
0 0 0
0 0 0
0 0 0
0 0 0
0 0 0
0 0 0
0 0 0
0 0 0
0 0 0
0 0 0
0 0 0
0 0 0
0 0 0
0 0 0
0 0 0
0 0 0
0 0 0
0 0 0
0 0 0
0 0 0
0 0 0
0 0 0
0 0 0
0 0 0
0 0 0
0 0 0
0 0 0
0 0 0
0 0 0
0 4 16
14 29 40
62 77 90
90 113 128
93 116 131
88 109 125
90 113 128
93 116 131
95 118 134
97 121 136
93 121 136
93 121 136
93 121 136
93 121 136
93 121 136
91 117 133
91 117 133
93 116 131
93 116 131
93 116 131
93 116 131
93 116 131
93 116 131
93 116 131
93 116 131
93 116 131
93 116 131
93 116 131
93 116 131
93 116 131
93 116 131
93 116 131
93 116 131
93 116 131
93 116 131
93 116 131
93 116 131
93 116 131
93 116 131
93 116 131
93 116 131
93 116 131
91 117 133
91 117 133
91 117 133
91 117 133
91 117 133
91 117 133
91 117 133
91 117 133
91 117 133
91 117 133
91 117 133
91 117 133
91 117 133
91 117 133
91 117 133
91 117 133
91 117 133
91 117 133
91 117 133
91 117 133
91 117 133
91 117 133
89 118 136
89 118 136
91 117 133
89 118 136
93 121 136
93 121 136
89 120 137
85 116 133
85 116 133
89 120 137
89 120 137
89 120 137
89 120 137
89 118 136
83 118 136
83 118 136
83 118 136
85 116 133
91 117 133
97 121 136
95 118 134
88 109 125
81 101 115
90 113 128
97 121 136
93 116 131
79 97 109
62 77 90
39 51 61
23 29 39
6 8 13
0 0 4
0 0 1
5 4 5
6 8 13
5 6 9
4 1 2
0 0 0
0 0 0
0 0 0
0 0 0
0 0 0
0 0 0
0 0 0
0 0 0
0 0 0
0 0 0
0 0 0
0 0 0
0 0 0
0 0 0
0 0 0
0 0 0
0 0 0
0 0 0
0 0 0
0 0 0
0 0 0
0 0 0
0 0 0
0 0 0
0 0 0
0 0 0
0 0 0
0 0 0
0 0 0
0 0 0
0 0 0
0 0 0
1 1 1
1 1 1
1 1 1
1 1 1
1 1 1
1 1 1
1 1 1
1 1 1
1 1 1
1 1 1
1 1 1
1 1 1
1 1 1
1 1 1
0 1 1
0 0 0
1 0 0
2 0 0
1 0 0
0 0 0
0 0 0
2 0 0
2 0 0
2 0 0
2 0 0
1 1 1
1 1 1
1 1 1
1 1 1
1 3 2
1 4 5
1 1 5
0 1 5
0 1 6
12 20 29
39 51 61
47 64 75
23 29 39
0 0 7
0 0 1
2 4 11
2 4 11
1 1 5
2 1 3
3 0 1
2 1 0
1 2 0
1 2 0
1 2 0
1 2 0
1 1 1
1 1 1
1 1 1
1 1 1
1 1 1
1 1 1
1 1 1
1 1 1
1 1 1
1 1 1
1 1 1
1 1 1
1 1 1
1 1 1
1 1 1
1 1 1
0 0 0
0 0 0
0 0 0
0 0 0
0 0 0
0 0 0
0 0 0
0 0 0
0 0 0
0 0 0
0 0 0
0 0 0
0 0 0
0 0 0
0 0 0
0 0 0
0 0 0
0 0 0
0 0 0
0 0 0
0 0 0
0 0 0
0 0 0
0 0 0
0 0 0
0 0 0
0 0 0
0 0 0
0 0 0
0 0 0
0 0 0
0 0 0
0 0 0
0 0 0
0 0 0
0 0 0
0 0 0
0 0 0
0 0 0
0 0 0
0 0 0
0 0 0
0 0 0
0 0 0
0 0 0
0 0 0
0 0 0
0 0 0
0 0 0
0 0 0
0 0 0
0 0 0
0 0 0
0 0 0
0 0 0
0 0 0
0 0 0
0 0 0
0 0 0
0 0 0
0 0 0
0 0 0
0 0 0
0 0 0
0 0 0
0 0 0
0 0 0
0 0 0
0 0 0
0 0 0
0 0 0
0 0 0
0 0 0
0 0 0
0 0 0
0 0 0
0 0 0
0 0 0
0 0 0
0 0 0
0 0 0
0 0 0
0 0 0
0 0 0
0 0 0
0 0 0
0 0 0
0 0 0
0 0 0
0 0 0
0 0 0
0 0 0
0 0 0
0 0 0
0 0 0
0 0 0
0 0 0
0 0 0
0 0 0
0 0 0
0 0 0
0 0 0
0 0 0
0 0 0
0 0 0
0 0 0
0 0 0
0 0 0
0 0 0
0 0 0
0 0 0
0 0 0
0 0 0
0 0 0
0 0 0
0 0 0
0 0 0
0 0 0
0 0 0
0 0 0
0 0 0
0 0 0
0 0 0
0 0 0
0 0 0
0 0 0
0 0 0
0 0 0
0 0 0
2 0 0
2 0 0
1 0 0
2 0 0
5 4 5
6 8 13
6 8 13
5 6 9
6 8 13
6 8 13
1 4 10
0 8 14
12 20 29
39 51 61
68 87 100
90 113 128
93 116 131
88 109 125
81 101 115
88 109 125
93 116 131
95 118 134
97 121 136
97 121 136
97 121 136
93 121 136
93 121 136
93 121 136
93 121 136
97 121 136
96 123 138
96 123 138
97 121 136
97 121 136
97 121 136
97 121 136
97 121 136
97 121 136
97 121 136
97 121 136
96 123 138
99 127 141
99 127 141
99 127 141
99 127 141
99 127 141
97 121 136
90 113 128
81 106 120
81 101 115
70 92 106
68 87 100
68 87 100
55 79 91
47 64 75
31 51 61
31 43 53
23 41 52
24 35 46
14 29 40
12 20 29
12 20 29
4 17 26
6 12 17
2 10 15
0 8 14
0 6 13
0 4 9
0 2 9
0 1 6
0 0 6
0 1 6
0 2 9
0 3 5
0 3 5
0 4 5
0 4 5
0 4 5
0 3 5
0 1 6
0 1 6
0 1 5
0 1 4
0 1 4
0 0 4
0 0 4
0 0 4
0 0 4
0 1 4
0 1 4
0 1 4
0 2 4
0 2 3
0 1 3
0 0 2
0 0 2
1 1 1
1 1 1
1 1 1
1 1 1
1 1 1
1 1 1
1 1 1
1 1 1
0 0 0
0 0 0
0 0 0
0 0 0
0 0 0
0 0 0
0 0 0
0 0 0
0 0 0
0 0 0
0 0 0
0 0 0
0 0 0
0 0 0
0 0 0
0 0 0
0 0 0
0 0 0
0 0 0
0 0 0
0 0 0
0 0 0
0 0 0
0 0 0
0 0 0
0 0 0
0 0 0
0 0 0
0 0 0
0 0 0
0 0 0
0 0 0
0 0 0
0 0 0
0 0 0
0 0 0
0 0 0
0 0 0
0 0 0
0 0 0
0 0 0
0 0 0
0 0 0
0 0 0
0 0 0
0 0 0
0 0 0
0 0 0
0 4 16
12 20 29
39 51 61
62 77 90
62 77 90
62 77 90
68 87 100
68 87 100
68 87 100
68 87 100
68 87 100
68 87 100
68 87 100
68 87 100
68 87 100
68 87 100
68 87 100
68 87 100
68 87 100
68 87 100
68 87 100
68 87 100
68 87 100
68 87 100
68 87 100
68 87 100
68 87 100
68 87 100
68 87 100
68 87 100
68 87 100
68 87 100
68 87 100
68 87 100
68 87 100
68 87 100
68 87 100
68 87 100
68 87 100
68 87 100
68 87 100
68 87 100
68 87 100
68 87 100
68 87 100
68 87 100
68 87 100
68 87 100
68 87 100
68 87 100
68 87 100
68 87 100
68 87 100
68 87 100
68 87 100
68 87 100
68 87 100
68 87 100
68 87 100
70 92 106
70 92 106
70 92 106
68 87 100
68 87 100
68 87 100
68 87 100
68 87 100
68 87 100
70 92 106
70 92 106
70 92 106
68 87 100
68 87 100
70 92 106
70 92 106
70 92 106
70 92 106
70 92 106
70 92 106
70 92 106
70 92 106
68 87 100
70 92 106
71 97 112
70 92 106
62 77 90
62 77 90
62 77 90
68 87 100
79 97 109
68 87 100
53 72 83
39 51 61
23 29 39
6 8 13
2 0 2
1 0 0
5 4 5
6 8 13
5 6 9
4 1 2
0 0 0
0 0 0
0 0 0
0 0 0
0 0 0
0 0 0
0 0 0
0 0 0
0 0 0
0 0 0
0 0 0
0 0 0
0 0 0
0 0 0
0 0 0
0 0 0
0 0 0
0 0 0
0 0 0
0 0 0
0 0 0
0 0 0
0 0 0
0 0 0
0 0 0
0 0 0
0 0 0
0 0 0
0 0 0
0 0 0
0 0 0
0 0 0
1 1 1
1 1 1
1 1 1
1 1 1
1 1 1
1 1 1
1 1 1
1 1 1
1 1 1
1 1 1
1 1 1
1 1 1
1 1 1
1 1 1
0 1 1
0 0 0
0 0 0
1 0 0
1 0 0
0 0 0
0 0 0
1 0 0
1 0 0
2 0 0
2 0 0
1 1 1
1 1 1
1 1 1
1 1 1
1 3 2
1 4 5
3 4 6
1 1 5
0 0 1
5 6 9
23 29 39
31 43 53
12 20 29
0 0 7
0 0 3
2 4 11
2 4 11
0 0 4
2 0 2
2 0 1
2 1 0
1 2 0
1 2 0
1 2 0
1 2 0
1 1 1
1 1 1
1 1 1
1 1 1
1 1 1
1 1 1
1 1 1
1 1 1
1 1 1
1 1 1
1 1 1
1 1 1
1 1 1
1 1 1
1 1 1
1 1 1
0 0 0
0 0 0
0 0 0
0 0 0
0 0 0
0 0 0
0 0 0
0 0 0
0 0 0
0 0 0
0 0 0
0 0 0
0 0 0
0 0 0
0 0 0
0 0 0
0 0 0
0 0 0
0 0 0
0 0 0
0 0 0
0 0 0
0 0 0
0 0 0
0 0 0
0 0 0
0 0 0
0 0 0
0 0 0
0 0 0
0 0 0
0 0 0
0 0 0
0 0 0
0 0 0
0 0 0
0 0 0
0 0 0
0 0 0
0 0 0
0 0 0
0 0 0
0 0 0
0 0 0
0 0 0
0 0 0
0 0 0
0 0 0
0 0 0
0 0 0
0 0 0
0 0 0
0 0 0
0 0 0
0 0 0
0 0 0
0 0 0
0 0 0
0 0 0
0 0 0
0 0 0
0 0 0
0 0 0
0 0 0
0 0 0
0 0 0
0 0 0
0 0 0
0 0 0
0 0 0
0 0 0
0 0 0
0 0 0
0 0 0
0 0 0
0 0 0
0 0 0
0 0 0
0 0 0
0 0 0
0 0 0
0 0 0
0 0 0
0 0 0
0 0 0
0 0 0
0 0 0
0 0 0
0 0 0
0 0 0
0 0 0
0 0 0
0 0 0
0 0 0
0 0 0
0 0 0
0 0 0
0 0 0
0 0 0
0 0 0
0 0 0
0 0 0
0 0 0
0 0 0
0 0 0
0 0 0
0 0 0
0 0 0
0 0 0
0 0 0
0 0 0
0 0 0
0 0 0
0 0 0
0 0 0
0 0 0
0 0 0
0 0 0
0 0 0
0 0 0
0 0 0
0 0 0
0 0 0
0 0 0
0 0 0
0 0 0
0 0 0
0 0 0
0 0 0
1 0 0
2 0 0
1 0 0
2 0 0
5 4 5
5 6 9
5 6 9
5 6 9
5 6 9
5 6 9
1 4 5
1 6 12
12 20 29
31 43 53
47 64 75
68 87 100
68 87 100
62 77 90
55 79 91
62 77 90
68 87 100
68 87 100
68 87 100
68 87 100
68 87 100
68 87 100
68 87 100
68 87 100
68 87 100
70 92 106
70 92 106
70 92 106
70 92 106
70 92 106
70 92 106
68 87 100
68 87 100
68 87 100
68 87 100
68 87 100
68 87 100
68 87 100
70 92 106
70 92 106
79 97 109
70 92 106
62 77 90
53 72 83
53 72 83
47 64 75
39 51 61
39 51 61
31 51 61
31 43 53
14 29 40
4 17 26
4 17 26
4 17 26
0 12 19
0 8 14
0 4 9
0 1 6
0 1 6
0 2 9
0 2 9
0 4 9
2 6 12
2 10 15
6 12 17
6 12 17
2 10 15
2 6 12
1 4 10
0 3 5
0 3 5
0 4 5
0 3 5
0 4 5
0 3 5
0 1 6
0 1 6
0 1 4
0 1 3
0 1 3
0 0 4
0 0 4
0 0 4
0 0 4
0 1 3
0 1 4
0 1 4
0 2 4
0 1 3
0 1 3
0 0 2
0 0 2
1 1 2
1 1 2
1 1 2
1 1 2
1 1 2
0 1 1
1 1 2
1 1 2
0 0 0
0 0 0
0 0 0
0 0 0
0 0 0
0 0 0
0 0 0
0 0 0
0 0 0
0 0 0
0 0 0
0 0 0
0 0 0
0 0 0
0 0 0
0 0 0
0 0 0
0 0 0
0 0 0
0 0 0
0 0 0
0 0 0
0 0 0
0 0 0
0 0 0
0 0 0
0 0 0
0 0 0
0 0 0
0 0 0
0 0 0
0 0 0
0 0 0
0 0 0
0 0 0
0 0 0
0 0 0
0 0 0
0 0 0
0 0 0
0 0 0
0 0 0
0 0 0
0 0 0
0 0 0
0 0 0
0 0 0
0 0 0
0 4 12
0 12 19
12 20 29
24 35 46
24 35 46
24 35 46
23 41 52
23 41 52
23 41 52
24 35 46
24 35 46
23 41 52
23 41 52
23 41 52
23 41 52
23 41 52
24 35 46
24 35 46
24 35 46
24 35 46
31 43 53
31 43 53
31 43 53
31 43 53
31 43 53
31 43 53
31 43 53
31 43 53
31 43 53
31 43 53
31 43 53
31 43 53
31 43 53
31 43 53
31 43 53
31 43 53
31 43 53
31 43 53
31 43 53
31 43 53
31 43 53
23 41 52
23 41 52
23 41 52
23 41 52
23 41 52
23 41 52
23 41 52
23 41 52
23 41 52
23 41 52
23 41 52
23 41 52
23 41 52
23 41 52
23 41 52
23 41 52
23 41 52
23 41 52
23 41 52
23 41 52
23 41 52
23 41 52
23 41 52
23 41 52
23 41 52
23 41 52
23 41 52
31 51 61
31 51 61
31 51 61
23 41 52
23 41 52
23 41 52
23 41 52
23 41 52
23 41 52
23 41 52
23 41 52
23 41 52
23 41 52
23 41 52
31 51 61
31 51 61
31 51 61
24 35 46
23 29 39
24 35 46
31 43 53
39 51 61
39 51 61
31 43 53
12 20 29
6 8 13
5 6 9
6 1 4
7 1 0
7 1 0
6 1 4
6 1 4
3 0 0
1 0 0
0 0 0
0 0 0
0 0 0
0 0 0
0 0 0
0 0 0
0 0 0
0 0 0
0 0 0
0 0 0
0 0 0
0 0 0
0 0 0
0 0 0
0 0 0
0 0 0
0 0 0
0 0 0
0 0 0
0 0 0
0 0 0
0 0 0
0 0 0
0 0 0
0 0 0
0 0 0
0 0 0
0 0 0
0 0 0
0 0 0
0 0 0
1 1 1
1 1 1
1 1 1
1 1 1
1 1 1
1 1 1
1 1 1
1 1 1
1 1 1
1 1 1
1 1 1
1 1 1
1 1 1
1 1 1
1 1 1
0 0 0
0 0 0
0 0 0
0 0 0
0 0 0
0 0 0
0 0 0
0 0 0
0 0 0
0 0 0
1 1 1
1 1 1
1 1 1
1 1 1
2 1 3
1 1 5
3 4 6
1 1 5
0 0 0
2 1 3
12 20 29
23 29 39
6 12 17
0 0 6
0 0 6
2 6 12
5 6 9
1 1 3
1 0 1
1 1 1
1 1 1
1 2 0
1 2 0
1 2 0
1 2 0
1 1 1
1 1 1
1 1 1
1 1 1
1 1 1
1 1 1
1 1 1
1 1 1
1 1 1
1 1 1
1 1 1
1 1 1
1 1 1
1 1 1
1 1 1
1 1 1
0 0 0
0 0 0
0 0 0
0 0 0
0 0 0
0 0 0
0 0 0
0 0 0
0 0 0
0 0 0
0 0 0
0 0 0
0 0 0
0 0 0
0 0 0
0 0 0
0 0 0
0 0 0
0 0 0
0 0 0
0 0 0
0 0 0
0 0 0
0 0 0
0 0 0
0 0 0
0 0 0
0 0 0
0 0 0
0 0 0
0 0 0
0 0 0
0 0 0
0 0 0
0 0 0
0 0 0
0 0 0
0 0 0
0 0 0
0 0 0
0 0 0
0 0 0
0 0 0
0 0 0
0 0 0
0 0 0
0 0 0
0 0 0
0 0 0
0 0 0
0 0 0
0 0 0
0 0 0
0 0 0
0 0 0
0 0 0
0 0 0
0 0 0
0 0 0
0 0 0
0 0 0
0 0 0
0 0 0
0 0 0
0 0 0
0 0 0
0 0 0
0 0 0
0 0 0
0 0 0
0 0 0
0 0 0
0 0 0
0 0 0
0 0 0
0 0 0
0 0 0
0 0 0
0 0 0
0 0 0
0 0 0
0 0 0
0 0 0
0 0 0
0 0 0
0 0 0
0 0 0
0 0 0
0 0 0
0 0 0
0 0 0
0 0 0
0 0 0
0 0 0
0 0 0
0 0 0
0 0 0
0 0 0
0 0 0
0 0 0
0 0 0
0 0 0
0 0 0
0 0 0
0 0 0
0 0 0
0 0 0
0 0 0
0 0 0
0 0 0
0 0 0
0 0 0
0 0 0
0 0 0
0 0 0
0 0 0
0 0 0
0 0 0
0 0 0
0 0 0
0 0 0
0 0 0
0 0 0
0 0 0
0 0 0
0 0 0
0 0 0
0 0 0
0 0 0
1 0 0
2 0 0
1 0 0
2 0 0
3 0 1
4 1 2
3 0 2
1 1 1
1 1 2
1 1 3
0 0 2
0 3 5
2 6 12
6 12 17
14 29 40
31 43 53
31 51 61
23 41 52
23 41 52
23 41 52
23 41 52
23 41 52
23 41 52
23 41 52
23 41 52
23 41 52
23 41 52
23 41 52
23 41 52
23 41 52
23 41 52
23 41 52
23 41 52
23 41 52
23 41 52
23 41 52
23 41 52
23 41 52
24 35 46
24 35 46
24 35 46
14 29 40
14 29 40
14 29 40
14 29 40
14 29 40
12 20 29
12 20 29
12 20 29
4 17 26
6 12 17
6 12 17
6 12 17
6 8 13
2 4 11
0 1 10
0 4 12
0 4 12
0 4 12
0 6 13
0 6 13
0 4 12
0 4 12
0 4 12
0 4 12
1 4 10
6 8 13
6 12 17
6 12 17
6 12 17
6 12 17
2 6 12
0 4 9
0 1 6
0 2 4
0 2 4
0 2 4
0 2 4
0 2 4
0 1 6
0 1 4
0 0 3
0 0 2
0 0 2
0 0 2
0 0 2
0 0 2
0 0 2
0 0 2
0 0 2
0 0 2
0 0 2
0 0 2
0 0 2
0 0 2
0 1 1
0 2 3
0 2 3
0 2 3
0 2 3
0 2 3
0 2 3
1 1 3
1 1 3
0 0 1
0 0 0
0 0 0
0 0 0
0 0 0
0 0 0
0 0 0
0 0 0
0 0 0
0 0 0
0 0 0
0 0 0
0 0 0
0 0 0
0 0 0
0 0 0
0 0 0
0 0 0
0 0 0
0 0 0
0 0 0
0 0 0
0 0 0
0 0 0
0 0 0
0 0 0
0 0 0
0 0 0
0 0 0
0 0 0
0 0 0
0 0 0
0 0 0
0 0 0
0 0 0
0 0 0
0 0 0
0 0 0
0 0 0
0 0 0
0 0 0
0 0 0
0 0 0
0 0 0
0 0 0
0 0 0
0 0 0
0 0 0
0 4 9
1 4 10
2 6 12
6 8 13
2 10 15
2 10 15
2 10 15
2 10 15
0 8 14
0 8 14
1 6 12
0 8 14
0 8 14
2 10 15
2 10 15
0 8 14
0 8 14
0 8 14
0 8 14
2 6 12
6 8 13
6 8 13
6 8 13
6 8 13
2 10 15
2 10 15
2 10 15
2 10 15
2 10 15
2 10 15
2 10 15
2 10 15
2 10 15
2 10 15
2 10 15
2 10 15
2 10 15
2 10 15
2 10 15
2 10 15
2 10 15
2 10 15
0 12 19
0 12 19
0 12 19
0 12 19
0 12 19
0 12 19
0 12 19
0 12 19
0 12 19
0 12 19
0 12 19
0 12 19
0 12 19
0 12 19
0 12 19
0 12 19
0 12 19
0 12 19
0 12 19
0 12 19
0 12 19
0 12 19
4 17 26
4 17 26
0 12 19
4 17 26
4 17 26
4 17 26
4 17 26
4 17 26
4 17 26
4 17 26
4 17 26
4 17 26
4 17 26
4 17 26
4 17 26
4 17 26
4 17 26
4 17 26
4 17 26
4 17 26
4 17 26
0 12 19
0 4 16
0 4 16
6 12 17
12 20 29
12 20 29
6 12 17
6 8 13
6 1 4
6 1 4
7 1 0
7 1 0
7 1 0
7 1 0
7 1 0
3 0 0
1 0 0
0 0 0
0 0 0
0 0 0
0 0 0
0 0 0
0 0 0
0 0 0
0 0 0
0 0 0
0 0 0
0 0 0
0 0 0
0 0 0
0 0 0
0 0 0
0 0 0
0 0 0
0 0 0
0 0 0
0 0 0
0 0 0
0 0 0
0 0 0
0 0 0
0 0 0
0 0 0
0 0 0
0 0 0
0 0 0
0 0 0
0 0 0
1 1 1
1 1 1
1 1 1
1 1 1
1 1 1
1 1 1
1 1 1
1 1 1
1 1 1
1 1 1
1 1 1
1 1 1
1 1 1
1 1 1
1 1 1
0 0 0
0 0 0
0 0 0
0 0 0
0 0 0
0 0 0
0 0 0
0 0 0
0 0 0
0 0 0
1 1 1
1 1 1
1 1 1
1 1 1
2 1 3
1 1 5
3 4 6
0 1 6
2 1 3
3 4 6
6 12 17
6 12 17
6 8 13
0 0 6
1 1 8
2 6 12
3 4 6
1 1 3
1 0 1
1 1 1
1 1 1
1 2 0
1 2 0
1 2 0
1 2 0
1 1 1
1 1 1
1 1 1
1 1 1
1 1 1
1 1 1
1 1 1
1 1 1
1 1 1
1 1 1
1 1 1
1 1 1
1 1 1
1 1 1
1 1 1
1 1 1
0 0 0
0 0 0
0 0 0
0 0 0
0 0 0
0 0 0
0 0 0
0 0 0
0 0 0
0 0 0
0 0 0
0 0 0
0 0 0
0 0 0
0 0 0
0 0 0
0 0 0
0 0 0
0 0 0
0 0 0
0 0 0
0 0 0
0 0 0
0 0 0
0 0 0
0 0 0
0 0 0
0 0 0
0 0 0
0 0 0
0 0 0
0 0 0
0 0 0
0 0 0
0 0 0
0 0 0
0 0 0
0 0 0
0 0 0
0 0 0
0 0 0
0 0 0
0 0 0
0 0 0
0 0 0
0 0 0
0 0 0
0 0 0
0 0 0
0 0 0
0 0 0
0 0 0
0 0 0
0 0 0
0 0 0
0 0 0
0 0 0
0 0 0
0 0 0
0 0 0
0 0 0
0 0 0
0 0 0
0 0 0
0 0 0
0 0 0
0 0 0
0 0 0
0 0 0
0 0 0
0 0 0
0 0 0
0 0 0
0 0 0
0 0 0
0 0 0
0 0 0
0 0 0
0 0 0
0 0 0
0 0 0
0 0 0
0 0 0
0 0 0
0 0 0
0 0 0
0 0 0
0 0 0
0 0 0
0 0 0
0 0 0
0 0 0
0 0 0
0 0 0
0 0 0
0 0 0
0 0 0
0 0 0
0 0 0
0 0 0
0 0 0
0 0 0
0 0 0
0 0 0
0 0 0
0 0 0
0 0 0
0 0 0
0 0 0
0 0 0
0 0 0
0 0 0
0 0 0
0 0 0
0 0 0
0 0 0
0 0 0
0 0 0
0 0 0
0 0 0
0 0 0
0 0 0
0 0 0
0 0 0
0 0 0
0 0 0
0 0 0
0 0 0
0 0 0
2 1 0
3 1 0
3 1 0
3 1 0
2 0 0
2 0 0
1 0 0
0 0 0
0 0 1
0 0 3
1 1 3
0 3 5
0 2 4
0 3 5
2 10 15
4 17 26
4 17 26
4 17 26
0 12 19
0 12 19
4 17 26
0 12 19
0 12 19
0 12 19
0 12 19
0 12 19
0 12 19
0 12 19
0 12 19
0 12 19
0 12 19
0 12 19
0 12 19
0 12 19
0 12 19
0 12 19
0 12 19
0 8 14
0 4 16
0 4 16
0 1 13
0 1 10
0 0 9
0 0 6
0 0 4
0 0 3
0 0 1
0 0 1
0 0 2
0 0 3
0 0 3
0 0 3
0 0 3
0 0 4
0 0 6
0 0 9
0 0 9
1 1 8
1 4 10
2 6 12
0 8 14
0 8 14
2 6 12
2 6 12
2 4 11
2 4 11
2 6 12
6 8 13
6 8 13
6 8 13
6 8 13
2 4 11
0 4 9
0 1 6
0 2 4
0 2 4
0 2 4
0 1 5
0 2 4
0 1 4
0 1 3
0 0 3
0 0 2
0 0 2
0 0 2
0 0 2
0 0 2
0 0 2
0 0 2
0 0 2
0 0 2
0 0 2
0 0 2
0 0 2
0 0 2
0 1 1
0 2 3
0 2 3
0 2 3
0 2 3
0 2 3
0 2 3
1 1 3
1 1 3
0 0 1
0 0 0
0 0 0
0 0 0
0 0 0
0 0 0
0 0 0
0 0 0
0 0 0
0 0 0
0 0 0
0 0 0
0 0 0
0 0 0
0 0 0
0 0 0
0 0 0
0 0 0
0 0 0
0 0 0
0 0 0
0 0 0
0 0 0
0 0 0
0 0 0
0 0 0
0 0 0
0 0 0
0 0 0
0 0 0
0 0 0
0 0 0
0 0 0
0 0 0
0 0 0
0 0 0
0 0 0
0 0 0
0 0 0
0 0 0
0 0 0
0 0 0
0 0 0
0 0 0
0 0 0
0 0 0
0 0 0
0 0 0
1 1 8
1 1 5
0 1 3
0 0 1
0 0 2
0 0 3
0 2 4
0 4 5
0 6 5
0 6 5
0 6 5
0 6 5
0 6 5
0 6 5
0 6 5
0 6 5
0 4 5
0 4 5
0 3 5
0 2 4
0 2 4
0 2 4
0 2 4
0 2 4
0 2 4
0 3 5
0 3 5
0 3 5
0 3 5
0 3 5
0 3 5
0 3 5
0 3 5
0 4 5
0 4 5
0 4 5
0 4 5
0 4 5
0 4 5
0 4 5
0 4 5
0 4 5
0 4 9
0 4 9
0 4 9
0 4 9
0 4 9
0 4 9
0 4 9
0 4 9
0 4 9
0 4 9
0 4 9
0 4 9
0 4 12
0 4 12
0 4 12
0 4 12
0 4 12
0 4 16
0 4 16
0 4 16
0 4 16
0 4 16
0 4 16
0 4 16
0 4 16
0 4 16
0 4 16
0 12 19
0 4 16
0 4 16
0 4 16
0 4 16
0 4 16
0 4 16
0 4 16
0 4 16
0 4 16
0 4 16
0 4 16
0 4 16
0 4 16
0 4 16
0 4 16
0 4 16
0 1 13
0 0 9
0 0 6
2 1 7
2 4 11
6 8 13
6 8 13
5 6 9
6 1 4
7 1 0
7 1 0
7 1 0
7 1 0
7 1 0
3 0 0
0 0 0
0 0 0
0 0 0
0 0 0
0 0 0
0 0 0
0 0 0
0 0 0
0 0 0
0 0 0
0 0 0
0 0 0
0 0 0
0 0 0
0 0 0
0 0 0
0 0 0
0 0 0
0 0 0
0 0 0
0 0 0
0 0 0
0 0 0
0 0 0
0 0 0
0 0 0
0 0 0
0 0 0
0 0 0
0 0 0
0 0 0
0 0 0
1 1 1
1 1 1
1 1 1
1 1 1
1 1 1
1 1 1
1 1 1
1 1 1
1 1 1
1 1 1
1 1 1
1 1 1
1 1 1
1 1 1
1 1 1
0 0 0
0 0 0
0 0 0
0 0 0
0 0 0
0 0 0
0 0 0
0 0 0
0 0 0
0 0 0
1 1 1
1 1 1
1 1 1
1 1 1
2 1 3
2 1 3
1 1 5
2 1 7
1 4 10
2 4 11
2 4 11
2 1 7
0 1 6
0 0 6
1 4 10
5 6 9
3 4 6
1 1 3
1 0 1
1 1 1
1 2 1
1 2 0
1 2 0
1 2 0
1 2 0
1 1 1
1 1 1
1 1 1
1 1 1
1 1 1
1 1 1
1 1 1
1 1 1
1 1 1
1 1 1
0 0 0
0 0 0
0 0 0
0 0 0
0 0 0
0 0 0
0 0 0
0 0 0
0 0 0
0 0 0
0 0 0
0 0 0
0 0 0
0 0 0
0 0 0
0 0 0
0 0 0
0 0 0
0 0 0
0 0 0
0 0 0
0 0 0
0 0 0
0 0 0
0 0 0
0 0 0
0 0 0
0 0 0
0 0 0
0 0 0
0 0 0
0 0 0
0 0 0
0 0 0
0 0 0
0 0 0
0 0 0
0 0 0
0 0 0
0 0 0
0 0 0
0 0 0
0 0 0
0 0 0
0 0 0
0 0 0
0 0 0
0 0 0
0 0 0
0 0 0
0 0 0
0 0 0
0 0 0
0 0 0
0 0 0
0 0 0
0 0 0
0 0 0
0 0 0
0 0 0
0 0 0
0 0 0
0 0 0
0 0 0
0 0 0
0 0 0
0 0 0
0 0 0
0 0 0
0 0 0
0 0 0
0 0 0
0 0 0
0 0 0
0 0 0
0 0 0
0 0 0
0 0 0
0 0 0
0 0 0
0 0 0
0 0 0
0 0 0
0 0 0
0 0 0
0 0 0
0 0 0
0 0 0
0 0 0
0 0 0
0 0 0
0 0 0
0 0 0
0 0 0
0 0 0
0 0 0
0 0 0
0 0 0
0 0 0
0 0 0
0 0 0
0 0 0
0 0 0
0 0 0
0 0 0
0 0 0
0 0 0
0 0 0
0 0 0
0 0 0
0 0 0
0 0 0
0 0 0
0 0 0
0 0 0
0 0 0
0 0 0
0 0 0
0 0 0
0 0 0
0 0 0
0 0 0
0 0 0
0 0 0
0 0 0
0 0 0
0 0 0
0 0 0
0 0 0
0 0 0
0 0 0
0 0 0
0 0 0
0 1 1
1 1 1
3 2 0
4 2 0
4 2 0
4 2 0
4 2 0
4 2 0
3 4 2
5 4 5
5 4 5
3 4 6
1 4 10
2 6 12
0 4 9
0 4 9
0 8 14
0 12 19
4 17 26
0 12 19
0 4 16
0 4 16
0 4 16
0 4 16
0 4 16
0 4 16
0 4 16
0 4 16
0 4 16
0 4 16
0 4 16
0 4 16
0 4 16
0 4 16
0 4 16
0 4 16
0 4 16
0 4 16
0 4 16
0 1 13
0 0 12
0 0 9
0 0 9
0 0 9
0 0 9
0 0 7
0 0 7
0 0 6
0 0 5
0 0 5
0 0 5
0 0 5
0 0 6
0 1 6
0 2 9
0 2 9
1 1 8
0 0 9
0 0 9
0 0 7
0 0 7
1 1 8
1 1 8
0 2 9
1 1 8
0 1 6
0 1 6
1 1 8
1 1 8
1 4 10
1 4 10
1 4 10
0 4 9
0 1 6
0 1 6
0 1 5
0 1 5
0 1 5
0 1 5
0 1 5
0 1 5
0 0 3
0 0 2
0 0 2
0 0 2
0 0 2
0 0 2
0 0 2
0 0 2
0 0 2
0 0 2
0 0 2
0 0 2
0 0 2
0 0 2
0 0 2
0 0 2
0 1 1
0 2 3
0 2 3
0 2 3
0 2 3
0 2 3
0 2 3
0 2 3
0 2 3
0 1 1
0 0 0
0 0 0
0 0 0
0 0 0
0 0 0
0 0 0
0 0 0
0 0 0
0 0 0
0 0 0
0 0 0
0 0 0
0 0 0
0 0 0
0 0 0
0 0 0
0 0 0
0 0 0
0 0 0
0 0 0
0 0 0
0 0 0
0 0 0
0 0 0
0 0 0
0 0 0
0 0 0
0 0 0
0 0 0
0 0 0
0 0 0
0 0 0
0 0 0
0 0 0
0 0 0
0 0 0
0 0 0
0 0 0
0 0 0
0 0 0
0 0 0
0 0 0
0 0 0
0 0 0
0 0 0
0 0 0
0 0 0
1 1 8
1 1 5
0 1 1
1 0 0
1 0 0
1 0 3
0 2 4
1 4 5
5 6 9
2 6 12
2 6 12
5 6 9
5 6 9
5 6 9
5 6 9
0 6 5
0 6 5
3 4 6
1 4 5
1 1 5
1 1 5
1 1 5
1 1 5
1 1 5
1 1 5
1 4 5
1 4 5
1 4 5
1 4 5
1 4 5
1 4 5
1 4 5
1 4 5
1 4 5
1 4 5
1 4 5
1 4 5
1 4 5
1 4 5
1 4 5
1 4 5
1 4 5
0 4 9
0 4 9
0 4 9
0 4 9
0 4 9
0 4 9
0 4 9
1 4 10
1 4 10
1 4 10
1 4 10
1 4 10
0 4 12
0 4 12
0 4 12
0 4 12
0 4 12
0 4 12
0 4 12
0 4 12
0 4 16
0 4 16
0 4 16
0 4 16
0 4 16
0 4 16
0 4 16
0 12 19
0 4 16
0 4 16
0 4 16
0 4 16
0 4 16
0 4 16
0 4 16
0 4 16
0 4 16
0 4 16
0 4 16
0 4 16
0 4 16
0 4 16
0 4 16
0 4 16
0 4 16
2 4 11
0 0 4
0 0 2
0 0 4
5 6 9
6 12 17
6 8 13
6 1 4
7 1 0
7 1 0
7 1 0
7 1 0
7 1 0
3 0 0
0 0 0
0 0 0
0 0 0
0 0 0
0 0 0
0 0 0
0 0 0
0 0 0
0 0 0
0 0 0
0 0 0
0 0 0
0 0 0
0 0 0
0 0 0
0 0 0
0 0 0
0 0 0
0 0 0
0 0 0
0 0 0
0 0 0
0 0 0
0 0 0
0 0 0
0 0 0
0 0 0
0 0 0
0 0 0
0 0 0
0 0 0
0 0 0
1 1 1
1 1 1
1 1 1
1 1 1
1 1 1
1 1 1
1 1 1
1 1 1
1 1 1
1 1 1
1 1 1
1 1 1
1 1 1
1 1 1
1 1 1
0 0 0
0 0 0
0 0 0
0 0 0
0 0 0
0 0 0
0 0 0
0 0 0
0 0 0
0 0 0
1 1 1
1 1 1
1 1 1
1 1 1
2 1 3
2 1 3
1 1 5
2 1 7
6 8 13
6 8 13
1 1 8
0 0 4
0 0 4
0 0 6
5 6 9
5 6 9
3 4 6
1 1 3
1 0 1
1 1 1
1 2 1
1 2 0
1 2 0
1 2 0
1 2 0
1 1 1
1 1 1
1 1 1
1 1 1
1 1 1
1 1 1
1 1 1
1 1 1
1 1 1
1 1 1
0 0 0
0 0 0
0 0 0
0 0 0
0 0 0
0 0 0
0 0 0
0 0 0
0 0 0
0 0 0
0 0 0
0 0 0
0 0 0
0 0 0
0 0 0
0 0 0
0 0 0
0 0 0
0 0 0
0 0 0
0 0 0
0 0 0
0 0 0
0 0 0
0 0 0
0 0 0
0 0 0
0 0 0
0 0 0
0 0 0
0 0 0
0 0 0
0 0 0
0 0 0
0 0 0
0 0 0
0 0 0
0 0 0
0 0 0
0 0 0
0 0 0
0 0 0
0 0 0
0 0 0
0 0 0
0 0 0
0 0 0
0 0 0
0 0 0
0 0 0
0 0 0
0 0 0
0 0 0
0 0 0
0 0 0
0 0 0
0 0 0
0 0 0
0 0 0
0 0 0
0 0 0
0 0 0
0 0 0
0 0 0
0 0 0
0 0 0
0 0 0
0 0 0
0 0 0
0 0 0
0 0 0
0 0 0
0 0 0
0 0 0
0 0 0
0 0 0
0 0 0
0 0 0
0 0 0
0 0 0
0 0 0
0 0 0
0 0 0
0 0 0
0 0 0
0 0 0
0 0 0
0 0 0
0 0 0
0 0 0
0 0 0
0 0 0
0 0 0
0 0 0
0 0 0
0 0 0
0 0 0
0 0 0
0 0 0
0 0 0
0 0 0
0 0 0
0 0 0
0 0 0
0 0 0
0 0 0
0 0 0
0 0 0
0 0 0
0 0 0
0 0 0
0 0 0
0 0 0
0 0 0
0 0 0
0 0 0
0 0 0
0 0 0
0 0 0
0 0 0
0 0 0
0 0 0
0 0 0
0 0 0
0 0 0
0 0 0
0 0 0
0 0 0
0 0 0
0 0 0
0 0 0
0 0 0
0 0 0
0 1 1
1 1 1
3 2 0
4 2 0
4 2 0
4 2 0
4 2 0
4 2 0
5 4 5
5 4 5
5 6 9
5 6 9
2 6 12
2 10 15
2 10 15
0 8 14
0 12 19
4 17 26
4 17 26
0 12 19
0 4 16
0 4 16
0 4 16
0 12 19
0 12 19
0 12 19
0 12 19
0 12 19
0 12 19
0 12 19
0 12 19
0 12 19
0 12 19
0 12 19
0 12 19
0 12 19
0 12 19
2 10 15
0 4 16
0 4 16
0 1 13
0 0 12
2 4 11
2 4 11
2 6 12
2 6 12
6 8 13
6 8 13
2 6 12
2 6 12
2 6 12
2 6 12
0 8 14
2 10 15
6 12 17
6 8 13
2 6 12
0 4 12
0 1 10
1 1 8
0 0 7
0 0 6
0 0 6
0 0 6
0 0 5
0 0 4
0 0 4
0 0 5
0 0 5
0 0 6
0 0 5
0 0 5
0 0 4
0 0 4
0 1 4
0 1 5
0 1 5
0 1 5
0 1 5
0 1 5
0 1 5
0 0 3
0 0 2
0 0 2
0 0 2
0 0 2
0 0 2
0 0 2
0 0 2
0 0 2
0 0 2
0 0 2
0 0 2
0 0 2
0 0 2
0 0 2
0 0 2
0 1 1
0 2 3
0 2 3
0 2 3
0 2 3
0 2 3
0 2 3
0 2 3
0 2 3
0 1 1
0 0 0
0 0 0
0 0 0
0 0 0
0 0 0
0 0 0
0 0 0
0 0 0
0 0 0
0 0 0
0 0 0
0 0 0
0 0 0
0 0 0
0 0 0
0 0 0
0 0 0
0 0 0
0 0 0
0 0 0
0 0 0
0 0 0
0 0 0
0 0 0
0 0 0
0 0 0
0 0 0
0 0 0
0 0 0
0 0 0
0 0 0
0 0 0
0 0 0
0 0 0
0 0 0
0 0 0
0 0 0
0 0 0
0 0 0
0 0 0
0 0 0
0 0 0
0 0 0
0 0 0
0 0 0
0 0 0
0 0 0
